Youthstudy/imurecv/data/merged/merged_20251106_183706.csv
System_Time,Timestamp_1,Gyro_X_1,Gyro_Y_1,Gyro_Z_1,Acc_X_1,Acc_Y_1,Acc_Z_1,Mag_X_1,Mag_Y_1,Mag_Z_1,Quat_W_1,Quat_X_1,Quat_Y_1,Quat_Z_1,Linear_Acc_X_1,Linear_Acc_Y_1,Linear_Acc_Z_1,Timestamp_2,Gyro_X_2,Gyro_Y_2,Gyro_Z_2,Acc_X_2,Acc_Y_2,Acc_Z_2,Mag_X_2,Mag_Y_2,Mag_Z_2,Quat_W_2,Quat_X_2,Quat_Y_2,Quat_Z_2,Linear_Acc_X_2,Linear_Acc_Y_2,Linear_Acc_Z_2,Timestamp_3,Gyro_X_3,Gyro_Y_3,Gyro_Z_3,Acc_X_3,Acc_Y_3,Acc_Z_3,Mag_X_3,Mag_Y_3,Mag_Z_3,Quat_W_3,Quat_X_3,Quat_Y_3,Quat_Z_3,Linear_Acc_X_3,Linear_Acc_Y_3,Linear_Acc_Z_3,kd_joint1,kd_joint2,kp_joint1,kp_joint2,p_des_joint1,p_des_joint2,ret0_joint1,ret0_joint2,ret1_joint1,ret1_joint2,ret2_joint1,ret2_joint2,t_ff_joint1,t_ff_joint2,v_des_joint1,v_des_joint2
2025-11-06 18:37:06.515,292.925,-0.072,0.183,-0.15,-0.346,-0.966,0.012,8.47,-3.88,-55.27,0.6910000000000001,-0.6907,0.0069,-0.2129,0.024,0.007,-0.03,125.055,0.334,-0.382,-0.098,-0.316,-0.788,-0.043,14.29,-26.8,-66.38,-0.3411,0.0433,-0.6851,-0.642,-0.09,-0.121,-0.015,282.495,0.679,0.178,-0.508,-0.099,-0.989,0.004,62.73,-12.01,-72.69,-0.4444,0.5113,0.5101,0.5297000000000001,0.009,-0.005,0.039,0.0,0.0,0.0,0.0,0.0,0.0,-0.0001916885375976,0.0005750656127929,-0.1538467407226562,-0.0659332275390625,-0.0036630630493164,-0.0036630630493164,0.0,0.0,0.0,0.0
2025-11-06 18:37:06.515,293.01,-0.028,-0.036,0.008,-0.347,-0.95,0.032,6.37,-4.26,-55.36,0.6959000000000001,-0.6842,-0.0165,-0.2169,0.056,-0.016,-0.068,125.055,0.334,-0.382,-0.098,-0.316,-0.788,-0.043,14.29,-26.8,-66.38,-0.3411,0.0433,-0.6851,-0.642,-0.09,-0.121,-0.015,282.495,0.679,0.178,-0.508,-0.099,-0.989,0.004,62.73,-12.01,-72.69,-0.4444,0.5113,0.5101,0.5297000000000001,0.009,-0.005,0.039,0.0,0.0,0.0,0.0,0.0,0.0,-0.0001916885375976,0.0005750656127929,-0.1538467407226562,-0.0659332275390625,-0.0036630630493164,-0.0036630630493164,0.0,0.0,0.0,0.0
2025-11-06 18:37:06.515,292.935,-1.199,5.384,-4.086,-0.366,-0.954,0.038,7.04,-5.29,-55.33,0.6960000000000001,-0.6848000000000001,-0.0117,-0.2155,0.064,-0.008,-0.068,125.055,0.334,-0.382,-0.098,-0.316,-0.788,-0.043,14.29,-26.8,-66.38,-0.3411,0.0433,-0.6851,-0.642,-0.09,-0.121,-0.015,282.495,0.679,0.178,-0.508,-0.099,-0.989,0.004,62.73,-12.01,-72.69,-0.4444,0.5113,0.5101,0.5297000000000001,0.009,-0.005,0.039,0.0,0.0,0.0,0.0,0.0,0.0,-0.0001916885375976,0.0005750656127929,-0.1538467407226562,-0.0659332275390625,-0.0036630630493164,-0.0036630630493164,0.0,0.0,0.0,0.0
2025-11-06 18:37:06.515,292.94,-0.497,2.643,-2.063,-0.364,-0.954,0.04,7.04,-5.29,-55.33,0.6978000000000001,-0.6824,-0.0195,-0.2165,0.078,-0.012,-0.081,125.055,0.334,-0.382,-0.098,-0.316,-0.788,-0.043,14.29,-26.8,-66.38,-0.3411,0.0433,-0.6851,-0.642,-0.09,-0.121,-0.015,282.495,0.679,0.178,-0.508,-0.099,-0.989,0.004,62.73,-12.01,-72.69,-0.4444,0.5113,0.5101,0.5297000000000001,0.009,-0.005,0.039,0.0,0.0,0.0,0.0,0.0,0.0,-0.0001916885375976,0.0005750656127929,-0.1538467407226562,-0.0659332275390625,-0.0036630630493164,-0.0036630630493164,0.0,0.0,0.0,0.0
2025-11-06 18:37:06.515,292.945,0.222,-0.308,0.17,-0.361,-0.955,0.042,6.66,-5.11,-54.83,0.6973,-0.683,-0.0188,-0.2163,0.075,-0.011,-0.081,125.055,0.334,-0.382,-0.098,-0.316,-0.788,-0.043,14.29,-26.8,-66.38,-0.3411,0.0433,-0.6851,-0.642,-0.09,-0.121,-0.015,282.495,0.679,0.178,-0.508,-0.099,-0.989,0.004,62.73,-12.01,-72.69,-0.4444,0.5113,0.5101,0.5297000000000001,0.009,-0.005,0.039,0.0,0.0,0.0,0.0,0.0,0.0,-0.0001916885375976,0.0005750656127929,-0.1538467407226562,-0.0659332275390625,-0.0036630630493164,-0.0036630630493164,0.0,0.0,0.0,0.0
2025-11-06 18:37:06.515,292.95,-0.001,-0.057,0.027,-0.358,-0.955,0.044,6.66,-5.11,-54.83,0.6972,-0.6831,-0.0186,-0.2163,0.071,-0.012,-0.083,125.055,0.334,-0.382,-0.098,-0.316,-0.788,-0.043,14.29,-26.8,-66.38,-0.3411,0.0433,-0.6851,-0.642,-0.09,-0.121,-0.015,282.495,0.679,0.178,-0.508,-0.099,-0.989,0.004,62.73,-12.01,-72.69,-0.4444,0.5113,0.5101,0.5297000000000001,0.009,-0.005,0.039,0.0,0.0,0.0,0.0,0.0,0.0,-0.0001916885375976,0.0005750656127929,-0.1538467407226562,-0.0659332275390625,-0.0036630630493164,-0.0036630630493164,0.0,0.0,0.0,0.0
2025-11-06 18:37:06.515,292.955,-0.047,-0.005,0.0,-0.356,-0.956,0.045,6.66,-5.11,-54.83,0.6972,-0.6831,-0.0185,-0.2163,0.069,-0.01,-0.083,125.055,0.334,-0.382,-0.098,-0.316,-0.788,-0.043,14.29,-26.8,-66.38,-0.3411,0.0433,-0.6851,-0.642,-0.09,-0.121,-0.015,282.495,0.679,0.178,-0.508,-0.099,-0.989,0.004,62.73,-12.01,-72.69,-0.4444,0.5113,0.5101,0.5297000000000001,0.009,-0.005,0.039,0.0,0.0,0.0,0.0,0.0,0.0,-0.0001916885375976,0.0005750656127929,-0.1538467407226562,-0.0659332275390625,-0.0036630630493164,-0.0036630630493164,0.0,0.0,0.0,0.0
2025-11-06 18:37:06.515,292.965,-0.047,-0.001,0.001,-0.351,-0.955,0.041,7.19,-5.0200000000000005,-55.04,0.6970000000000001,-0.6832,-0.0182,-0.2164,0.063,-0.011,-0.079,125.055,0.334,-0.382,-0.098,-0.316,-0.788,-0.043,14.29,-26.8,-66.38,-0.3411,0.0433,-0.6851,-0.642,-0.09,-0.121,-0.015,282.495,0.679,0.178,-0.508,-0.099,-0.989,0.004,62.73,-12.01,-72.69,-0.4444,0.5113,0.5101,0.5297000000000001,0.009,-0.005,0.039,0.0,0.0,0.0,0.0,0.0,0.0,-0.0001916885375976,0.0005750656127929,-0.1538467407226562,-0.0659332275390625,-0.0036630630493164,-0.0036630630493164,0.0,0.0,0.0,0.0
2025-11-06 18:37:06.515,292.93,-0.199,0.966,-0.896,-0.367,-0.953,0.036,8.47,-3.88,-55.27,0.6918000000000001,-0.6898000000000001,0.0038,-0.213,0.049,-0.005,-0.057,125.055,0.334,-0.382,-0.098,-0.316,-0.788,-0.043,14.29,-26.8,-66.38,-0.3411,0.0433,-0.6851,-0.642,-0.09,-0.121,-0.015,282.495,0.679,0.178,-0.508,-0.099,-0.989,0.004,62.73,-12.01,-72.69,-0.4444,0.5113,0.5101,0.5297000000000001,0.009,-0.005,0.039,0.0,0.0,0.0,0.0,0.0,0.0,-0.0001916885375976,0.0005750656127929,-0.1538467407226562,-0.0659332275390625,-0.0036630630493164,-0.0036630630493164,0.0,0.0,0.0,0.0
2025-11-06 18:37:06.515,292.975,-0.048,-0.007,0.0,-0.346,-0.949,0.036,6.86,-5.87,-54.83,0.6967,-0.6835,-0.0178,-0.2167,0.057,-0.017,-0.074,125.055,0.334,-0.382,-0.098,-0.316,-0.788,-0.043,14.29,-26.8,-66.38,-0.3411,0.0433,-0.6851,-0.642,-0.09,-0.121,-0.015,282.495,0.679,0.178,-0.508,-0.099,-0.989,0.004,62.73,-12.01,-72.69,-0.4444,0.5113,0.5101,0.5297000000000001,0.009,-0.005,0.039,0.0,0.0,0.0,0.0,0.0,0.0,-0.0001916885375976,0.0005750656127929,-0.1538467407226562,-0.0659332275390625,-0.0036630630493164,-0.0036630630493164,0.0,0.0,0.0,0.0
2025-11-06 18:37:06.515,292.98,-0.05,-0.011,0.0,-0.344,-0.949,0.034,6.86,-5.87,-54.83,0.6965,-0.6837000000000001,-0.0177,-0.2168,0.055,-0.017,-0.071,125.055,0.334,-0.382,-0.098,-0.316,-0.788,-0.043,14.29,-26.8,-66.38,-0.3411,0.0433,-0.6851,-0.642,-0.09,-0.121,-0.015,282.495,0.679,0.178,-0.508,-0.099,-0.989,0.004,62.73,-12.01,-72.69,-0.4444,0.5113,0.5101,0.5297000000000001,0.009,-0.005,0.039,0.0,0.0,0.0,0.0,0.0,0.0,-0.0001916885375976,0.0005750656127929,-0.1538467407226562,-0.0659332275390625,-0.0036630630493164,-0.0036630630493164,0.0,0.0,0.0,0.0
2025-11-06 18:37:06.515,292.985,-0.049,-0.019,0.0,-0.345,-0.948,0.033,6.34,-4.32,-54.57,0.6964,-0.6837000000000001,-0.0175,-0.2168,0.055,-0.018,-0.07,125.055,0.334,-0.382,-0.098,-0.316,-0.788,-0.043,14.29,-26.8,-66.38,-0.3411,0.0433,-0.6851,-0.642,-0.09,-0.121,-0.015,282.495,0.679,0.178,-0.508,-0.099,-0.989,0.004,62.73,-12.01,-72.69,-0.4444,0.5113,0.5101,0.5297000000000001,0.009,-0.005,0.039,0.0,0.0,0.0,0.0,0.0,0.0,-0.0001916885375976,0.0005750656127929,-0.1538467407226562,-0.0659332275390625,-0.0036630630493164,-0.0036630630493164,0.0,0.0,0.0,0.0
2025-11-06 18:37:06.515,292.99,-0.046,-0.03,0.002,-0.344,-0.948,0.032,6.34,-4.32,-54.57,0.6964,-0.6838000000000001,-0.0173,-0.2169,0.054,-0.017,-0.069,125.055,0.334,-0.382,-0.098,-0.316,-0.788,-0.043,14.29,-26.8,-66.38,-0.3411,0.0433,-0.6851,-0.642,-0.09,-0.121,-0.015,282.495,0.679,0.178,-0.508,-0.099,-0.989,0.004,62.73,-12.01,-72.69,-0.4444,0.5113,0.5101,0.5297000000000001,0.009,-0.005,0.039,0.0,0.0,0.0,0.0,0.0,0.0,-0.0001916885375976,0.0005750656127929,-0.1538467407226562,-0.0659332275390625,-0.0036630630493164,-0.0036630630493164,0.0,0.0,0.0,0.0
2025-11-06 18:37:06.515,292.995,-0.043,-0.039,0.001,-0.345,-0.949,0.032,6.34,-4.26,-55.18,0.6963,-0.6839000000000001,-0.0171,-0.2169,0.054,-0.016,-0.069,125.055,0.334,-0.382,-0.098,-0.316,-0.788,-0.043,14.29,-26.8,-66.38,-0.3411,0.0433,-0.6851,-0.642,-0.09,-0.121,-0.015,282.495,0.679,0.178,-0.508,-0.099,-0.989,0.004,62.73,-12.01,-72.69,-0.4444,0.5113,0.5101,0.5297000000000001,0.009,-0.005,0.039,0.0,0.0,0.0,0.0,0.0,0.0,-0.0001916885375976,0.0005750656127929,-0.1538467407226562,-0.0659332275390625,-0.0036630630493164,-0.0036630630493164,0.0,0.0,0.0,0.0
2025-11-06 18:37:06.515,293.0,-0.039,-0.045,0.005,-0.344,-0.949,0.032,6.34,-4.26,-55.18,0.6962,-0.684,-0.0169,-0.2169,0.053,-0.017,-0.068,125.055,0.334,-0.382,-0.098,-0.316,-0.788,-0.043,14.29,-26.8,-66.38,-0.3411,0.0433,-0.6851,-0.642,-0.09,-0.121,-0.015,282.495,0.679,0.178,-0.508,-0.099,-0.989,0.004,62.73,-12.01,-72.69,-0.4444,0.5113,0.5101,0.5297000000000001,0.009,-0.005,0.039,0.0,0.0,0.0,0.0,0.0,0.0,-0.0001916885375976,0.0005750656127929,-0.1538467407226562,-0.0659332275390625,-0.0036630630493164,-0.0036630630493164,0.0,0.0,0.0,0.0
2025-11-06 18:37:06.515,292.97,-0.048,-0.003,0.0,-0.348,-0.951,0.038,6.86,-5.87,-54.83,0.6968000000000001,-0.6834,-0.018,-0.2166,0.06,-0.015,-0.076,125.055,0.334,-0.382,-0.098,-0.316,-0.788,-0.043,14.29,-26.8,-66.38,-0.3411,0.0433,-0.6851,-0.642,-0.09,-0.121,-0.015,282.495,0.679,0.178,-0.508,-0.099,-0.989,0.004,62.73,-12.01,-72.69,-0.4444,0.5113,0.5101,0.5297000000000001,0.009,-0.005,0.039,0.0,0.0,0.0,0.0,0.0,0.0,-0.0001916885375976,0.0005750656127929,-0.1538467407226562,-0.0659332275390625,-0.0036630630493164,-0.0036630630493164,0.0,0.0,0.0,0.0
2025-11-06 18:37:06.515,293.005,-0.034,-0.044,0.007,-0.344,-0.949,0.032,6.34,-4.26,-55.18,0.6961,-0.6841,-0.0167,-0.2169,0.053,-0.017,-0.068,125.055,0.334,-0.382,-0.098,-0.316,-0.788,-0.043,14.29,-26.8,-66.38,-0.3411,0.0433,-0.6851,-0.642,-0.09,-0.121,-0.015,282.495,0.679,0.178,-0.508,-0.099,-0.989,0.004,62.73,-12.01,-72.69,-0.4444,0.5113,0.5101,0.5297000000000001,0.009,-0.005,0.039,0.0,0.0,0.0,0.0,0.0,0.0,-0.0001916885375976,0.0005750656127929,-0.1538467407226562,-0.0659332275390625,-0.0036630630493164,-0.0036630630493164,0.0,0.0,0.0,0.0
2025-11-06 18:37:06.515,293.055,-0.02,-0.049,0.011,-0.372,-0.947,0.035,6.84,-4.29,-55.620000000000005,0.6945,-0.6855,-0.0144,-0.2177,0.076,-0.017,-0.068,125.055,0.334,-0.382,-0.098,-0.316,-0.788,-0.043,14.29,-26.8,-66.38,-0.3411,0.0433,-0.6851,-0.642,-0.09,-0.121,-0.015,282.495,0.679,0.178,-0.508,-0.099,-0.989,0.004,62.73,-12.01,-72.69,-0.4444,0.5113,0.5101,0.5297000000000001,0.009,-0.005,0.039,0.0,0.0,0.0,0.0,0.0,0.0,-0.0001916885375976,0.0005750656127929,-0.1538467407226562,-0.0659332275390625,-0.0036630630493164,-0.0036630630493164,0.0,0.0,0.0,0.0
2025-11-06 18:37:06.515,292.96,-0.045,-0.003,0.001,-0.352,-0.954,0.044,7.19,-5.0200000000000005,-55.04,0.6971,-0.6832,-0.0184,-0.2164,0.065,-0.012,-0.082,125.055,0.334,-0.382,-0.098,-0.316,-0.788,-0.043,14.29,-26.8,-66.38,-0.3411,0.0433,-0.6851,-0.642,-0.09,-0.121,-0.015,282.495,0.679,0.178,-0.508,-0.099,-0.989,0.004,62.73,-12.01,-72.69,-0.4444,0.5113,0.5101,0.5297000000000001,0.009,-0.005,0.039,0.0,0.0,0.0,0.0,0.0,0.0,-0.0001916885375976,0.0005750656127929,-0.1538467407226562,-0.0659332275390625,-0.0036630630493164,-0.0036630630493164,0.0,0.0,0.0,0.0
2025-11-06 18:37:06.515,293.02,-0.026,-0.032,0.011,-0.355,-0.947,0.032,6.4,-4.64,-55.39,0.6956,-0.6845,-0.016,-0.2171,0.062,-0.018,-0.067,125.055,0.334,-0.382,-0.098,-0.316,-0.788,-0.043,14.29,-26.8,-66.38,-0.3411,0.0433,-0.6851,-0.642,-0.09,-0.121,-0.015,282.495,0.679,0.178,-0.508,-0.099,-0.989,0.004,62.73,-12.01,-72.69,-0.4444,0.5113,0.5101,0.5297000000000001,0.009,-0.005,0.039,0.0,0.0,0.0,0.0,0.0,0.0,-0.0001916885375976,0.0005750656127929,-0.1538467407226562,-0.0659332275390625,-0.0036630630493164,-0.0036630630493164,0.0,0.0,0.0,0.0
2025-11-06 18:37:06.515,293.015,-0.025,-0.038,0.01,-0.35,-0.949,0.032,6.37,-4.26,-55.36,0.6958000000000001,-0.6844,-0.0162,-0.217,0.058,-0.016,-0.067,125.055,0.334,-0.382,-0.098,-0.316,-0.788,-0.043,14.29,-26.8,-66.38,-0.3411,0.0433,-0.6851,-0.642,-0.09,-0.121,-0.015,282.495,0.679,0.178,-0.508,-0.099,-0.989,0.004,62.73,-12.01,-72.69,-0.4444,0.5113,0.5101,0.5297000000000001,0.009,-0.005,0.039,0.0,0.0,0.0,0.0,0.0,0.0,-0.0001916885375976,0.0005750656127929,-0.1538467407226562,-0.0659332275390625,-0.0036630630493164,-0.0036630630493164,0.0,0.0,0.0,0.0
2025-11-06 18:37:06.515,293.03,-0.025,-0.032,0.013,-0.36,-0.947,0.032,6.4,-4.64,-55.39,0.6953,-0.6848000000000001,-0.0155,-0.2173,0.067,-0.018,-0.067,125.055,0.334,-0.382,-0.098,-0.316,-0.788,-0.043,14.29,-26.8,-66.38,-0.3411,0.0433,-0.6851,-0.642,-0.09,-0.121,-0.015,282.495,0.679,0.178,-0.508,-0.099,-0.989,0.004,62.73,-12.01,-72.69,-0.4444,0.5113,0.5101,0.5297000000000001,0.009,-0.005,0.039,0.0,0.0,0.0,0.0,0.0,0.0,-0.0001916885375976,0.0005750656127929,-0.1538467407226562,-0.0659332275390625,-0.0036630630493164,-0.0036630630493164,0.0,0.0,0.0,0.0
2025-11-06 18:37:06.515,293.035,-0.026,-0.033,0.012,-0.364,-0.947,0.033,6.22,-4.64,-54.89,0.6951,-0.6849000000000001,-0.0153,-0.2174,0.07,-0.018,-0.067,125.055,0.334,-0.382,-0.098,-0.316,-0.788,-0.043,14.29,-26.8,-66.38,-0.3411,0.0433,-0.6851,-0.642,-0.09,-0.121,-0.015,282.495,0.679,0.178,-0.508,-0.099,-0.989,0.004,62.73,-12.01,-72.69,-0.4444,0.5113,0.5101,0.5297000000000001,0.009,-0.005,0.039,0.0,0.0,0.0,0.0,0.0,0.0,-0.0001916885375976,0.0005750656127929,-0.1538467407226562,-0.0659332275390625,-0.0036630630493164,-0.0036630630493164,0.0,0.0,0.0,0.0
2025-11-06 18:37:06.515,293.04,-0.023,-0.033,0.013,-0.365,-0.945,0.033,6.22,-4.64,-54.89,0.6949000000000001,-0.6851,-0.015,-0.2175,0.071,-0.02,-0.067,125.055,0.334,-0.382,-0.098,-0.316,-0.788,-0.043,14.29,-26.8,-66.38,-0.3411,0.0433,-0.6851,-0.642,-0.09,-0.121,-0.015,282.495,0.679,0.178,-0.508,-0.099,-0.989,0.004,62.73,-12.01,-72.69,-0.4444,0.5113,0.5101,0.5297000000000001,0.009,-0.005,0.039,0.0,0.0,0.0,0.0,0.0,0.0,-0.0001916885375976,0.0005750656127929,-0.1538467407226562,-0.0659332275390625,-0.0036630630493164,-0.0036630630493164,0.0,0.0,0.0,0.0
2025-11-06 18:37:06.515,293.045,-0.022,-0.034,0.011,-0.367,-0.943,0.035,6.84,-4.29,-55.620000000000005,0.6948000000000001,-0.6853,-0.0148,-0.2176,0.071,-0.022,-0.068,125.055,0.334,-0.382,-0.098,-0.316,-0.788,-0.043,14.29,-26.8,-66.38,-0.3411,0.0433,-0.6851,-0.642,-0.09,-0.121,-0.015,282.495,0.679,0.178,-0.508,-0.099,-0.989,0.004,62.73,-12.01,-72.69,-0.4444,0.5113,0.5101,0.5297000000000001,0.009,-0.005,0.039,0.0,0.0,0.0,0.0,0.0,0.0,-0.0001916885375976,0.0005750656127929,-0.1538467407226562,-0.0659332275390625,-0.0036630630493164,-0.0036630630493164,0.0,0.0,0.0,0.0
2025-11-06 18:37:06.515,293.05,-0.02,-0.04,0.012,-0.37,-0.946,0.036,6.84,-4.29,-55.620000000000005,0.6946,-0.6854,-0.0146,-0.2177,0.074,-0.019,-0.069,125.055,0.334,-0.382,-0.098,-0.316,-0.788,-0.043,14.29,-26.8,-66.38,-0.3411,0.0433,-0.6851,-0.642,-0.09,-0.121,-0.015,282.495,0.679,0.178,-0.508,-0.099,-0.989,0.004,62.73,-12.01,-72.69,-0.4444,0.5113,0.5101,0.5297000000000001,0.009,-0.005,0.039,0.0,0.0,0.0,0.0,0.0,0.0,-0.0001916885375976,0.0005750656127929,-0.1538467407226562,-0.0659332275390625,-0.0036630630493164,-0.0036630630493164,0.0,0.0,0.0,0.0
2025-11-06 18:37:06.515,293.06,-0.017,-0.055,0.01,-0.372,-0.947,0.034,6.54,-4.26,-55.45,0.6944,-0.6856,-0.0141,-0.2177,0.076,-0.018,-0.067,125.055,0.334,-0.382,-0.098,-0.316,-0.788,-0.043,14.29,-26.8,-66.38,-0.3411,0.0433,-0.6851,-0.642,-0.09,-0.121,-0.015,282.495,0.679,0.178,-0.508,-0.099,-0.989,0.004,62.73,-12.01,-72.69,-0.4444,0.5113,0.5101,0.5297000000000001,0.009,-0.005,0.039,0.0,0.0,0.0,0.0,0.0,0.0,-0.0001916885375976,0.0005750656127929,-0.1538467407226562,-0.0659332275390625,-0.0036630630493164,-0.0036630630493164,0.0,0.0,0.0,0.0
2025-11-06 18:37:06.515,293.065,-0.019,-0.065,0.007,-0.372,-0.946,0.033,6.54,-4.26,-55.45,0.6944,-0.6857000000000001,-0.0139,-0.2177,0.076,-0.018,-0.065,125.055,0.334,-0.382,-0.098,-0.316,-0.788,-0.043,14.29,-26.8,-66.38,-0.3411,0.0433,-0.6851,-0.642,-0.09,-0.121,-0.015,282.495,0.679,0.178,-0.508,-0.099,-0.989,0.004,62.73,-12.01,-72.69,-0.4444,0.5113,0.5101,0.5297000000000001,0.009,-0.005,0.039,0.0,0.0,0.0,0.0,0.0,0.0,-0.0001916885375976,0.0005750656127929,-0.1538467407226562,-0.0659332275390625,-0.0036630630493164,-0.0036630630493164,0.0,0.0,0.0,0.0
2025-11-06 18:37:06.515,293.025,-0.023,-0.031,0.012,-0.359,-0.948,0.033,6.4,-4.64,-55.39,0.6954,-0.6847000000000001,-0.0158,-0.2172,0.066,-0.017,-0.067,125.055,0.334,-0.382,-0.098,-0.316,-0.788,-0.043,14.29,-26.8,-66.38,-0.3411,0.0433,-0.6851,-0.642,-0.09,-0.121,-0.015,282.495,0.679,0.178,-0.508,-0.099,-0.989,0.004,62.73,-12.01,-72.69,-0.4444,0.5113,0.5101,0.5297000000000001,0.009,-0.005,0.039,0.0,0.0,0.0,0.0,0.0,0.0,-0.0001916885375976,0.0005750656127929,-0.1538467407226562,-0.0659332275390625,-0.0036630630493164,-0.0036630630493164,0.0,0.0,0.0,0.0
2025-11-06 18:37:06.515,293.075,-0.022,-0.088,0.003,-0.372,-0.948,0.029,6.16,-4.3500000000000005,-55.33,0.6943,-0.6858000000000001,-0.0135,-0.2175,0.075,-0.016,-0.061,125.055,0.334,-0.382,-0.098,-0.316,-0.788,-0.043,14.29,-26.8,-66.38,-0.3411,0.0433,-0.6851,-0.642,-0.09,-0.121,-0.015,282.495,0.679,0.178,-0.508,-0.099,-0.989,0.004,62.73,-12.01,-72.69,-0.4444,0.5113,0.5101,0.5297000000000001,0.009,-0.005,0.039,0.0,0.0,0.0,0.0,0.0,0.0,-0.0001916885375976,0.0005750656127929,-0.1538467407226562,-0.0659332275390625,-0.0036630630493164,-0.0036630630493164,0.0,0.0,0.0,0.0
2025-11-06 18:37:06.515,293.08,-0.025,-0.097,0.002,-0.371,-0.949,0.028,6.16,-4.3500000000000005,-55.33,0.6943,-0.6858000000000001,-0.0132,-0.2174,0.073,-0.015,-0.06,125.055,0.334,-0.382,-0.098,-0.316,-0.788,-0.043,14.29,-26.8,-66.38,-0.3411,0.0433,-0.6851,-0.642,-0.09,-0.121,-0.015,282.495,0.679,0.178,-0.508,-0.099,-0.989,0.004,62.73,-12.01,-72.69,-0.4444,0.5113,0.5101,0.5297000000000001,0.009,-0.005,0.039,0.0,0.0,0.0,0.0,0.0,0.0,-0.0001916885375976,0.0005750656127929,-0.1538467407226562,-0.0659332275390625,-0.0036630630493164,-0.0036630630493164,0.0,0.0,0.0,0.0
2025-11-06 18:37:06.515,293.085,-0.029,-0.103,0.001,-0.369,-0.951,0.027,6.28,-4.32,-55.68,0.6943,-0.6859000000000001,-0.013,-0.2173,0.071,-0.014,-0.059,125.055,0.334,-0.382,-0.098,-0.316,-0.788,-0.043,14.29,-26.8,-66.38,-0.3411,0.0433,-0.6851,-0.642,-0.09,-0.121,-0.015,282.495,0.679,0.178,-0.508,-0.099,-0.989,0.004,62.73,-12.01,-72.69,-0.4444,0.5113,0.5101,0.5297000000000001,0.009,-0.005,0.039,0.0,0.0,0.0,0.0,0.0,0.0,-0.0001916885375976,0.0005750656127929,-0.1538467407226562,-0.0659332275390625,-0.0036630630493164,-0.0036630630493164,0.0,0.0,0.0,0.0
2025-11-06 18:37:06.515,293.09,-0.033,-0.108,0.0,-0.367,-0.95,0.026,6.28,-4.32,-55.68,0.6943,-0.6859000000000001,-0.0127,-0.2172,0.069,-0.015,-0.058,125.055,0.334,-0.382,-0.098,-0.316,-0.788,-0.043,14.29,-26.8,-66.38,-0.3411,0.0433,-0.6851,-0.642,-0.09,-0.121,-0.015,282.495,0.679,0.178,-0.508,-0.099,-0.989,0.004,62.73,-12.01,-72.69,-0.4444,0.5113,0.5101,0.5297000000000001,0.009,-0.005,0.039,0.0,0.0,0.0,0.0,0.0,0.0,-0.0001916885375976,0.0005750656127929,-0.1538467407226562,-0.0659332275390625,-0.0036630630493164,-0.0036630630493164,0.0,0.0,0.0,0.0
2025-11-06 18:37:06.515,293.095,-0.034,-0.108,0.002,-0.367,-0.949,0.024,5.87,-4.79,-55.65,0.6943,-0.686,-0.0125,-0.217,0.069,-0.015,-0.056,125.055,0.334,-0.382,-0.098,-0.316,-0.788,-0.043,14.29,-26.8,-66.38,-0.3411,0.0433,-0.6851,-0.642,-0.09,-0.121,-0.015,282.495,0.679,0.178,-0.508,-0.099,-0.989,0.004,62.73,-12.01,-72.69,-0.4444,0.5113,0.5101,0.5297000000000001,0.009,-0.005,0.039,0.0,0.0,0.0,0.0,0.0,0.0,-0.0001916885375976,0.0005750656127929,-0.1538467407226562,-0.0659332275390625,-0.0036630630493164,-0.0036630630493164,0.0,0.0,0.0,0.0
2025-11-06 18:37:06.515,293.1,-0.037,-0.113,0.0,-0.365,-0.95,0.024,5.87,-4.79,-55.65,0.6943,-0.686,-0.0122,-0.2169,0.067,-0.014,-0.055,125.055,0.334,-0.382,-0.098,-0.316,-0.788,-0.043,14.29,-26.8,-66.38,-0.3411,0.0433,-0.6851,-0.642,-0.09,-0.121,-0.015,282.495,0.679,0.178,-0.508,-0.099,-0.989,0.004,62.73,-12.01,-72.69,-0.4444,0.5113,0.5101,0.5297000000000001,0.009,-0.005,0.039,0.0,0.0,0.0,0.0,0.0,0.0,-0.0001916885375976,0.0005750656127929,-0.1538467407226562,-0.0659332275390625,-0.0036630630493164,-0.0036630630493164,0.0,0.0,0.0,0.0
2025-11-06 18:37:06.515,293.07,-0.022,-0.076,0.005,-0.372,-0.948,0.031,6.16,-4.3500000000000005,-55.33,0.6943,-0.6857000000000001,-0.0137,-0.2176,0.075,-0.017,-0.063,125.055,0.334,-0.382,-0.098,-0.316,-0.788,-0.043,14.29,-26.8,-66.38,-0.3411,0.0433,-0.6851,-0.642,-0.09,-0.121,-0.015,282.495,0.679,0.178,-0.508,-0.099,-0.989,0.004,62.73,-12.01,-72.69,-0.4444,0.5113,0.5101,0.5297000000000001,0.009,-0.005,0.039,0.0,0.0,0.0,0.0,0.0,0.0,-0.0001916885375976,0.0005750656127929,-0.1538467407226562,-0.0659332275390625,-0.0036630630493164,-0.0036630630493164,0.0,0.0,0.0,0.0
2025-11-06 18:37:06.517,293.18,0.075,-0.027,-0.011,-0.347,-0.943,0.035,6.13,-4.58,-55.39,0.6929000000000001,-0.6880000000000001,-0.0097,-0.2154,0.046,-0.021,-0.061,125.055,0.334,-0.382,-0.098,-0.316,-0.788,-0.043,14.29,-26.8,-66.38,-0.3411,0.0433,-0.6851,-0.642,-0.09,-0.121,-0.015,282.495,0.679,0.178,-0.508,-0.099,-0.989,0.004,62.73,-12.01,-72.69,-0.4444,0.5113,0.5101,0.5297000000000001,0.009,-0.005,0.039,0.0,0.0,0.0,0.0,0.0,0.0,-0.0001916885375976,0.0005750656127929,-0.1538467407226562,-0.0659332275390625,-0.0036630630493164,-0.0036630630493164,0.0,0.0,0.0,0.0
2025-11-06 18:37:06.517,293.185,0.075,-0.019,-0.013,-0.347,-0.945,0.037,6.43,-4.44,-55.620000000000005,0.6926,-0.6882,-0.0097,-0.2154,0.046,-0.019,-0.063,125.055,0.334,-0.382,-0.098,-0.316,-0.788,-0.043,14.29,-26.8,-66.38,-0.3411,0.0433,-0.6851,-0.642,-0.09,-0.121,-0.015,282.495,0.679,0.178,-0.508,-0.099,-0.989,0.004,62.73,-12.01,-72.69,-0.4444,0.5113,0.5101,0.5297000000000001,0.009,-0.005,0.039,0.0,0.0,0.0,0.0,0.0,0.0,-0.0001916885375976,0.0005750656127929,-0.1538467407226562,-0.0659332275390625,-0.0036630630493164,-0.0036630630493164,0.0,0.0,0.0,0.0
2025-11-06 18:37:06.517,293.11,-0.038,-0.11,0.001,-0.364,-0.946,0.019,6.34,-4.67,-56.03,0.6943,-0.6861,-0.0117,-0.2166,0.065,-0.018,-0.05,125.055,0.334,-0.382,-0.098,-0.316,-0.788,-0.043,14.29,-26.8,-66.38,-0.3411,0.0433,-0.6851,-0.642,-0.09,-0.121,-0.015,282.495,0.679,0.178,-0.508,-0.099,-0.989,0.004,62.73,-12.01,-72.69,-0.4444,0.5113,0.5101,0.5297000000000001,0.009,-0.005,0.039,0.0,0.0,0.0,0.0,0.0,0.0,-0.0001916885375976,0.0005750656127929,-0.1538467407226562,-0.0659332275390625,-0.0036630630493164,-0.0036630630493164,0.0,0.0,0.0,0.0
2025-11-06 18:37:06.517,293.115,-0.035,-0.107,0.0,-0.364,-0.946,0.019,6.34,-4.67,-56.03,0.6942,-0.6862,-0.0114,-0.2165,0.065,-0.018,-0.05,125.055,0.334,-0.382,-0.098,-0.316,-0.788,-0.043,14.29,-26.8,-66.38,-0.3411,0.0433,-0.6851,-0.642,-0.09,-0.121,-0.015,282.495,0.679,0.178,-0.508,-0.099,-0.989,0.004,62.73,-12.01,-72.69,-0.4444,0.5113,0.5101,0.5297000000000001,0.009,-0.005,0.039,0.0,0.0,0.0,0.0,0.0,0.0,-0.0001916885375976,0.0005750656127929,-0.1538467407226562,-0.0659332275390625,-0.0036630630493164,-0.0036630630493164,0.0,0.0,0.0,0.0
2025-11-06 18:37:06.517,293.12,-0.031,-0.109,0.001,-0.362,-0.944,0.019,6.34,-4.67,-56.03,0.6942,-0.6862,-0.0111,-0.2164,0.063,-0.02,-0.05,125.055,0.334,-0.382,-0.098,-0.316,-0.788,-0.043,14.29,-26.8,-66.38,-0.3411,0.0433,-0.6851,-0.642,-0.09,-0.121,-0.015,282.495,0.679,0.178,-0.508,-0.099,-0.989,0.004,62.73,-12.01,-72.69,-0.4444,0.5113,0.5101,0.5297000000000001,0.009,-0.005,0.039,0.0,0.0,0.0,0.0,0.0,0.0,-0.0001916885375976,0.0005750656127929,-0.1538467407226562,-0.0659332275390625,-0.0036630630493164,-0.0036630630493164,0.0,0.0,0.0,0.0
2025-11-06 18:37:06.517,293.125,-0.021,-0.101,0.002,-0.361,-0.942,0.019,6.13,-4.41,-55.53,0.6942,-0.6863,-0.0109,-0.2163,0.062,-0.022,-0.049,125.055,0.334,-0.382,-0.098,-0.316,-0.788,-0.043,14.29,-26.8,-66.38,-0.3411,0.0433,-0.6851,-0.642,-0.09,-0.121,-0.015,282.495,0.679,0.178,-0.508,-0.099,-0.989,0.004,62.73,-12.01,-72.69,-0.4444,0.5113,0.5101,0.5297000000000001,0.009,-0.005,0.039,0.0,0.0,0.0,0.0,0.0,0.0,-0.0001916885375976,0.0005750656127929,-0.1538467407226562,-0.0659332275390625,-0.0036630630493164,-0.0036630630493164,0.0,0.0,0.0,0.0
2025-11-06 18:37:06.517,293.13,-0.009,-0.097,0.001,-0.36,-0.94,0.02,6.13,-4.41,-55.53,0.6941,-0.6864,-0.0106,-0.2162,0.06,-0.024,-0.051,125.055,0.334,-0.382,-0.098,-0.316,-0.788,-0.043,14.29,-26.8,-66.38,-0.3411,0.0433,-0.6851,-0.642,-0.09,-0.121,-0.015,282.495,0.679,0.178,-0.508,-0.099,-0.989,0.004,62.73,-12.01,-72.69,-0.4444,0.5113,0.5101,0.5297000000000001,0.009,-0.005,0.039,0.0,0.0,0.0,0.0,0.0,0.0,-0.0001916885375976,0.0005750656127929,-0.1538467407226562,-0.0659332275390625,-0.0036630630493164,-0.0036630630493164,0.0,0.0,0.0,0.0
2025-11-06 18:37:06.517,293.135,0.002,-0.092,0.001,-0.359,-0.937,0.023,6.78,-4.76,-55.65,0.6941,-0.6865,-0.0104,-0.2161,0.059,-0.027,-0.054,125.055,0.334,-0.382,-0.098,-0.316,-0.788,-0.043,14.29,-26.8,-66.38,-0.3411,0.0433,-0.6851,-0.642,-0.09,-0.121,-0.015,282.495,0.679,0.178,-0.508,-0.099,-0.989,0.004,62.73,-12.01,-72.69,-0.4444,0.5113,0.5101,0.5297000000000001,0.009,-0.005,0.039,0.0,0.0,0.0,0.0,0.0,0.0,-0.0001916885375976,0.0005750656127929,-0.1538467407226562,-0.0659332275390625,-0.0036630630493164,-0.0036630630493164,0.0,0.0,0.0,0.0
2025-11-06 18:37:06.517,293.155,0.05,-0.059,-0.001,-0.356,-0.935,0.025,6.0200000000000005,-4.53,-55.45,0.6937,-0.687,-0.0099,-0.2157,0.055,-0.029,-0.054,125.055,0.334,-0.382,-0.098,-0.316,-0.788,-0.043,14.29,-26.8,-66.38,-0.3411,0.0433,-0.6851,-0.642,-0.09,-0.121,-0.015,282.495,0.679,0.178,-0.508,-0.099,-0.989,0.004,62.73,-12.01,-72.69,-0.4444,0.5113,0.5101,0.5297000000000001,0.009,-0.005,0.039,0.0,0.0,0.0,0.0,0.0,0.0,-0.0001916885375976,0.0005750656127929,-0.1538467407226562,-0.0659332275390625,-0.0036630630493164,-0.0036630630493164,0.0,0.0,0.0,0.0
2025-11-06 18:37:06.517,293.145,0.026,-0.072,0.0,-0.358,-0.937,0.024,6.78,-4.76,-55.65,0.6939000000000001,-0.6867000000000001,-0.0101,-0.2159,0.057,-0.027,-0.054,125.055,0.334,-0.382,-0.098,-0.316,-0.788,-0.043,14.29,-26.8,-66.38,-0.3411,0.0433,-0.6851,-0.642,-0.09,-0.121,-0.015,282.495,0.679,0.178,-0.508,-0.099,-0.989,0.004,62.73,-12.01,-72.69,-0.4444,0.5113,0.5101,0.5297000000000001,0.009,-0.005,0.039,0.0,0.0,0.0,0.0,0.0,0.0,-0.0001916885375976,0.0005750656127929,-0.1538467407226562,-0.0659332275390625,-0.0036630630493164,-0.0036630630493164,0.0,0.0,0.0,0.0
2025-11-06 18:37:06.517,293.15,0.041,-0.065,-0.002,-0.357,-0.937,0.025,6.0200000000000005,-4.53,-55.45,0.6938000000000001,-0.6869000000000001,-0.01,-0.2158,0.056,-0.027,-0.054,125.055,0.334,-0.382,-0.098,-0.316,-0.788,-0.043,14.29,-26.8,-66.38,-0.3411,0.0433,-0.6851,-0.642,-0.09,-0.121,-0.015,282.495,0.679,0.178,-0.508,-0.099,-0.989,0.004,62.73,-12.01,-72.69,-0.4444,0.5113,0.5101,0.5297000000000001,0.009,-0.005,0.039,0.0,0.0,0.0,0.0,0.0,0.0,-0.0001916885375976,0.0005750656127929,-0.1538467407226562,-0.0659332275390625,-0.0036630630493164,-0.0036630630493164,0.0,0.0,0.0,0.0
2025-11-06 18:37:06.517,293.16,0.058,-0.049,-0.004,-0.354,-0.938,0.026,6.1000000000000005,-4.41,-56.03,0.6935,-0.6872,-0.0098,-0.2156,0.053,-0.026,-0.054,125.055,0.334,-0.382,-0.098,-0.316,-0.788,-0.043,14.29,-26.8,-66.38,-0.3411,0.0433,-0.6851,-0.642,-0.09,-0.121,-0.015,282.495,0.679,0.178,-0.508,-0.099,-0.989,0.004,62.73,-12.01,-72.69,-0.4444,0.5113,0.5101,0.5297000000000001,0.009,-0.005,0.039,0.0,0.0,0.0,0.0,0.0,0.0,-0.0001916885375976,0.0005750656127929,-0.1538467407226562,-0.0659332275390625,-0.0036630630493164,-0.0036630630493164,0.0,0.0,0.0,0.0
2025-11-06 18:37:06.517,293.165,0.068,-0.041,-0.005,-0.351,-0.938,0.029,6.1000000000000005,-4.41,-56.03,0.6934,-0.6874,-0.0098,-0.2156,0.051,-0.025,-0.057,125.055,0.334,-0.382,-0.098,-0.316,-0.788,-0.043,14.29,-26.8,-66.38,-0.3411,0.0433,-0.6851,-0.642,-0.09,-0.121,-0.015,282.495,0.679,0.178,-0.508,-0.099,-0.989,0.004,62.73,-12.01,-72.69,-0.4444,0.5113,0.5101,0.5297000000000001,0.009,-0.005,0.039,0.0,0.0,0.0,0.0,0.0,0.0,-0.0001916885375976,0.0005750656127929,-0.1538467407226562,-0.0659332275390625,-0.0036630630493164,-0.0036630630493164,0.0,0.0,0.0,0.0
2025-11-06 18:37:06.517,293.17,0.074,-0.038,-0.006,-0.349,-0.941,0.03,6.1000000000000005,-4.41,-56.03,0.6932,-0.6876,-0.0097,-0.2155,0.048,-0.022,-0.058,125.055,0.334,-0.382,-0.098,-0.316,-0.788,-0.043,14.29,-26.8,-66.38,-0.3411,0.0433,-0.6851,-0.642,-0.09,-0.121,-0.015,282.495,0.679,0.178,-0.508,-0.099,-0.989,0.004,62.73,-12.01,-72.69,-0.4444,0.5113,0.5101,0.5297000000000001,0.009,-0.005,0.039,0.0,0.0,0.0,0.0,0.0,0.0,-0.0001916885375976,0.0005750656127929,-0.1538467407226562,-0.0659332275390625,-0.0036630630493164,-0.0036630630493164,0.0,0.0,0.0,0.0
2025-11-06 18:37:06.517,293.14,0.017,-0.078,0.0,-0.359,-0.935,0.025,6.78,-4.76,-55.65,0.6940000000000001,-0.6866,-0.0103,-0.216,0.059,-0.028,-0.055,125.055,0.334,-0.382,-0.098,-0.316,-0.788,-0.043,14.29,-26.8,-66.38,-0.3411,0.0433,-0.6851,-0.642,-0.09,-0.121,-0.015,282.495,0.679,0.178,-0.508,-0.099,-0.989,0.004,62.73,-12.01,-72.69,-0.4444,0.5113,0.5101,0.5297000000000001,0.009,-0.005,0.039,0.0,0.0,0.0,0.0,0.0,0.0,-0.0001916885375976,0.0005750656127929,-0.1538467407226562,-0.0659332275390625,-0.0036630630493164,-0.0036630630493164,0.0,0.0,0.0,0.0
2025-11-06 18:37:06.517,293.105,-0.039,-0.114,0.0,-0.366,-0.948,0.023,5.87,-4.79,-55.65,0.6943,-0.6861,-0.0119,-0.2168,0.067,-0.016,-0.054,125.055,0.334,-0.382,-0.098,-0.316,-0.788,-0.043,14.29,-26.8,-66.38,-0.3411,0.0433,-0.6851,-0.642,-0.09,-0.121,-0.015,282.495,0.679,0.178,-0.508,-0.099,-0.989,0.004,62.73,-12.01,-72.69,-0.4444,0.5113,0.5101,0.5297000000000001,0.009,-0.005,0.039,0.0,0.0,0.0,0.0,0.0,0.0,-0.0001916885375976,0.0005750656127929,-0.1538467407226562,-0.0659332275390625,-0.0036630630493164,-0.0036630630493164,0.0,0.0,0.0,0.0
2025-11-06 18:37:06.517,293.175,0.076,-0.034,-0.01,-0.349,-0.94,0.032,6.13,-4.58,-55.39,0.6930000000000001,-0.6878000000000001,-0.0097,-0.2155,0.048,-0.023,-0.059,125.055,0.334,-0.382,-0.098,-0.316,-0.788,-0.043,14.29,-26.8,-66.38,-0.3411,0.0433,-0.6851,-0.642,-0.09,-0.121,-0.015,282.495,0.679,0.178,-0.508,-0.099,-0.989,0.004,62.73,-12.01,-72.69,-0.4444,0.5113,0.5101,0.5297000000000001,0.009,-0.005,0.039,0.0,0.0,0.0,0.0,0.0,0.0,-0.0001916885375976,0.0005750656127929,-0.1538467407226562,-0.0659332275390625,-0.0036630630493164,-0.0036630630493164,0.0,0.0,0.0,0.0
2025-11-06 18:37:06.517,293.27,0.048,-0.173,-0.007,-0.35,-0.973,0.048,6.22,-4.32,-55.86,0.6899000000000001,-0.6918000000000001,-0.008,-0.2126,0.05,0.008,-0.063,125.055,0.334,-0.382,-0.098,-0.316,-0.788,-0.043,14.29,-26.8,-66.38,-0.3411,0.0433,-0.6851,-0.642,-0.09,-0.121,-0.015,282.495,0.679,0.178,-0.508,-0.099,-0.989,0.004,62.73,-12.01,-72.69,-0.4444,0.5113,0.5101,0.5297000000000001,0.009,-0.005,0.039,0.0,0.0,0.0,0.0,0.0,0.0,-0.0001916885375976,0.0005750656127929,-0.1538467407226562,-0.0659332275390625,-0.0036630630493164,-0.0036630630493164,0.0,0.0,0.0,0.0
2025-11-06 18:37:06.517,293.235,0.078,-0.094,-0.023,-0.346,-0.966,0.039,6.37,-4.32,-55.91,0.6906,-0.6905,-0.0093,-0.2146,0.045,0.002,-0.058,125.055,0.334,-0.382,-0.098,-0.316,-0.788,-0.043,14.29,-26.8,-66.38,-0.3411,0.0433,-0.6851,-0.642,-0.09,-0.121,-0.015,282.495,0.679,0.178,-0.508,-0.099,-0.989,0.004,62.73,-12.01,-72.69,-0.4444,0.5113,0.5101,0.5297000000000001,0.009,-0.005,0.039,0.0,0.0,0.0,0.0,0.0,0.0,-0.0001916885375976,0.0005750656127929,-0.1538467407226562,-0.0659332275390625,-0.0036630630493164,-0.0036630630493164,0.0,0.0,0.0,0.0
2025-11-06 18:37:06.517,293.19,0.073,-0.015,-0.014,-0.347,-0.945,0.041,6.43,-4.44,-55.620000000000005,0.6924,-0.6884,-0.0096,-0.2154,0.047,-0.018,-0.066,125.055,0.334,-0.382,-0.098,-0.316,-0.788,-0.043,14.29,-26.8,-66.38,-0.3411,0.0433,-0.6851,-0.642,-0.09,-0.121,-0.015,282.495,0.679,0.178,-0.508,-0.099,-0.989,0.004,62.73,-12.01,-72.69,-0.4444,0.5113,0.5101,0.5297000000000001,0.009,-0.005,0.039,0.0,0.0,0.0,0.0,0.0,0.0,-0.0001916885375976,0.0005750656127929,-0.1538467407226562,-0.0659332275390625,-0.0036630630493164,-0.0036630630493164,0.0,0.0,0.0,0.0
2025-11-06 18:37:06.517,293.2,0.077,-0.011,-0.019,-0.347,-0.948,0.044,6.0200000000000005,-4.0,-55.56,0.6920000000000001,-0.6889000000000001,-0.0096,-0.2154,0.046,-0.015,-0.067,125.055,0.334,-0.382,-0.098,-0.316,-0.788,-0.043,14.29,-26.8,-66.38,-0.3411,0.0433,-0.6851,-0.642,-0.09,-0.121,-0.015,282.495,0.679,0.178,-0.508,-0.099,-0.989,0.004,62.73,-12.01,-72.69,-0.4444,0.5113,0.5101,0.5297000000000001,0.009,-0.005,0.039,0.0,0.0,0.0,0.0,0.0,0.0,-0.0001916885375976,0.0005750656127929,-0.1538467407226562,-0.0659332275390625,-0.0036630630493164,-0.0036630630493164,0.0,0.0,0.0,0.0
2025-11-06 18:37:06.517,293.205,0.076,-0.02,-0.02,-0.344,-0.95,0.045,6.0200000000000005,-4.0,-55.56,0.6917,-0.6891,-0.0096,-0.2153,0.043,-0.013,-0.068,125.055,0.334,-0.382,-0.098,-0.316,-0.788,-0.043,14.29,-26.8,-66.38,-0.3411,0.0433,-0.6851,-0.642,-0.09,-0.121,-0.015,282.495,0.679,0.178,-0.508,-0.099,-0.989,0.004,62.73,-12.01,-72.69,-0.4444,0.5113,0.5101,0.5297000000000001,0.009,-0.005,0.039,0.0,0.0,0.0,0.0,0.0,0.0,-0.0001916885375976,0.0005750656127929,-0.1538467407226562,-0.0659332275390625,-0.0036630630493164,-0.0036630630493164,0.0,0.0,0.0,0.0
2025-11-06 18:37:06.517,293.21,0.08,-0.026,-0.021,-0.346,-0.951,0.044,6.34,-4.3500000000000005,-55.53,0.6915,-0.6894,-0.0096,-0.2153,0.045,-0.013,-0.066,125.055,0.334,-0.382,-0.098,-0.316,-0.788,-0.043,14.29,-26.8,-66.38,-0.3411,0.0433,-0.6851,-0.642,-0.09,-0.121,-0.015,282.495,0.679,0.178,-0.508,-0.099,-0.989,0.004,62.73,-12.01,-72.69,-0.4444,0.5113,0.5101,0.5297000000000001,0.009,-0.005,0.039,0.0,0.0,0.0,0.0,0.0,0.0,-0.0001916885375976,0.0005750656127929,-0.1538467407226562,-0.0659332275390625,-0.0036630630493164,-0.0036630630493164,0.0,0.0,0.0,0.0
2025-11-06 18:37:06.517,293.215,0.079,-0.035,-0.024,-0.345,-0.953,0.044,6.34,-4.3500000000000005,-55.53,0.6913,-0.6896,-0.0095,-0.2152,0.044,-0.01,-0.066,125.055,0.334,-0.382,-0.098,-0.316,-0.788,-0.043,14.29,-26.8,-66.38,-0.3411,0.0433,-0.6851,-0.642,-0.09,-0.121,-0.015,282.495,0.679,0.178,-0.508,-0.099,-0.989,0.004,62.73,-12.01,-72.69,-0.4444,0.5113,0.5101,0.5297000000000001,0.009,-0.005,0.039,0.0,0.0,0.0,0.0,0.0,0.0,-0.0001916885375976,0.0005750656127929,-0.1538467407226562,-0.0659332275390625,-0.0036630630493164,-0.0036630630493164,0.0,0.0,0.0,0.0
2025-11-06 18:37:06.517,293.22,0.08,-0.049,-0.025,-0.343,-0.957,0.042,6.34,-4.3500000000000005,-55.53,0.6911,-0.6898000000000001,-0.0095,-0.2151,0.042,-0.006,-0.063,125.055,0.334,-0.382,-0.098,-0.316,-0.788,-0.043,14.29,-26.8,-66.38,-0.3411,0.0433,-0.6851,-0.642,-0.09,-0.121,-0.015,282.495,0.679,0.178,-0.508,-0.099,-0.989,0.004,62.73,-12.01,-72.69,-0.4444,0.5113,0.5101,0.5297000000000001,0.009,-0.005,0.039,0.0,0.0,0.0,0.0,0.0,0.0,-0.0001916885375976,0.0005750656127929,-0.1538467407226562,-0.0659332275390625,-0.0036630630493164,-0.0036630630493164,0.0,0.0,0.0,0.0
2025-11-06 18:37:06.517,293.225,0.081,-0.052,-0.023,-0.344,-0.959,0.043,6.28,-4.64,-55.83,0.6909000000000001,-0.6900000000000001,-0.0095,-0.215,0.043,-0.004,-0.063,125.055,0.334,-0.382,-0.098,-0.316,-0.788,-0.043,14.29,-26.8,-66.38,-0.3411,0.0433,-0.6851,-0.642,-0.09,-0.121,-0.015,282.495,0.679,0.178,-0.508,-0.099,-0.989,0.004,62.73,-12.01,-72.69,-0.4444,0.5113,0.5101,0.5297000000000001,0.009,-0.005,0.039,0.0,0.0,0.0,0.0,0.0,0.0,-0.0001916885375976,0.0005750656127929,-0.1538467407226562,-0.0659332275390625,-0.0036630630493164,-0.0036630630493164,0.0,0.0,0.0,0.0
2025-11-06 18:37:06.517,293.195,0.075,-0.01,-0.016,-0.347,-0.946,0.043,6.43,-4.44,-55.620000000000005,0.6922,-0.6886,-0.0096,-0.2154,0.046,-0.017,-0.067,125.055,0.334,-0.382,-0.098,-0.316,-0.788,-0.043,14.29,-26.8,-66.38,-0.3411,0.0433,-0.6851,-0.642,-0.09,-0.121,-0.015,282.495,0.679,0.178,-0.508,-0.099,-0.989,0.004,62.73,-12.01,-72.69,-0.4444,0.5113,0.5101,0.5297000000000001,0.009,-0.005,0.039,0.0,0.0,0.0,0.0,0.0,0.0,-0.0001916885375976,0.0005750656127929,-0.1538467407226562,-0.0659332275390625,-0.0036630630493164,-0.0036630630493164,0.0,0.0,0.0,0.0
2025-11-06 18:37:06.517,293.25,0.062,-0.139,-0.018,-0.345,-0.971,0.041,6.05,-4.44,-55.91,0.6903,-0.6911,-0.0089,-0.2138,0.045,0.006,-0.058,125.055,0.334,-0.382,-0.098,-0.316,-0.788,-0.043,14.29,-26.8,-66.38,-0.3411,0.0433,-0.6851,-0.642,-0.09,-0.121,-0.015,282.495,0.679,0.178,-0.508,-0.099,-0.989,0.004,62.73,-12.01,-72.69,-0.4444,0.5113,0.5101,0.5297000000000001,0.009,-0.005,0.039,0.0,0.0,0.0,0.0,0.0,0.0,-0.0001916885375976,0.0005750656127929,-0.1538467407226562,-0.0659332275390625,-0.0036630630493164,-0.0036630630493164,0.0,0.0,0.0,0.0
2025-11-06 18:37:06.517,293.24,0.075,-0.112,-0.023,-0.343,-0.968,0.039,6.37,-4.32,-55.91,0.6905,-0.6907,-0.0092,-0.2143,0.042,0.003,-0.057,125.055,0.334,-0.382,-0.098,-0.316,-0.788,-0.043,14.29,-26.8,-66.38,-0.3411,0.0433,-0.6851,-0.642,-0.09,-0.121,-0.015,282.495,0.679,0.178,-0.508,-0.099,-0.989,0.004,62.73,-12.01,-72.69,-0.4444,0.5113,0.5101,0.5297000000000001,0.009,-0.005,0.039,0.0,0.0,0.0,0.0,0.0,0.0,-0.0001916885375976,0.0005750656127929,-0.1538467407226562,-0.0659332275390625,-0.0036630630493164,-0.0036630630493164,0.0,0.0,0.0,0.0
2025-11-06 18:37:06.517,293.245,0.069,-0.126,-0.02,-0.344,-0.968,0.039,6.37,-4.32,-55.91,0.6904,-0.6909000000000001,-0.0091,-0.2141,0.043,0.004,-0.057,125.055,0.334,-0.382,-0.098,-0.316,-0.788,-0.043,14.29,-26.8,-66.38,-0.3411,0.0433,-0.6851,-0.642,-0.09,-0.121,-0.015,282.495,0.679,0.178,-0.508,-0.099,-0.989,0.004,62.73,-12.01,-72.69,-0.4444,0.5113,0.5101,0.5297000000000001,0.009,-0.005,0.039,0.0,0.0,0.0,0.0,0.0,0.0,-0.0001916885375976,0.0005750656127929,-0.1538467407226562,-0.0659332275390625,-0.0036630630493164,-0.0036630630493164,0.0,0.0,0.0,0.0
2025-11-06 18:37:06.517,293.255,0.057,-0.151,-0.016,-0.345,-0.971,0.043,6.05,-4.44,-55.91,0.6902,-0.6913,-0.0087,-0.2135,0.045,0.007,-0.06,125.055,0.334,-0.382,-0.098,-0.316,-0.788,-0.043,14.29,-26.8,-66.38,-0.3411,0.0433,-0.6851,-0.642,-0.09,-0.121,-0.015,282.495,0.679,0.178,-0.508,-0.099,-0.989,0.004,62.73,-12.01,-72.69,-0.4444,0.5113,0.5101,0.5297000000000001,0.009,-0.005,0.039,0.0,0.0,0.0,0.0,0.0,0.0,-0.0001916885375976,0.0005750656127929,-0.1538467407226562,-0.0659332275390625,-0.0036630630493164,-0.0036630630493164,0.0,0.0,0.0,0.0
2025-11-06 18:37:06.517,293.26,0.056,-0.159,-0.013,-0.348,-0.972,0.043,6.22,-4.32,-55.86,0.6901,-0.6914,-0.0085,-0.2132,0.048,0.007,-0.059,125.055,0.334,-0.382,-0.098,-0.316,-0.788,-0.043,14.29,-26.8,-66.38,-0.3411,0.0433,-0.6851,-0.642,-0.09,-0.121,-0.015,282.495,0.679,0.178,-0.508,-0.099,-0.989,0.004,62.73,-12.01,-72.69,-0.4444,0.5113,0.5101,0.5297000000000001,0.009,-0.005,0.039,0.0,0.0,0.0,0.0,0.0,0.0,-0.0001916885375976,0.0005750656127929,-0.1538467407226562,-0.0659332275390625,-0.0036630630493164,-0.0036630630493164,0.0,0.0,0.0,0.0
2025-11-06 18:37:06.517,293.265,0.053,-0.165,-0.011,-0.35,-0.973,0.045,6.22,-4.32,-55.86,0.6900000000000001,-0.6916,-0.0082,-0.2129,0.049,0.008,-0.06,125.055,0.334,-0.382,-0.098,-0.316,-0.788,-0.043,14.29,-26.8,-66.38,-0.3411,0.0433,-0.6851,-0.642,-0.09,-0.121,-0.015,282.495,0.679,0.178,-0.508,-0.099,-0.989,0.004,62.73,-12.01,-72.69,-0.4444,0.5113,0.5101,0.5297000000000001,0.009,-0.005,0.039,0.0,0.0,0.0,0.0,0.0,0.0,-0.0001916885375976,0.0005750656127929,-0.1538467407226562,-0.0659332275390625,-0.0036630630493164,-0.0036630630493164,0.0,0.0,0.0,0.0
2025-11-06 18:37:06.517,293.23,0.082,-0.08,-0.025,-0.345,-0.963,0.04,6.28,-4.64,-55.83,0.6908000000000001,-0.6903,-0.0094,-0.2148,0.044,-0.001,-0.059,125.055,0.334,-0.382,-0.098,-0.316,-0.788,-0.043,14.29,-26.8,-66.38,-0.3411,0.0433,-0.6851,-0.642,-0.09,-0.121,-0.015,282.495,0.679,0.178,-0.508,-0.099,-0.989,0.004,62.73,-12.01,-72.69,-0.4444,0.5113,0.5101,0.5297000000000001,0.009,-0.005,0.039,0.0,0.0,0.0,0.0,0.0,0.0,-0.0001916885375976,0.0005750656127929,-0.1538467407226562,-0.0659332275390625,-0.0036630630493164,-0.0036630630493164,0.0,0.0,0.0,0.0
2025-11-06 18:37:06.518,293.38,0.028,-0.162,-0.002,-0.347,-0.95,0.062,5.8100000000000005,-4.91,-56.44,0.6876,-0.6961,-0.0015,-0.2063,0.044,-0.013,-0.066,125.055,0.334,-0.382,-0.098,-0.316,-0.788,-0.043,14.29,-26.8,-66.38,-0.3411,0.0433,-0.6851,-0.642,-0.09,-0.121,-0.015,282.495,0.679,0.178,-0.508,-0.099,-0.989,0.004,62.73,-12.01,-72.69,-0.4444,0.5113,0.5101,0.5297000000000001,0.009,-0.005,0.039,0.0,0.0,0.0,0.0,0.0,0.0,-0.0001916885375976,0.0005750656127929,-0.1538467407226562,-0.0659332275390625,-0.0036630630493164,-0.0036630630493164,0.0,0.0,0.0,0.0
2025-11-06 18:37:06.518,293.375,0.035,-0.157,-0.003,-0.347,-0.948,0.061,5.8100000000000005,-4.91,-56.44,0.6877,-0.6959000000000001,-0.0018,-0.2066,0.044,-0.015,-0.065,125.055,0.334,-0.382,-0.098,-0.316,-0.788,-0.043,14.29,-26.8,-66.38,-0.3411,0.0433,-0.6851,-0.642,-0.09,-0.121,-0.015,282.495,0.679,0.178,-0.508,-0.099,-0.989,0.004,62.73,-12.01,-72.69,-0.4444,0.5113,0.5101,0.5297000000000001,0.009,-0.005,0.039,0.0,0.0,0.0,0.0,0.0,0.0,-0.0001916885375976,0.0005750656127929,-0.1538467407226562,-0.0659332275390625,-0.0036630630493164,-0.0036630630493164,0.0,0.0,0.0,0.0
2025-11-06 18:37:06.518,293.37,0.037,-0.157,-0.004,-0.345,-0.947,0.059,6.28,-4.32,-55.89,0.6878000000000001,-0.6957,-0.0021,-0.2068,0.042,-0.016,-0.064,125.055,0.334,-0.382,-0.098,-0.316,-0.788,-0.043,14.29,-26.8,-66.38,-0.3411,0.0433,-0.6851,-0.642,-0.09,-0.121,-0.015,282.495,0.679,0.178,-0.508,-0.099,-0.989,0.004,62.73,-12.01,-72.69,-0.4444,0.5113,0.5101,0.5297000000000001,0.009,-0.005,0.039,0.0,0.0,0.0,0.0,0.0,0.0,-0.0001916885375976,0.0005750656127929,-0.1538467407226562,-0.0659332275390625,-0.0036630630493164,-0.0036630630493164,0.0,0.0,0.0,0.0
2025-11-06 18:37:06.518,293.365,0.038,-0.161,-0.005,-0.345,-0.947,0.058,6.28,-4.32,-55.89,0.6880000000000001,-0.6955,-0.0023,-0.2071,0.043,-0.016,-0.063,125.055,0.334,-0.382,-0.098,-0.316,-0.788,-0.043,14.29,-26.8,-66.38,-0.3411,0.0433,-0.6851,-0.642,-0.09,-0.121,-0.015,282.495,0.679,0.178,-0.508,-0.099,-0.989,0.004,62.73,-12.01,-72.69,-0.4444,0.5113,0.5101,0.5297000000000001,0.009,-0.005,0.039,0.0,0.0,0.0,0.0,0.0,0.0,-0.0001916885375976,0.0005750656127929,-0.1538467407226562,-0.0659332275390625,-0.0036630630493164,-0.0036630630493164,0.0,0.0,0.0,0.0
2025-11-06 18:37:06.518,293.36,0.037,-0.16,-0.005,-0.344,-0.946,0.057,6.28,-4.32,-55.89,0.6881,-0.6953,-0.0026,-0.2074,0.042,-0.017,-0.063,125.055,0.334,-0.382,-0.098,-0.316,-0.788,-0.043,14.29,-26.8,-66.38,-0.3411,0.0433,-0.6851,-0.642,-0.09,-0.121,-0.015,282.495,0.679,0.178,-0.508,-0.099,-0.989,0.004,62.73,-12.01,-72.69,-0.4444,0.5113,0.5101,0.5297000000000001,0.009,-0.005,0.039,0.0,0.0,0.0,0.0,0.0,0.0,-0.0001916885375976,0.0005750656127929,-0.1538467407226562,-0.0659332275390625,-0.0036630630493164,-0.0036630630493164,0.0,0.0,0.0,0.0
2025-11-06 18:37:06.518,293.275,0.046,-0.176,-0.005,-0.351,-0.97,0.049,6.13,-4.41,-55.77,0.6898000000000001,-0.6920000000000001,-0.0077,-0.2123,0.05,0.006,-0.064,125.055,0.334,-0.382,-0.098,-0.316,-0.788,-0.043,14.29,-26.8,-66.38,-0.3411,0.0433,-0.6851,-0.642,-0.09,-0.121,-0.015,282.495,0.679,0.178,-0.508,-0.099,-0.989,0.004,62.73,-12.01,-72.69,-0.4444,0.5113,0.5101,0.5297000000000001,0.009,-0.005,0.039,0.0,0.0,0.0,0.0,0.0,0.0,-0.0001916885375976,0.0005750656127929,-0.1538467407226562,-0.0659332275390625,-0.0036630630493164,-0.0036630630493164,0.0,0.0,0.0,0.0
2025-11-06 18:37:06.518,293.335,0.03,-0.162,0.0,-0.349,-0.951,0.06,5.99,-4.23,-56.27,0.6887,-0.6942,-0.004,-0.2087,0.047,-0.012,-0.069,125.055,0.334,-0.382,-0.098,-0.316,-0.788,-0.043,14.29,-26.8,-66.38,-0.3411,0.0433,-0.6851,-0.642,-0.09,-0.121,-0.015,282.495,0.679,0.178,-0.508,-0.099,-0.989,0.004,62.73,-12.01,-72.69,-0.4444,0.5113,0.5101,0.5297000000000001,0.009,-0.005,0.039,0.0,0.0,0.0,0.0,0.0,0.0,-0.0001916885375976,0.0005750656127929,-0.1538467407226562,-0.0659332275390625,-0.0036630630493164,-0.0036630630493164,0.0,0.0,0.0,0.0
2025-11-06 18:37:06.518,293.345,0.037,-0.163,-0.004,-0.346,-0.947,0.059,5.99,-4.23,-56.27,0.6884,-0.6947,-0.0035,-0.2082,0.044,-0.016,-0.067,125.055,0.334,-0.382,-0.098,-0.316,-0.788,-0.043,14.29,-26.8,-66.38,-0.3411,0.0433,-0.6851,-0.642,-0.09,-0.121,-0.015,282.495,0.679,0.178,-0.508,-0.099,-0.989,0.004,62.73,-12.01,-72.69,-0.4444,0.5113,0.5101,0.5297000000000001,0.009,-0.005,0.039,0.0,0.0,0.0,0.0,0.0,0.0,-0.0001916885375976,0.0005750656127929,-0.1538467407226562,-0.0659332275390625,-0.0036630630493164,-0.0036630630493164,0.0,0.0,0.0,0.0
2025-11-06 18:37:06.518,293.34,0.034,-0.164,-0.002,-0.347,-0.949,0.06,5.99,-4.23,-56.27,0.6886,-0.6944,-0.0037,-0.2085,0.045,-0.015,-0.069,125.055,0.334,-0.382,-0.098,-0.316,-0.788,-0.043,14.29,-26.8,-66.38,-0.3411,0.0433,-0.6851,-0.642,-0.09,-0.121,-0.015,282.495,0.679,0.178,-0.508,-0.099,-0.989,0.004,62.73,-12.01,-72.69,-0.4444,0.5113,0.5101,0.5297000000000001,0.009,-0.005,0.039,0.0,0.0,0.0,0.0,0.0,0.0,-0.0001916885375976,0.0005750656127929,-0.1538467407226562,-0.0659332275390625,-0.0036630630493164,-0.0036630630493164,0.0,0.0,0.0,0.0
2025-11-06 18:37:06.518,293.33,0.03,-0.167,0.0,-0.349,-0.953,0.062,6.13,-4.47,-56.18,0.6888000000000001,-0.6940000000000001,-0.0043,-0.209,0.048,-0.01,-0.072,125.055,0.334,-0.382,-0.098,-0.316,-0.788,-0.043,14.29,-26.8,-66.38,-0.3411,0.0433,-0.6851,-0.642,-0.09,-0.121,-0.015,282.495,0.679,0.178,-0.508,-0.099,-0.989,0.004,62.73,-12.01,-72.69,-0.4444,0.5113,0.5101,0.5297000000000001,0.009,-0.005,0.039,0.0,0.0,0.0,0.0,0.0,0.0,-0.0001916885375976,0.0005750656127929,-0.1538467407226562,-0.0659332275390625,-0.0036630630493164,-0.0036630630493164,0.0,0.0,0.0,0.0
2025-11-06 18:37:06.518,293.325,0.029,-0.168,0.003,-0.349,-0.954,0.061,6.13,-4.47,-56.18,0.6889000000000001,-0.6939000000000001,-0.0046,-0.2093,0.048,-0.009,-0.07,125.055,0.334,-0.382,-0.098,-0.316,-0.788,-0.043,14.29,-26.8,-66.38,-0.3411,0.0433,-0.6851,-0.642,-0.09,-0.121,-0.015,282.495,0.679,0.178,-0.508,-0.099,-0.989,0.004,62.73,-12.01,-72.69,-0.4444,0.5113,0.5101,0.5297000000000001,0.009,-0.005,0.039,0.0,0.0,0.0,0.0,0.0,0.0,-0.0001916885375976,0.0005750656127929,-0.1538467407226562,-0.0659332275390625,-0.0036630630493164,-0.0036630630493164,0.0,0.0,0.0,0.0
2025-11-06 18:37:06.518,293.32,0.029,-0.178,0.002,-0.349,-0.954,0.061,5.96,-4.82,-55.56,0.6890000000000001,-0.6937,-0.0049,-0.2096,0.048,-0.01,-0.071,125.055,0.334,-0.382,-0.098,-0.316,-0.788,-0.043,14.29,-26.8,-66.38,-0.3411,0.0433,-0.6851,-0.642,-0.09,-0.121,-0.015,282.495,0.679,0.178,-0.508,-0.099,-0.989,0.004,62.73,-12.01,-72.69,-0.4444,0.5113,0.5101,0.5297000000000001,0.009,-0.005,0.039,0.0,0.0,0.0,0.0,0.0,0.0,-0.0001916885375976,0.0005750656127929,-0.1538467407226562,-0.0659332275390625,-0.0036630630493164,-0.0036630630493164,0.0,0.0,0.0,0.0
2025-11-06 18:37:06.518,293.385,0.024,-0.165,0.0,-0.348,-0.952,0.061,5.2,-4.91,-56.620000000000005,0.6875,-0.6962,-0.0012,-0.2061,0.045,-0.011,-0.064,125.055,0.334,-0.382,-0.098,-0.316,-0.788,-0.043,14.29,-26.8,-66.38,-0.3411,0.0433,-0.6851,-0.642,-0.09,-0.121,-0.015,282.495,0.679,0.178,-0.508,-0.099,-0.989,0.004,62.73,-12.01,-72.69,-0.4444,0.5113,0.5101,0.5297000000000001,0.009,-0.005,0.039,0.0,0.0,0.0,0.0,0.0,0.0,-0.0001916885375976,0.0005750656127929,-0.1538467407226562,-0.0659332275390625,-0.0036630630493164,-0.0036630630493164,0.0,0.0,0.0,0.0
2025-11-06 18:37:06.518,293.355,0.039,-0.162,-0.005,-0.344,-0.947,0.056,6.4,-4.73,-56.120000000000005,0.6882,-0.6951,-0.0029,-0.2077,0.042,-0.016,-0.063,125.055,0.334,-0.382,-0.098,-0.316,-0.788,-0.043,14.29,-26.8,-66.38,-0.3411,0.0433,-0.6851,-0.642,-0.09,-0.121,-0.015,282.495,0.679,0.178,-0.508,-0.099,-0.989,0.004,62.73,-12.01,-72.69,-0.4444,0.5113,0.5101,0.5297000000000001,0.009,-0.005,0.039,0.0,0.0,0.0,0.0,0.0,0.0,-0.0001916885375976,0.0005750656127929,-0.1538467407226562,-0.0659332275390625,-0.0036630630493164,-0.0036630630493164,0.0,0.0,0.0,0.0
2025-11-06 18:37:06.518,293.35,0.039,-0.162,-0.005,-0.345,-0.947,0.058,6.4,-4.73,-56.120000000000005,0.6883,-0.6949000000000001,-0.0032,-0.2079,0.043,-0.016,-0.065,125.055,0.334,-0.382,-0.098,-0.316,-0.788,-0.043,14.29,-26.8,-66.38,-0.3411,0.0433,-0.6851,-0.642,-0.09,-0.121,-0.015,282.495,0.679,0.178,-0.508,-0.099,-0.989,0.004,62.73,-12.01,-72.69,-0.4444,0.5113,0.5101,0.5297000000000001,0.009,-0.005,0.039,0.0,0.0,0.0,0.0,0.0,0.0,-0.0001916885375976,0.0005750656127929,-0.1538467407226562,-0.0659332275390625,-0.0036630630493164,-0.0036630630493164,0.0,0.0,0.0,0.0
2025-11-06 18:37:06.518,293.43,0.06,-0.193,0.005,-0.356,-0.948,0.053,6.16,-4.76,-55.77,0.6865,-0.6979000000000001,0.0016,-0.2036,0.052,-0.015,-0.052,125.055,0.334,-0.382,-0.098,-0.316,-0.788,-0.043,14.29,-26.8,-66.38,-0.3411,0.0433,-0.6851,-0.642,-0.09,-0.121,-0.015,282.495,0.679,0.178,-0.508,-0.099,-0.989,0.004,62.73,-12.01,-72.69,-0.4444,0.5113,0.5101,0.5297000000000001,0.009,-0.005,0.039,0.0,0.0,0.0,0.0,0.0,0.0,-0.0001916885375976,0.0005750656127929,-0.1538467407226562,-0.0659332275390625,-0.0036630630493164,-0.0036630630493164,0.0,0.0,0.0,0.0
2025-11-06 18:37:06.518,293.58,0.04,-0.084,-0.002,-0.362,-0.958,0.077,5.84,-4.61,-56.41,0.6834,-0.7029000000000001,0.0086,-0.1966,0.056,-0.004,-0.062,125.055,0.334,-0.382,-0.098,-0.316,-0.788,-0.043,14.29,-26.8,-66.38,-0.3411,0.0433,-0.6851,-0.642,-0.09,-0.121,-0.015,282.495,0.679,0.178,-0.508,-0.099,-0.989,0.004,62.73,-12.01,-72.69,-0.4444,0.5113,0.5101,0.5297000000000001,0.009,-0.005,0.039,0.0,0.0,0.0,0.0,0.0,0.0,-0.0001916885375976,0.0005750656127929,-0.1538467407226562,-0.0659332275390625,-0.0036630630493164,-0.0036630630493164,0.0,0.0,0.0,0.0
2025-11-06 18:37:06.518,293.575,0.024,-0.084,-0.004,-0.36,-0.959,0.077,5.84,-4.61,-56.41,0.6835,-0.7028,0.0084,-0.1968,0.054,-0.003,-0.061,125.055,0.334,-0.382,-0.098,-0.316,-0.788,-0.043,14.29,-26.8,-66.38,-0.3411,0.0433,-0.6851,-0.642,-0.09,-0.121,-0.015,282.495,0.679,0.178,-0.508,-0.099,-0.989,0.004,62.73,-12.01,-72.69,-0.4444,0.5113,0.5101,0.5297000000000001,0.009,-0.005,0.039,0.0,0.0,0.0,0.0,0.0,0.0,-0.0001916885375976,0.0005750656127929,-0.1538467407226562,-0.0659332275390625,-0.0036630630493164,-0.0036630630493164,0.0,0.0,0.0,0.0
2025-11-06 18:37:06.518,293.57,0.015,-0.087,-0.004,-0.356,-0.961,0.076,6.16,-4.82,-56.24,0.6836,-0.7027,0.0083,-0.1969,0.05,-0.002,-0.061,125.055,0.334,-0.382,-0.098,-0.316,-0.788,-0.043,14.29,-26.8,-66.38,-0.3411,0.0433,-0.6851,-0.642,-0.09,-0.121,-0.015,282.495,0.679,0.178,-0.508,-0.099,-0.989,0.004,62.73,-12.01,-72.69,-0.4444,0.5113,0.5101,0.5297000000000001,0.009,-0.005,0.039,0.0,0.0,0.0,0.0,0.0,0.0,-0.0001916885375976,0.0005750656127929,-0.1538467407226562,-0.0659332275390625,-0.0036630630493164,-0.0036630630493164,0.0,0.0,0.0,0.0
2025-11-06 18:37:06.518,293.565,0.009,-0.085,-0.006,-0.357,-0.961,0.077,6.16,-4.82,-56.24,0.6836,-0.7026,0.0081,-0.1971,0.052,-0.001,-0.062,125.055,0.334,-0.382,-0.098,-0.316,-0.788,-0.043,14.29,-26.8,-66.38,-0.3411,0.0433,-0.6851,-0.642,-0.09,-0.121,-0.015,282.495,0.679,0.178,-0.508,-0.099,-0.989,0.004,62.73,-12.01,-72.69,-0.4444,0.5113,0.5101,0.5297000000000001,0.009,-0.005,0.039,0.0,0.0,0.0,0.0,0.0,0.0,-0.0001916885375976,0.0005750656127929,-0.1538467407226562,-0.0659332275390625,-0.0036630630493164,-0.0036630630493164,0.0,0.0,0.0,0.0
2025-11-06 18:37:06.518,293.555,-0.006,-0.09,-0.009,-0.355,-0.958,0.08,5.72,-5.08,-56.44,0.6837000000000001,-0.7024,0.0079,-0.1974,0.049,-0.004,-0.066,125.055,0.334,-0.382,-0.098,-0.316,-0.788,-0.043,14.29,-26.8,-66.38,-0.3411,0.0433,-0.6851,-0.642,-0.09,-0.121,-0.015,282.495,0.679,0.178,-0.508,-0.099,-0.989,0.004,62.73,-12.01,-72.69,-0.4444,0.5113,0.5101,0.5297000000000001,0.009,-0.005,0.039,0.0,0.0,0.0,0.0,0.0,0.0,-0.0001916885375976,0.0005750656127929,-0.1538467407226562,-0.0659332275390625,-0.0036630630493164,-0.0036630630493164,0.0,0.0,0.0,0.0
2025-11-06 18:37:06.518,293.585,0.046,-0.083,0.0,-0.362,-0.956,0.076,5.84,-4.61,-56.41,0.6833,-0.7030000000000001,0.0087,-0.1965,0.057,-0.007,-0.06,125.055,0.334,-0.382,-0.098,-0.316,-0.788,-0.043,14.29,-26.8,-66.38,-0.3411,0.0433,-0.6851,-0.642,-0.09,-0.121,-0.015,282.495,0.679,0.178,-0.508,-0.099,-0.989,0.004,62.73,-12.01,-72.69,-0.4444,0.5113,0.5101,0.5297000000000001,0.009,-0.005,0.039,0.0,0.0,0.0,0.0,0.0,0.0,-0.0001916885375976,0.0005750656127929,-0.1538467407226562,-0.0659332275390625,-0.0036630630493164,-0.0036630630493164,0.0,0.0,0.0,0.0
2025-11-06 18:37:06.518,293.425,0.048,-0.19,0.005,-0.355,-0.949,0.054,6.16,-4.76,-55.77,0.6867000000000001,-0.6977,0.0013,-0.2039,0.05,-0.014,-0.054,125.055,0.334,-0.382,-0.098,-0.316,-0.788,-0.043,14.29,-26.8,-66.38,-0.3411,0.0433,-0.6851,-0.642,-0.09,-0.121,-0.015,282.495,0.679,0.178,-0.508,-0.099,-0.989,0.004,62.73,-12.01,-72.69,-0.4444,0.5113,0.5101,0.5297000000000001,0.009,-0.005,0.039,0.0,0.0,0.0,0.0,0.0,0.0,-0.0001916885375976,0.0005750656127929,-0.1538467407226562,-0.0659332275390625,-0.0036630630493164,-0.0036630630493164,0.0,0.0,0.0,0.0
2025-11-06 18:37:06.518,293.42,0.04,-0.182,0.008,-0.353,-0.952,0.057,6.54,-4.64,-56.27,0.6868000000000001,-0.6974,0.001,-0.2042,0.049,-0.011,-0.057,125.055,0.334,-0.382,-0.098,-0.316,-0.788,-0.043,14.29,-26.8,-66.38,-0.3411,0.0433,-0.6851,-0.642,-0.09,-0.121,-0.015,282.495,0.679,0.178,-0.508,-0.099,-0.989,0.004,62.73,-12.01,-72.69,-0.4444,0.5113,0.5101,0.5297000000000001,0.009,-0.005,0.039,0.0,0.0,0.0,0.0,0.0,0.0,-0.0001916885375976,0.0005750656127929,-0.1538467407226562,-0.0659332275390625,-0.0036630630493164,-0.0036630630493164,0.0,0.0,0.0,0.0
2025-11-06 18:37:06.518,293.415,0.029,-0.177,0.009,-0.351,-0.951,0.059,6.54,-4.64,-56.27,0.6869000000000001,-0.6972,0.0006,-0.2045,0.047,-0.012,-0.06,125.055,0.334,-0.382,-0.098,-0.316,-0.788,-0.043,14.29,-26.8,-66.38,-0.3411,0.0433,-0.6851,-0.642,-0.09,-0.121,-0.015,282.495,0.679,0.178,-0.508,-0.099,-0.989,0.004,62.73,-12.01,-72.69,-0.4444,0.5113,0.5101,0.5297000000000001,0.009,-0.005,0.039,0.0,0.0,0.0,0.0,0.0,0.0,-0.0001916885375976,0.0005750656127929,-0.1538467407226562,-0.0659332275390625,-0.0036630630493164,-0.0036630630493164,0.0,0.0,0.0,0.0
2025-11-06 18:37:06.518,293.41,0.021,-0.174,0.008,-0.351,-0.953,0.06,5.75,-4.96,-56.32,0.687,-0.6971,0.0003,-0.2047,0.048,-0.01,-0.061,125.055,0.334,-0.382,-0.098,-0.316,-0.788,-0.043,14.29,-26.8,-66.38,-0.3411,0.0433,-0.6851,-0.642,-0.09,-0.121,-0.015,282.495,0.679,0.178,-0.508,-0.099,-0.989,0.004,62.73,-12.01,-72.69,-0.4444,0.5113,0.5101,0.5297000000000001,0.009,-0.005,0.039,0.0,0.0,0.0,0.0,0.0,0.0,-0.0001916885375976,0.0005750656127929,-0.1538467407226562,-0.0659332275390625,-0.0036630630493164,-0.0036630630493164,0.0,0.0,0.0,0.0
2025-11-06 18:37:06.518,293.405,0.015,-0.17,0.008,-0.352,-0.953,0.06,5.75,-4.96,-56.32,0.6871,-0.6969000000000001,0.0,-0.205,0.048,-0.011,-0.062,125.055,0.334,-0.382,-0.098,-0.316,-0.788,-0.043,14.29,-26.8,-66.38,-0.3411,0.0433,-0.6851,-0.642,-0.09,-0.121,-0.015,282.495,0.679,0.178,-0.508,-0.099,-0.989,0.004,62.73,-12.01,-72.69,-0.4444,0.5113,0.5101,0.5297000000000001,0.009,-0.005,0.039,0.0,0.0,0.0,0.0,0.0,0.0,-0.0001916885375976,0.0005750656127929,-0.1538467407226562,-0.0659332275390625,-0.0036630630493164,-0.0036630630493164,0.0,0.0,0.0,0.0
2025-11-06 18:37:06.518,293.4,0.014,-0.17,0.007,-0.351,-0.952,0.059,5.75,-4.96,-56.32,0.6872,-0.6967,-0.0002,-0.2053,0.048,-0.011,-0.061,125.055,0.334,-0.382,-0.098,-0.316,-0.788,-0.043,14.29,-26.8,-66.38,-0.3411,0.0433,-0.6851,-0.642,-0.09,-0.121,-0.015,282.495,0.679,0.178,-0.508,-0.099,-0.989,0.004,62.73,-12.01,-72.69,-0.4444,0.5113,0.5101,0.5297000000000001,0.009,-0.005,0.039,0.0,0.0,0.0,0.0,0.0,0.0,-0.0001916885375976,0.0005750656127929,-0.1538467407226562,-0.0659332275390625,-0.0036630630493164,-0.0036630630493164,0.0,0.0,0.0,0.0
2025-11-06 18:37:06.518,293.39,0.019,-0.17,0.002,-0.349,-0.953,0.062,5.2,-4.61,-56.620000000000005,0.6874,-0.6964,-0.0009,-0.2058,0.046,-0.011,-0.065,125.055,0.334,-0.382,-0.098,-0.316,-0.788,-0.043,14.29,-26.8,-66.38,-0.3411,0.0433,-0.6851,-0.642,-0.09,-0.121,-0.015,282.495,0.679,0.178,-0.508,-0.099,-0.989,0.004,62.73,-12.01,-72.69,-0.4444,0.5113,0.5101,0.5297000000000001,0.009,-0.005,0.039,0.0,0.0,0.0,0.0,0.0,0.0,-0.0001916885375976,0.0005750656127929,-0.1538467407226562,-0.0659332275390625,-0.0036630630493164,-0.0036630630493164,0.0,0.0,0.0,0.0
2025-11-06 18:37:06.518,293.595,0.056,-0.077,-0.002,-0.366,-0.951,0.079,5.96,-5.08,-56.65,0.683,-0.7034,0.0089,-0.1963,0.06,-0.011,-0.062,125.055,0.334,-0.382,-0.098,-0.316,-0.788,-0.043,14.29,-26.8,-66.38,-0.3411,0.0433,-0.6851,-0.642,-0.09,-0.121,-0.015,282.495,0.679,0.178,-0.508,-0.099,-0.989,0.004,62.73,-12.01,-72.69,-0.4444,0.5113,0.5101,0.5297000000000001,0.009,-0.005,0.039,0.0,0.0,0.0,0.0,0.0,0.0,-0.0001916885375976,0.0005750656127929,-0.1538467407226562,-0.0659332275390625,-0.0036630630493164,-0.0036630630493164,0.0,0.0,0.0,0.0
2025-11-06 18:37:06.518,293.395,0.017,-0.168,0.004,-0.35,-0.953,0.061,5.2,-4.61,-56.620000000000005,0.6873,-0.6966,-0.0006,-0.2055,0.047,-0.01,-0.064,125.055,0.334,-0.382,-0.098,-0.316,-0.788,-0.043,14.29,-26.8,-66.38,-0.3411,0.0433,-0.6851,-0.642,-0.09,-0.121,-0.015,282.495,0.679,0.178,-0.508,-0.099,-0.989,0.004,62.73,-12.01,-72.69,-0.4444,0.5113,0.5101,0.5297000000000001,0.009,-0.005,0.039,0.0,0.0,0.0,0.0,0.0,0.0,-0.0001916885375976,0.0005750656127929,-0.1538467407226562,-0.0659332275390625,-0.0036630630493164,-0.0036630630493164,0.0,0.0,0.0,0.0
2025-11-06 18:37:06.518,293.59,0.051,-0.08,-0.002,-0.363,-0.954,0.079,5.96,-5.08,-56.65,0.6832,-0.7032,0.0088,-0.1964,0.057,-0.009,-0.063,125.055,0.334,-0.382,-0.098,-0.316,-0.788,-0.043,14.29,-26.8,-66.38,-0.3411,0.0433,-0.6851,-0.642,-0.09,-0.121,-0.015,282.495,0.679,0.178,-0.508,-0.099,-0.989,0.004,62.73,-12.01,-72.69,-0.4444,0.5113,0.5101,0.5297000000000001,0.009,-0.005,0.039,0.0,0.0,0.0,0.0,0.0,0.0,-0.0001916885375976,0.0005750656127929,-0.1538467407226562,-0.0659332275390625,-0.0036630630493164,-0.0036630630493164,0.0,0.0,0.0,0.0
2025-11-06 18:37:06.518,293.74,0.036,-0.032,-0.008,-0.363,-0.942,0.089,5.93,-4.88,-56.15,0.6777000000000001,-0.7086,0.0122,-0.1959,0.051,-0.019,-0.058,125.055,0.334,-0.382,-0.098,-0.316,-0.788,-0.043,14.29,-26.8,-66.38,-0.3411,0.0433,-0.6851,-0.642,-0.09,-0.121,-0.015,282.495,0.679,0.178,-0.508,-0.099,-0.989,0.004,62.73,-12.01,-72.69,-0.4444,0.5113,0.5101,0.5297000000000001,0.009,-0.005,0.039,0.0,0.0,0.0,0.0,0.0,0.0,-0.0001916885375976,0.0005750656127929,-0.1538467407226562,-0.0659332275390625,-0.0036630630493164,-0.0036630630493164,0.0,0.0,0.0,0.0
2025-11-06 18:37:06.518,293.6,0.059,-0.072,-0.003,-0.367,-0.948,0.081,5.96,-4.82,-56.38,0.6829000000000001,-0.7036,0.0091,-0.1962,0.061,-0.014,-0.063,125.055,0.334,-0.382,-0.098,-0.316,-0.788,-0.043,14.29,-26.8,-66.38,-0.3411,0.0433,-0.6851,-0.642,-0.09,-0.121,-0.015,282.495,0.679,0.178,-0.508,-0.099,-0.989,0.004,62.73,-12.01,-72.69,-0.4444,0.5113,0.5101,0.5297000000000001,0.009,-0.005,0.039,0.0,0.0,0.0,0.0,0.0,0.0,-0.0001916885375976,0.0005750656127929,-0.1538467407226562,-0.0659332275390625,-0.0036630630493164,-0.0036630630493164,0.0,0.0,0.0,0.0
2025-11-06 18:37:06.518,293.56,0.0,-0.085,-0.009,-0.355,-0.961,0.076,5.72,-5.08,-56.44,0.6837000000000001,-0.7025,0.008,-0.1972,0.05,-0.002,-0.062,125.055,0.334,-0.382,-0.098,-0.316,-0.788,-0.043,14.29,-26.8,-66.38,-0.3411,0.0433,-0.6851,-0.642,-0.09,-0.121,-0.015,282.495,0.679,0.178,-0.508,-0.099,-0.989,0.004,62.73,-12.01,-72.69,-0.4444,0.5113,0.5101,0.5297000000000001,0.009,-0.005,0.039,0.0,0.0,0.0,0.0,0.0,0.0,-0.0001916885375976,0.0005750656127929,-0.1538467407226562,-0.0659332275390625,-0.0036630630493164,-0.0036630630493164,0.0,0.0,0.0,0.0
2025-11-06 18:37:06.518,293.67,0.024,-0.027,-0.006,-0.353,-0.946,0.091,5.55,-4.88,-55.94,0.6799000000000001,-0.7065,0.011,-0.1958,0.044,-0.015,-0.065,125.055,0.334,-0.382,-0.098,-0.316,-0.788,-0.043,14.29,-26.8,-66.38,-0.3411,0.0433,-0.6851,-0.642,-0.09,-0.121,-0.015,282.495,0.679,0.178,-0.508,-0.099,-0.989,0.004,62.73,-12.01,-72.69,-0.4444,0.5113,0.5101,0.5297000000000001,0.009,-0.005,0.039,0.0,0.0,0.0,0.0,0.0,0.0,-0.0001916885375976,0.0005750656127929,-0.1538467407226562,-0.0659332275390625,-0.0036630630493164,-0.0036630630493164,0.0,0.0,0.0,0.0
2025-11-06 18:37:06.518,293.665,0.024,-0.033,-0.003,-0.353,-0.945,0.092,5.55,-4.88,-55.94,0.6801,-0.7063,0.0108,-0.1958,0.044,-0.017,-0.067,125.055,0.334,-0.382,-0.098,-0.316,-0.788,-0.043,14.29,-26.8,-66.38,-0.3411,0.0433,-0.6851,-0.642,-0.09,-0.121,-0.015,282.495,0.679,0.178,-0.508,-0.099,-0.989,0.004,62.73,-12.01,-72.69,-0.4444,0.5113,0.5101,0.5297000000000001,0.009,-0.005,0.039,0.0,0.0,0.0,0.0,0.0,0.0,-0.0001916885375976,0.0005750656127929,-0.1538467407226562,-0.0659332275390625,-0.0036630630493164,-0.0036630630493164,0.0,0.0,0.0,0.0
2025-11-06 18:37:06.518,293.66,0.026,-0.039,-0.004,-0.352,-0.944,0.093,5.87,-4.58,-55.86,0.6804,-0.7060000000000001,0.0107,-0.1958,0.044,-0.018,-0.068,125.055,0.334,-0.382,-0.098,-0.316,-0.788,-0.043,14.29,-26.8,-66.38,-0.3411,0.0433,-0.6851,-0.642,-0.09,-0.121,-0.015,282.495,0.679,0.178,-0.508,-0.099,-0.989,0.004,62.73,-12.01,-72.69,-0.4444,0.5113,0.5101,0.5297000000000001,0.009,-0.005,0.039,0.0,0.0,0.0,0.0,0.0,0.0,-0.0001916885375976,0.0005750656127929,-0.1538467407226562,-0.0659332275390625,-0.0036630630493164,-0.0036630630493164,0.0,0.0,0.0,0.0
2025-11-06 18:37:06.518,293.655,0.019,-0.055,-0.006,-0.356,-0.942,0.094,5.87,-4.58,-55.86,0.6806,-0.7058,0.0105,-0.1958,0.047,-0.02,-0.071,125.055,0.334,-0.382,-0.098,-0.316,-0.788,-0.043,14.29,-26.8,-66.38,-0.3411,0.0433,-0.6851,-0.642,-0.09,-0.121,-0.015,282.495,0.679,0.178,-0.508,-0.099,-0.989,0.004,62.73,-12.01,-72.69,-0.4444,0.5113,0.5101,0.5297000000000001,0.009,-0.005,0.039,0.0,0.0,0.0,0.0,0.0,0.0,-0.0001916885375976,0.0005750656127929,-0.1538467407226562,-0.0659332275390625,-0.0036630630493164,-0.0036630630493164,0.0,0.0,0.0,0.0
2025-11-06 18:37:06.518,293.65,0.024,-0.05,-0.006,-0.352,-0.947,0.089,5.87,-4.58,-55.86,0.6808000000000001,-0.7056,0.0103,-0.1958,0.044,-0.015,-0.067,125.055,0.334,-0.382,-0.098,-0.316,-0.788,-0.043,14.29,-26.8,-66.38,-0.3411,0.0433,-0.6851,-0.642,-0.09,-0.121,-0.015,282.495,0.679,0.178,-0.508,-0.099,-0.989,0.004,62.73,-12.01,-72.69,-0.4444,0.5113,0.5101,0.5297000000000001,0.009,-0.005,0.039,0.0,0.0,0.0,0.0,0.0,0.0,-0.0001916885375976,0.0005750656127929,-0.1538467407226562,-0.0659332275390625,-0.0036630630493164,-0.0036630630493164,0.0,0.0,0.0,0.0
2025-11-06 18:37:06.518,293.61,0.058,-0.053,-0.008,-0.365,-0.947,0.083,5.96,-4.82,-56.38,0.6825,-0.7039000000000001,0.0093,-0.196,0.059,-0.015,-0.065,125.055,0.334,-0.382,-0.098,-0.316,-0.788,-0.043,14.29,-26.8,-66.38,-0.3411,0.0433,-0.6851,-0.642,-0.09,-0.121,-0.015,282.495,0.679,0.178,-0.508,-0.099,-0.989,0.004,62.73,-12.01,-72.69,-0.4444,0.5113,0.5101,0.5297000000000001,0.009,-0.005,0.039,0.0,0.0,0.0,0.0,0.0,0.0,-0.0001916885375976,0.0005750656127929,-0.1538467407226562,-0.0659332275390625,-0.0036630630493164,-0.0036630630493164,0.0,0.0,0.0,0.0
2025-11-06 18:37:06.518,293.63,0.043,-0.039,-0.005,-0.363,-0.944,0.089,6.92,-4.8500000000000005,-55.86,0.6817000000000001,-0.7047,0.0098,-0.1959,0.056,-0.018,-0.068,125.055,0.334,-0.382,-0.098,-0.316,-0.788,-0.043,14.29,-26.8,-66.38,-0.3411,0.0433,-0.6851,-0.642,-0.09,-0.121,-0.015,282.495,0.679,0.178,-0.508,-0.099,-0.989,0.004,62.73,-12.01,-72.69,-0.4444,0.5113,0.5101,0.5297000000000001,0.009,-0.005,0.039,0.0,0.0,0.0,0.0,0.0,0.0,-0.0001916885375976,0.0005750656127929,-0.1538467407226562,-0.0659332275390625,-0.0036630630493164,-0.0036630630493164,0.0,0.0,0.0,0.0
2025-11-06 18:37:06.518,293.635,0.039,-0.044,-0.006,-0.363,-0.944,0.091,6.92,-4.8500000000000005,-55.86,0.6815,-0.7049000000000001,0.0099,-0.1959,0.055,-0.018,-0.069,125.055,0.334,-0.382,-0.098,-0.316,-0.788,-0.043,14.29,-26.8,-66.38,-0.3411,0.0433,-0.6851,-0.642,-0.09,-0.121,-0.015,282.495,0.679,0.178,-0.508,-0.099,-0.989,0.004,62.73,-12.01,-72.69,-0.4444,0.5113,0.5101,0.5297000000000001,0.009,-0.005,0.039,0.0,0.0,0.0,0.0,0.0,0.0,-0.0001916885375976,0.0005750656127929,-0.1538467407226562,-0.0659332275390625,-0.0036630630493164,-0.0036630630493164,0.0,0.0,0.0,0.0
2025-11-06 18:37:06.518,293.625,0.046,-0.044,-0.004,-0.365,-0.945,0.087,6.92,-4.8500000000000005,-55.86,0.6819000000000001,-0.7045,0.0096,-0.1959,0.058,-0.017,-0.067,125.055,0.334,-0.382,-0.098,-0.316,-0.788,-0.043,14.29,-26.8,-66.38,-0.3411,0.0433,-0.6851,-0.642,-0.09,-0.121,-0.015,282.495,0.679,0.178,-0.508,-0.099,-0.989,0.004,62.73,-12.01,-72.69,-0.4444,0.5113,0.5101,0.5297000000000001,0.009,-0.005,0.039,0.0,0.0,0.0,0.0,0.0,0.0,-0.0001916885375976,0.0005750656127929,-0.1538467407226562,-0.0659332275390625,-0.0036630630493164,-0.0036630630493164,0.0,0.0,0.0,0.0
2025-11-06 18:37:06.518,293.62,0.048,-0.05,-0.005,-0.367,-0.945,0.086,6.0200000000000005,-5.78,-56.24,0.6821,-0.7043,0.0095,-0.196,0.06,-0.017,-0.067,125.055,0.334,-0.382,-0.098,-0.316,-0.788,-0.043,14.29,-26.8,-66.38,-0.3411,0.0433,-0.6851,-0.642,-0.09,-0.121,-0.015,282.495,0.679,0.178,-0.508,-0.099,-0.989,0.004,62.73,-12.01,-72.69,-0.4444,0.5113,0.5101,0.5297000000000001,0.009,-0.005,0.039,0.0,0.0,0.0,0.0,0.0,0.0,-0.0001916885375976,0.0005750656127929,-0.1538467407226562,-0.0659332275390625,-0.0036630630493164,-0.0036630630493164,0.0,0.0,0.0,0.0
2025-11-06 18:37:06.518,293.615,0.052,-0.052,-0.005,-0.369,-0.944,0.088,6.0200000000000005,-5.78,-56.24,0.6823,-0.7041000000000001,0.0094,-0.196,0.062,-0.018,-0.069,125.055,0.334,-0.382,-0.098,-0.316,-0.788,-0.043,14.29,-26.8,-66.38,-0.3411,0.0433,-0.6851,-0.642,-0.09,-0.121,-0.015,282.495,0.679,0.178,-0.508,-0.099,-0.989,0.004,62.73,-12.01,-72.69,-0.4444,0.5113,0.5101,0.5297000000000001,0.009,-0.005,0.039,0.0,0.0,0.0,0.0,0.0,0.0,-0.0001916885375976,0.0005750656127929,-0.1538467407226562,-0.0659332275390625,-0.0036630630493164,-0.0036630630493164,0.0,0.0,0.0,0.0
2025-11-06 18:37:06.518,293.675,0.026,-0.025,-0.006,-0.354,-0.946,0.089,5.55,-4.88,-55.94,0.6796,-0.7067,0.0111,-0.1958,0.044,-0.015,-0.063,125.055,0.334,-0.382,-0.098,-0.316,-0.788,-0.043,14.29,-26.8,-66.38,-0.3411,0.0433,-0.6851,-0.642,-0.09,-0.121,-0.015,282.495,0.679,0.178,-0.508,-0.099,-0.989,0.004,62.73,-12.01,-72.69,-0.4444,0.5113,0.5101,0.5297000000000001,0.009,-0.005,0.039,0.0,0.0,0.0,0.0,0.0,0.0,-0.0001916885375976,0.0005750656127929,-0.1538467407226562,-0.0659332275390625,-0.0036630630493164,-0.0036630630493164,0.0,0.0,0.0,0.0
2025-11-06 18:37:06.518,293.645,0.034,-0.043,-0.006,-0.357,-0.943,0.092,5.75,-5.32,-56.38,0.681,-0.7054,0.0102,-0.1959,0.049,-0.018,-0.07,125.055,0.334,-0.382,-0.098,-0.316,-0.788,-0.043,14.29,-26.8,-66.38,-0.3411,0.0433,-0.6851,-0.642,-0.09,-0.121,-0.015,282.495,0.679,0.178,-0.508,-0.099,-0.989,0.004,62.73,-12.01,-72.69,-0.4444,0.5113,0.5101,0.5297000000000001,0.009,-0.005,0.039,0.0,0.0,0.0,0.0,0.0,0.0,-0.0001916885375976,0.0005750656127929,-0.1538467407226562,-0.0659332275390625,-0.0036630630493164,-0.0036630630493164,0.0,0.0,0.0,0.0
2025-11-06 18:37:06.518,293.68,0.026,-0.024,-0.005,-0.355,-0.95,0.087,5.72,-4.88,-56.06,0.6795,-0.7069000000000001,0.0112,-0.1958,0.045,-0.011,-0.06,125.055,0.334,-0.382,-0.098,-0.316,-0.788,-0.043,14.29,-26.8,-66.38,-0.3411,0.0433,-0.6851,-0.642,-0.09,-0.121,-0.015,282.495,0.679,0.178,-0.508,-0.099,-0.989,0.004,62.73,-12.01,-72.69,-0.4444,0.5113,0.5101,0.5297000000000001,0.009,-0.005,0.039,0.0,0.0,0.0,0.0,0.0,0.0,-0.0001916885375976,0.0005750656127929,-0.1538467407226562,-0.0659332275390625,-0.0036630630493164,-0.0036630630493164,0.0,0.0,0.0,0.0
2025-11-06 18:37:06.518,293.64,0.037,-0.041,-0.008,-0.36,-0.944,0.091,5.75,-5.32,-56.38,0.6812,-0.7052,0.01,-0.1959,0.052,-0.018,-0.069,125.055,0.334,-0.382,-0.098,-0.316,-0.788,-0.043,14.29,-26.8,-66.38,-0.3411,0.0433,-0.6851,-0.642,-0.09,-0.121,-0.015,282.495,0.679,0.178,-0.508,-0.099,-0.989,0.004,62.73,-12.01,-72.69,-0.4444,0.5113,0.5101,0.5297000000000001,0.009,-0.005,0.039,0.0,0.0,0.0,0.0,0.0,0.0,-0.0001916885375976,0.0005750656127929,-0.1538467407226562,-0.0659332275390625,-0.0036630630493164,-0.0036630630493164,0.0,0.0,0.0,0.0
2025-11-06 18:37:06.518,293.69,0.024,-0.024,-0.005,-0.358,-0.951,0.086,6.72,-5.17,-56.5,0.6792,-0.7071000000000001,0.0114,-0.1958,0.048,-0.01,-0.059,125.055,0.334,-0.382,-0.098,-0.316,-0.788,-0.043,14.29,-26.8,-66.38,-0.3411,0.0433,-0.6851,-0.642,-0.09,-0.121,-0.015,282.495,0.679,0.178,-0.508,-0.099,-0.989,0.004,62.73,-12.01,-72.69,-0.4444,0.5113,0.5101,0.5297000000000001,0.009,-0.005,0.039,0.0,0.0,0.0,0.0,0.0,0.0,-0.0001916885375976,0.0005750656127929,-0.1538467407226562,-0.0659332275390625,-0.0036630630493164,-0.0036630630493164,0.0,0.0,0.0,0.0
2025-11-06 18:37:06.518,293.605,0.061,-0.063,-0.005,-0.368,-0.947,0.083,5.96,-4.82,-56.38,0.6827000000000001,-0.7037,0.0092,-0.1961,0.062,-0.015,-0.065,125.055,0.334,-0.382,-0.098,-0.316,-0.788,-0.043,14.29,-26.8,-66.38,-0.3411,0.0433,-0.6851,-0.642,-0.09,-0.121,-0.015,282.495,0.679,0.178,-0.508,-0.099,-0.989,0.004,62.73,-12.01,-72.69,-0.4444,0.5113,0.5101,0.5297000000000001,0.009,-0.005,0.039,0.0,0.0,0.0,0.0,0.0,0.0,-0.0001916885375976,0.0005750656127929,-0.1538467407226562,-0.0659332275390625,-0.0036630630493164,-0.0036630630493164,0.0,0.0,0.0,0.0
2025-11-06 18:37:06.518,293.755,0.049,-0.028,-0.008,-0.36,-0.942,0.093,6.22,-4.76,-56.620000000000005,0.677,-0.7092,0.0125,-0.1959,0.047,-0.018,-0.06,125.055,0.334,-0.382,-0.098,-0.316,-0.788,-0.043,14.29,-26.8,-66.38,-0.3411,0.0433,-0.6851,-0.642,-0.09,-0.121,-0.015,282.495,0.679,0.178,-0.508,-0.099,-0.989,0.004,62.73,-12.01,-72.69,-0.4444,0.5113,0.5101,0.5297000000000001,0.009,-0.005,0.039,0.0,0.0,0.0,0.0,0.0,0.0,-0.0001916885375976,0.0005750656127929,-0.1538467407226562,-0.0659332275390625,-0.0036630630493164,-0.0036630630493164,0.0,0.0,0.0,0.0
2025-11-06 18:37:06.518,293.75,0.044,-0.035,-0.008,-0.359,-0.942,0.09,5.93,-4.88,-56.15,0.6772,-0.7090000000000001,0.0124,-0.1959,0.047,-0.018,-0.058,125.055,0.334,-0.382,-0.098,-0.316,-0.788,-0.043,14.29,-26.8,-66.38,-0.3411,0.0433,-0.6851,-0.642,-0.09,-0.121,-0.015,282.495,0.679,0.178,-0.508,-0.099,-0.989,0.004,62.73,-12.01,-72.69,-0.4444,0.5113,0.5101,0.5297000000000001,0.009,-0.005,0.039,0.0,0.0,0.0,0.0,0.0,0.0,-0.0001916885375976,0.0005750656127929,-0.1538467407226562,-0.0659332275390625,-0.0036630630493164,-0.0036630630493164,0.0,0.0,0.0,0.0
2025-11-06 18:37:06.518,293.745,0.04,-0.036,-0.008,-0.36,-0.942,0.088,5.93,-4.88,-56.15,0.6775,-0.7088,0.0123,-0.1959,0.048,-0.018,-0.056,125.055,0.334,-0.382,-0.098,-0.316,-0.788,-0.043,14.29,-26.8,-66.38,-0.3411,0.0433,-0.6851,-0.642,-0.09,-0.121,-0.015,282.495,0.679,0.178,-0.508,-0.099,-0.989,0.004,62.73,-12.01,-72.69,-0.4444,0.5113,0.5101,0.5297000000000001,0.009,-0.005,0.039,0.0,0.0,0.0,0.0,0.0,0.0,-0.0001916885375976,0.0005750656127929,-0.1538467407226562,-0.0659332275390625,-0.0036630630493164,-0.0036630630493164,0.0,0.0,0.0,0.0
2025-11-06 18:37:06.518,293.735,0.032,-0.033,-0.007,-0.362,-0.944,0.086,5.61,-5.23,-55.97,0.6779000000000001,-0.7084,0.0121,-0.1959,0.05,-0.017,-0.055,125.055,0.334,-0.382,-0.098,-0.316,-0.788,-0.043,14.29,-26.8,-66.38,-0.3411,0.0433,-0.6851,-0.642,-0.09,-0.121,-0.015,282.495,0.679,0.178,-0.508,-0.099,-0.989,0.004,62.73,-12.01,-72.69,-0.4444,0.5113,0.5101,0.5297000000000001,0.009,-0.005,0.039,0.0,0.0,0.0,0.0,0.0,0.0,-0.0001916885375976,0.0005750656127929,-0.1538467407226562,-0.0659332275390625,-0.0036630630493164,-0.0036630630493164,0.0,0.0,0.0,0.0
2025-11-06 18:37:06.518,293.685,0.025,-0.024,-0.006,-0.355,-0.95,0.084,5.72,-4.88,-56.06,0.6793,-0.7070000000000001,0.0113,-0.1958,0.045,-0.011,-0.057,125.055,0.334,-0.382,-0.098,-0.316,-0.788,-0.043,14.29,-26.8,-66.38,-0.3411,0.0433,-0.6851,-0.642,-0.09,-0.121,-0.015,282.495,0.679,0.178,-0.508,-0.099,-0.989,0.004,62.73,-12.01,-72.69,-0.4444,0.5113,0.5101,0.5297000000000001,0.009,-0.005,0.039,0.0,0.0,0.0,0.0,0.0,0.0,-0.0001916885375976,0.0005750656127929,-0.1538467407226562,-0.0659332275390625,-0.0036630630493164,-0.0036630630493164,0.0,0.0,0.0,0.0
2025-11-06 18:37:06.518,293.73,0.033,-0.025,-0.009,-0.361,-0.945,0.086,5.61,-5.23,-55.97,0.6781,-0.7082,0.0119,-0.1958,0.049,-0.016,-0.056,125.055,0.334,-0.382,-0.098,-0.316,-0.788,-0.043,14.29,-26.8,-66.38,-0.3411,0.0433,-0.6851,-0.642,-0.09,-0.121,-0.015,282.495,0.679,0.178,-0.508,-0.099,-0.989,0.004,62.73,-12.01,-72.69,-0.4444,0.5113,0.5101,0.5297000000000001,0.009,-0.005,0.039,0.0,0.0,0.0,0.0,0.0,0.0,-0.0001916885375976,0.0005750656127929,-0.1538467407226562,-0.0659332275390625,-0.0036630630493164,-0.0036630630493164,0.0,0.0,0.0,0.0
2025-11-06 18:37:06.518,293.725,0.034,-0.017,-0.01,-0.36,-0.946,0.085,6.92,-4.94,-56.32,0.6783,-0.7080000000000001,0.0118,-0.1958,0.049,-0.015,-0.055,125.055,0.334,-0.382,-0.098,-0.316,-0.788,-0.043,14.29,-26.8,-66.38,-0.3411,0.0433,-0.6851,-0.642,-0.09,-0.121,-0.015,282.495,0.679,0.178,-0.508,-0.099,-0.989,0.004,62.73,-12.01,-72.69,-0.4444,0.5113,0.5101,0.5297000000000001,0.009,-0.005,0.039,0.0,0.0,0.0,0.0,0.0,0.0,-0.0001916885375976,0.0005750656127929,-0.1538467407226562,-0.0659332275390625,-0.0036630630493164,-0.0036630630493164,0.0,0.0,0.0,0.0
2025-11-06 18:37:06.518,293.715,0.024,-0.024,-0.006,-0.362,-0.949,0.085,6.92,-4.94,-56.32,0.6787000000000001,-0.7077,0.0117,-0.1957,0.051,-0.012,-0.056,125.055,0.334,-0.382,-0.098,-0.316,-0.788,-0.043,14.29,-26.8,-66.38,-0.3411,0.0433,-0.6851,-0.642,-0.09,-0.121,-0.015,282.495,0.679,0.178,-0.508,-0.099,-0.989,0.004,62.73,-12.01,-72.69,-0.4444,0.5113,0.5101,0.5297000000000001,0.009,-0.005,0.039,0.0,0.0,0.0,0.0,0.0,0.0,-0.0001916885375976,0.0005750656127929,-0.1538467407226562,-0.0659332275390625,-0.0036630630493164,-0.0036630630493164,0.0,0.0,0.0,0.0
2025-11-06 18:37:06.518,293.71,0.023,-0.026,-0.006,-0.361,-0.952,0.086,5.93,-5.37,-56.120000000000005,0.6788000000000001,-0.7075,0.0116,-0.1957,0.051,-0.009,-0.057,125.055,0.334,-0.382,-0.098,-0.316,-0.788,-0.043,14.29,-26.8,-66.38,-0.3411,0.0433,-0.6851,-0.642,-0.09,-0.121,-0.015,282.495,0.679,0.178,-0.508,-0.099,-0.989,0.004,62.73,-12.01,-72.69,-0.4444,0.5113,0.5101,0.5297000000000001,0.009,-0.005,0.039,0.0,0.0,0.0,0.0,0.0,0.0,-0.0001916885375976,0.0005750656127929,-0.1538467407226562,-0.0659332275390625,-0.0036630630493164,-0.0036630630493164,0.0,0.0,0.0,0.0
2025-11-06 18:37:06.518,293.705,0.026,-0.024,-0.004,-0.361,-0.951,0.086,5.93,-5.37,-56.120000000000005,0.6789000000000001,-0.7074,0.0115,-0.1958,0.05,-0.01,-0.058,125.055,0.334,-0.382,-0.098,-0.316,-0.788,-0.043,14.29,-26.8,-66.38,-0.3411,0.0433,-0.6851,-0.642,-0.09,-0.121,-0.015,282.495,0.679,0.178,-0.508,-0.099,-0.989,0.004,62.73,-12.01,-72.69,-0.4444,0.5113,0.5101,0.5297000000000001,0.009,-0.005,0.039,0.0,0.0,0.0,0.0,0.0,0.0,-0.0001916885375976,0.0005750656127929,-0.1538467407226562,-0.0659332275390625,-0.0036630630493164,-0.0036630630493164,0.0,0.0,0.0,0.0
2025-11-06 18:37:06.518,293.7,0.023,-0.022,-0.005,-0.36,-0.953,0.087,6.72,-5.17,-56.5,0.679,-0.7073,0.0115,-0.1958,0.049,-0.008,-0.059,125.055,0.334,-0.382,-0.098,-0.316,-0.788,-0.043,14.29,-26.8,-66.38,-0.3411,0.0433,-0.6851,-0.642,-0.09,-0.121,-0.015,282.495,0.679,0.178,-0.508,-0.099,-0.989,0.004,62.73,-12.01,-72.69,-0.4444,0.5113,0.5101,0.5297000000000001,0.009,-0.005,0.039,0.0,0.0,0.0,0.0,0.0,0.0,-0.0001916885375976,0.0005750656127929,-0.1538467407226562,-0.0659332275390625,-0.0036630630493164,-0.0036630630493164,0.0,0.0,0.0,0.0
2025-11-06 18:37:06.518,293.695,0.024,-0.027,-0.003,-0.36,-0.952,0.087,6.72,-5.17,-56.5,0.6791,-0.7072,0.0114,-0.1958,0.049,-0.009,-0.059,125.055,0.334,-0.382,-0.098,-0.316,-0.788,-0.043,14.29,-26.8,-66.38,-0.3411,0.0433,-0.6851,-0.642,-0.09,-0.121,-0.015,282.495,0.679,0.178,-0.508,-0.099,-0.989,0.004,62.73,-12.01,-72.69,-0.4444,0.5113,0.5101,0.5297000000000001,0.009,-0.005,0.039,0.0,0.0,0.0,0.0,0.0,0.0,-0.0001916885375976,0.0005750656127929,-0.1538467407226562,-0.0659332275390625,-0.0036630630493164,-0.0036630630493164,0.0,0.0,0.0,0.0
2025-11-06 18:37:06.518,293.72,0.031,-0.018,-0.008,-0.362,-0.948,0.086,6.92,-4.94,-56.32,0.6785,-0.7078,0.0117,-0.1957,0.051,-0.013,-0.057,125.055,0.334,-0.382,-0.098,-0.316,-0.788,-0.043,14.29,-26.8,-66.38,-0.3411,0.0433,-0.6851,-0.642,-0.09,-0.121,-0.015,282.495,0.679,0.178,-0.508,-0.099,-0.989,0.004,62.73,-12.01,-72.69,-0.4444,0.5113,0.5101,0.5297000000000001,0.009,-0.005,0.039,0.0,0.0,0.0,0.0,0.0,0.0,-0.0001916885375976,0.0005750656127929,-0.1538467407226562,-0.0659332275390625,-0.0036630630493164,-0.0036630630493164,0.0,0.0,0.0,0.0
2025-11-06 18:37:06.519,293.77,0.057,-0.014,-0.011,-0.357,-0.941,0.093,5.67,-5.14,-56.41,0.6764,-0.7098,0.0127,-0.1959,0.043,-0.019,-0.058,125.055,0.334,-0.382,-0.098,-0.316,-0.788,-0.043,14.29,-26.8,-66.38,-0.3411,0.0433,-0.6851,-0.642,-0.09,-0.121,-0.015,282.52,-0.033,-0.013,0.0,-0.102,-0.993,-0.031,62.17,-10.46,-76.08,-0.4392,0.5016,0.5298,0.5241,0.042,-0.002,0.098,0.0,0.0,0.0,0.0,0.0,0.0,-0.0001916885375976,0.0005750656127929,-0.1538467407226562,-0.0659332275390625,-0.0036630630493164,-0.0036630630493164,0.0,0.0,0.0,0.0
2025-11-06 18:37:06.519,293.78,0.056,-0.011,-0.013,-0.356,-0.94,0.093,6.4,-5.34,-56.65,0.6759000000000001,-0.7102,0.0127,-0.1959,0.043,-0.02,-0.057,125.055,0.334,-0.382,-0.098,-0.316,-0.788,-0.043,14.29,-26.8,-66.38,-0.3411,0.0433,-0.6851,-0.642,-0.09,-0.121,-0.015,282.52,-0.033,-0.013,0.0,-0.102,-0.993,-0.031,62.17,-10.46,-76.08,-0.4392,0.5016,0.5298,0.5241,0.042,-0.002,0.098,0.0,0.0,0.0,0.0,0.0,0.0,-0.0001916885375976,0.0005750656127929,-0.1538467407226562,-0.0659332275390625,-0.0036630630493164,-0.0036630630493164,0.0,0.0,0.0,0.0
2025-11-06 18:37:06.519,293.76,0.052,-0.024,-0.009,-0.358,-0.94,0.094,6.22,-4.76,-56.620000000000005,0.6768000000000001,-0.7094,0.0126,-0.1959,0.045,-0.02,-0.06,125.055,0.334,-0.382,-0.098,-0.316,-0.788,-0.043,14.29,-26.8,-66.38,-0.3411,0.0433,-0.6851,-0.642,-0.09,-0.121,-0.015,282.52,-0.033,-0.013,0.0,-0.102,-0.993,-0.031,62.17,-10.46,-76.08,-0.4392,0.5016,0.5298,0.5241,0.042,-0.002,0.098,0.0,0.0,0.0,0.0,0.0,0.0,-0.0001916885375976,0.0005750656127929,-0.1538467407226562,-0.0659332275390625,-0.0036630630493164,-0.0036630630493164,0.0,0.0,0.0,0.0
2025-11-06 18:37:06.519,293.785,0.054,-0.01,-0.013,-0.355,-0.942,0.091,6.4,-5.34,-56.65,0.6757000000000001,-0.7104,0.0128,-0.196,0.042,-0.017,-0.055,125.055,0.334,-0.382,-0.098,-0.316,-0.788,-0.043,14.29,-26.8,-66.38,-0.3411,0.0433,-0.6851,-0.642,-0.09,-0.121,-0.015,282.52,-0.033,-0.013,0.0,-0.102,-0.993,-0.031,62.17,-10.46,-76.08,-0.4392,0.5016,0.5298,0.5241,0.042,-0.002,0.098,0.0,0.0,0.0,0.0,0.0,0.0,-0.0001916885375976,0.0005750656127929,-0.1538467407226562,-0.0659332275390625,-0.0036630630493164,-0.0036630630493164,0.0,0.0,0.0,0.0
2025-11-06 18:37:06.519,293.845,0.055,0.015,0.0,-0.354,-0.952,0.104,5.34,-4.67,-56.44,0.6733,-0.7125,0.0132,-0.1966,0.038,-0.007,-0.061,125.055,0.334,-0.382,-0.098,-0.316,-0.788,-0.043,14.29,-26.8,-66.38,-0.3411,0.0433,-0.6851,-0.642,-0.09,-0.121,-0.015,282.52,-0.033,-0.013,0.0,-0.102,-0.993,-0.031,62.17,-10.46,-76.08,-0.4392,0.5016,0.5298,0.5241,0.042,-0.002,0.098,0.0,0.0,0.0,0.0,0.0,0.0,-0.0001916885375976,0.0005750656127929,-0.1538467407226562,-0.0659332275390625,-0.0036630630493164,-0.0036630630493164,0.0,0.0,0.0,0.0
2025-11-06 18:37:06.519,293.765,0.058,-0.013,-0.016,-0.359,-0.942,0.093,5.67,-5.14,-56.41,0.6766,-0.7096,0.0126,-0.1959,0.045,-0.018,-0.059,125.055,0.334,-0.382,-0.098,-0.316,-0.788,-0.043,14.29,-26.8,-66.38,-0.3411,0.0433,-0.6851,-0.642,-0.09,-0.121,-0.015,282.52,-0.033,-0.013,0.0,-0.102,-0.993,-0.031,62.17,-10.46,-76.08,-0.4392,0.5016,0.5298,0.5241,0.042,-0.002,0.098,0.0,0.0,0.0,0.0,0.0,0.0,-0.0001916885375976,0.0005750656127929,-0.1538467407226562,-0.0659332275390625,-0.0036630630493164,-0.0036630630493164,0.0,0.0,0.0,0.0
2025-11-06 18:37:06.519,293.79,0.053,0.0,-0.011,-0.355,-0.943,0.087,5.78,-5.43,-56.76,0.6755,-0.7106,0.0128,-0.196,0.041,-0.017,-0.05,125.055,0.334,-0.382,-0.098,-0.316,-0.788,-0.043,14.29,-26.8,-66.38,-0.3411,0.0433,-0.6851,-0.642,-0.09,-0.121,-0.015,282.52,-0.033,-0.013,0.0,-0.102,-0.993,-0.031,62.17,-10.46,-76.08,-0.4392,0.5016,0.5298,0.5241,0.042,-0.002,0.098,0.0,0.0,0.0,0.0,0.0,0.0,-0.0001916885375976,0.0005750656127929,-0.1538467407226562,-0.0659332275390625,-0.0036630630493164,-0.0036630630493164,0.0,0.0,0.0,0.0
2025-11-06 18:37:06.519,293.83,0.046,0.004,0.0,-0.353,-0.952,0.097,5.75,-5.08,-56.620000000000005,0.6738000000000001,-0.7121000000000001,0.0132,-0.1965,0.037,-0.007,-0.056,125.055,0.334,-0.382,-0.098,-0.316,-0.788,-0.043,14.29,-26.8,-66.38,-0.3411,0.0433,-0.6851,-0.642,-0.09,-0.121,-0.015,282.52,-0.033,-0.013,0.0,-0.102,-0.993,-0.031,62.17,-10.46,-76.08,-0.4392,0.5016,0.5298,0.5241,0.042,-0.002,0.098,0.0,0.0,0.0,0.0,0.0,0.0,-0.0001916885375976,0.0005750656127929,-0.1538467407226562,-0.0659332275390625,-0.0036630630493164,-0.0036630630493164,0.0,0.0,0.0,0.0
2025-11-06 18:37:06.519,293.8,0.053,-0.005,-0.007,-0.354,-0.943,0.086,5.78,-5.43,-56.76,0.675,-0.7110000000000001,0.0129,-0.1962,0.039,-0.017,-0.048,125.055,0.334,-0.382,-0.098,-0.316,-0.788,-0.043,14.29,-26.8,-66.38,-0.3411,0.0433,-0.6851,-0.642,-0.09,-0.121,-0.015,282.52,-0.033,-0.013,0.0,-0.102,-0.993,-0.031,62.17,-10.46,-76.08,-0.4392,0.5016,0.5298,0.5241,0.042,-0.002,0.098,0.0,0.0,0.0,0.0,0.0,0.0,-0.0001916885375976,0.0005750656127929,-0.1538467407226562,-0.0659332275390625,-0.0036630630493164,-0.0036630630493164,0.0,0.0,0.0,0.0
2025-11-06 18:37:06.519,293.805,0.048,-0.005,-0.007,-0.353,-0.945,0.086,5.7,-4.99,-56.88,0.6748000000000001,-0.7112,0.013,-0.1962,0.039,-0.014,-0.047,125.055,0.334,-0.382,-0.098,-0.316,-0.788,-0.043,14.29,-26.8,-66.38,-0.3411,0.0433,-0.6851,-0.642,-0.09,-0.121,-0.015,282.52,-0.033,-0.013,0.0,-0.102,-0.993,-0.031,62.17,-10.46,-76.08,-0.4392,0.5016,0.5298,0.5241,0.042,-0.002,0.098,0.0,0.0,0.0,0.0,0.0,0.0,-0.0001916885375976,0.0005750656127929,-0.1538467407226562,-0.0659332275390625,-0.0036630630493164,-0.0036630630493164,0.0,0.0,0.0,0.0
2025-11-06 18:37:06.519,293.81,0.05,0.0,-0.006,-0.353,-0.945,0.089,5.7,-4.99,-56.88,0.6745,-0.7115,0.0131,-0.1963,0.038,-0.014,-0.049,125.055,0.334,-0.382,-0.098,-0.316,-0.788,-0.043,14.29,-26.8,-66.38,-0.3411,0.0433,-0.6851,-0.642,-0.09,-0.121,-0.015,282.52,-0.033,-0.013,0.0,-0.102,-0.993,-0.031,62.17,-10.46,-76.08,-0.4392,0.5016,0.5298,0.5241,0.042,-0.002,0.098,0.0,0.0,0.0,0.0,0.0,0.0,-0.0001916885375976,0.0005750656127929,-0.1538467407226562,-0.0659332275390625,-0.0036630630493164,-0.0036630630493164,0.0,0.0,0.0,0.0
2025-11-06 18:37:06.519,293.815,0.05,0.007,-0.005,-0.353,-0.947,0.09,5.67,-4.94,-56.29,0.6743,-0.7117,0.0131,-0.1964,0.038,-0.012,-0.05,125.055,0.334,-0.382,-0.098,-0.316,-0.788,-0.043,14.29,-26.8,-66.38,-0.3411,0.0433,-0.6851,-0.642,-0.09,-0.121,-0.015,282.52,-0.033,-0.013,0.0,-0.102,-0.993,-0.031,62.17,-10.46,-76.08,-0.4392,0.5016,0.5298,0.5241,0.042,-0.002,0.098,0.0,0.0,0.0,0.0,0.0,0.0,-0.0001916885375976,0.0005750656127929,-0.1538467407226562,-0.0659332275390625,-0.0036630630493164,-0.0036630630493164,0.0,0.0,0.0,0.0
2025-11-06 18:37:06.519,293.825,0.046,0.004,0.0,-0.352,-0.951,0.095,5.67,-4.94,-56.29,0.6739,-0.7120000000000001,0.0132,-0.1964,0.037,-0.008,-0.054,125.055,0.334,-0.382,-0.098,-0.316,-0.788,-0.043,14.29,-26.8,-66.38,-0.3411,0.0433,-0.6851,-0.642,-0.09,-0.121,-0.015,282.52,-0.033,-0.013,0.0,-0.102,-0.993,-0.031,62.17,-10.46,-76.08,-0.4392,0.5016,0.5298,0.5241,0.042,-0.002,0.098,0.0,0.0,0.0,0.0,0.0,0.0,-0.0001916885375976,0.0005750656127929,-0.1538467407226562,-0.0659332275390625,-0.0036630630493164,-0.0036630630493164,0.0,0.0,0.0,0.0
2025-11-06 18:37:06.519,293.795,0.053,0.0,-0.009,-0.355,-0.943,0.087,5.78,-5.43,-56.76,0.6752,-0.7108,0.0129,-0.1961,0.041,-0.017,-0.049,125.055,0.334,-0.382,-0.098,-0.316,-0.788,-0.043,14.29,-26.8,-66.38,-0.3411,0.0433,-0.6851,-0.642,-0.09,-0.121,-0.015,282.52,-0.033,-0.013,0.0,-0.102,-0.993,-0.031,62.17,-10.46,-76.08,-0.4392,0.5016,0.5298,0.5241,0.042,-0.002,0.098,0.0,0.0,0.0,0.0,0.0,0.0,-0.0001916885375976,0.0005750656127929,-0.1538467407226562,-0.0659332275390625,-0.0036630630493164,-0.0036630630493164,0.0,0.0,0.0,0.0
2025-11-06 18:37:06.519,293.835,0.047,0.008,0.001,-0.354,-0.951,0.1,5.75,-5.08,-56.620000000000005,0.6736000000000001,-0.7123,0.0132,-0.1965,0.038,-0.008,-0.058,125.055,0.334,-0.382,-0.098,-0.316,-0.788,-0.043,14.29,-26.8,-66.38,-0.3411,0.0433,-0.6851,-0.642,-0.09,-0.121,-0.015,282.52,-0.033,-0.013,0.0,-0.102,-0.993,-0.031,62.17,-10.46,-76.08,-0.4392,0.5016,0.5298,0.5241,0.042,-0.002,0.098,0.0,0.0,0.0,0.0,0.0,0.0,-0.0001916885375976,0.0005750656127929,-0.1538467407226562,-0.0659332275390625,-0.0036630630493164,-0.0036630630493164,0.0,0.0,0.0,0.0
2025-11-06 18:37:06.519,293.84,0.049,0.01,0.0,-0.354,-0.952,0.102,5.34,-4.67,-56.44,0.6734,-0.7124,0.0132,-0.1965,0.038,-0.007,-0.059,125.055,0.334,-0.382,-0.098,-0.316,-0.788,-0.043,14.29,-26.8,-66.38,-0.3411,0.0433,-0.6851,-0.642,-0.09,-0.121,-0.015,282.52,-0.033,-0.013,0.0,-0.102,-0.993,-0.031,62.17,-10.46,-76.08,-0.4392,0.5016,0.5298,0.5241,0.042,-0.002,0.098,0.0,0.0,0.0,0.0,0.0,0.0,-0.0001916885375976,0.0005750656127929,-0.1538467407226562,-0.0659332275390625,-0.0036630630493164,-0.0036630630493164,0.0,0.0,0.0,0.0
2025-11-06 18:37:06.519,293.775,0.053,-0.013,-0.012,-0.356,-0.94,0.094,5.67,-5.14,-56.41,0.6761,-0.7100000000000001,0.0127,-0.1959,0.043,-0.02,-0.058,125.055,0.334,-0.382,-0.098,-0.316,-0.788,-0.043,14.29,-26.8,-66.38,-0.3411,0.0433,-0.6851,-0.642,-0.09,-0.121,-0.015,282.52,-0.033,-0.013,0.0,-0.102,-0.993,-0.031,62.17,-10.46,-76.08,-0.4392,0.5016,0.5298,0.5241,0.042,-0.002,0.098,0.0,0.0,0.0,0.0,0.0,0.0,-0.0001916885375976,0.0005750656127929,-0.1538467407226562,-0.0659332275390625,-0.0036630630493164,-0.0036630630493164,0.0,0.0,0.0,0.0
2025-11-06 18:37:06.519,293.82,0.05,0.008,-0.002,-0.349,-0.949,0.092,5.67,-4.94,-56.29,0.6741,-0.7118,0.0131,-0.1964,0.034,-0.01,-0.051,125.055,0.334,-0.382,-0.098,-0.316,-0.788,-0.043,14.29,-26.8,-66.38,-0.3411,0.0433,-0.6851,-0.642,-0.09,-0.121,-0.015,282.52,-0.033,-0.013,0.0,-0.102,-0.993,-0.031,62.17,-10.46,-76.08,-0.4392,0.5016,0.5298,0.5241,0.042,-0.002,0.098,0.0,0.0,0.0,0.0,0.0,0.0,-0.0001916885375976,0.0005750656127929,-0.1538467407226562,-0.0659332275390625,-0.0036630630493164,-0.0036630630493164,0.0,0.0,0.0,0.0
2025-11-06 18:37:06.519,293.92,0.041,0.023,-0.002,-0.35,-0.953,0.111,5.8100000000000005,-4.3500000000000005,-56.21,0.6709,-0.7146,0.0127,-0.1973,0.033,-0.005,-0.062,125.055,0.334,-0.382,-0.098,-0.316,-0.788,-0.043,14.29,-26.8,-66.38,-0.3411,0.0433,-0.6851,-0.642,-0.09,-0.121,-0.015,282.52,-0.033,-0.013,0.0,-0.102,-0.993,-0.031,62.17,-10.46,-76.08,-0.4392,0.5016,0.5298,0.5241,0.042,-0.002,0.098,0.0,0.0,0.0,0.0,0.0,0.0,-0.0001916885375976,0.0005750656127929,-0.1538467407226562,-0.0659332275390625,-0.0036630630493164,-0.0036630630493164,0.0,0.0,0.0,0.0
2025-11-06 18:37:06.519,293.895,0.055,0.013,-0.004,-0.353,-0.95,0.092,5.43,-4.58,-56.44,0.6716000000000001,-0.7140000000000001,0.0129,-0.1971,0.037,-0.009,-0.045,125.055,0.334,-0.382,-0.098,-0.316,-0.788,-0.043,14.29,-26.8,-66.38,-0.3411,0.0433,-0.6851,-0.642,-0.09,-0.121,-0.015,282.52,-0.033,-0.013,0.0,-0.102,-0.993,-0.031,62.17,-10.46,-76.08,-0.4392,0.5016,0.5298,0.5241,0.042,-0.002,0.098,0.0,0.0,0.0,0.0,0.0,0.0,-0.0001916885375976,0.0005750656127929,-0.1538467407226562,-0.0659332275390625,-0.0036630630493164,-0.0036630630493164,0.0,0.0,0.0,0.0
2025-11-06 18:37:06.519,293.85,0.057,0.015,-0.001,-0.356,-0.952,0.104,5.34,-4.67,-56.44,0.6731,-0.7127,0.0131,-0.1966,0.04,-0.007,-0.061,125.055,0.334,-0.382,-0.098,-0.316,-0.788,-0.043,14.29,-26.8,-66.38,-0.3411,0.0433,-0.6851,-0.642,-0.09,-0.121,-0.015,282.52,-0.033,-0.013,0.0,-0.102,-0.993,-0.031,62.17,-10.46,-76.08,-0.4392,0.5016,0.5298,0.5241,0.042,-0.002,0.098,0.0,0.0,0.0,0.0,0.0,0.0,-0.0001916885375976,0.0005750656127929,-0.1538467407226562,-0.0659332275390625,-0.0036630630493164,-0.0036630630493164,0.0,0.0,0.0,0.0
2025-11-06 18:37:06.519,293.875,0.062,0.021,-0.006,-0.355,-0.949,0.095,6.0200000000000005,-4.61,-56.47,0.6723,-0.7134,0.013,-0.1969,0.039,-0.01,-0.05,125.055,0.334,-0.382,-0.098,-0.316,-0.788,-0.043,14.29,-26.8,-66.38,-0.3411,0.0433,-0.6851,-0.642,-0.09,-0.121,-0.015,282.52,-0.033,-0.013,0.0,-0.102,-0.993,-0.031,62.17,-10.46,-76.08,-0.4392,0.5016,0.5298,0.5241,0.042,-0.002,0.098,0.0,0.0,0.0,0.0,0.0,0.0,-0.0001916885375976,0.0005750656127929,-0.1538467407226562,-0.0659332275390625,-0.0036630630493164,-0.0036630630493164,0.0,0.0,0.0,0.0
2025-11-06 18:37:06.519,293.88,0.062,0.015,-0.009,-0.356,-0.949,0.092,5.84,-4.91,-56.27,0.6721,-0.7136,0.013,-0.1969,0.04,-0.01,-0.046,125.055,0.334,-0.382,-0.098,-0.316,-0.788,-0.043,14.29,-26.8,-66.38,-0.3411,0.0433,-0.6851,-0.642,-0.09,-0.121,-0.015,282.52,-0.033,-0.013,0.0,-0.102,-0.993,-0.031,62.17,-10.46,-76.08,-0.4392,0.5016,0.5298,0.5241,0.042,-0.002,0.098,0.0,0.0,0.0,0.0,0.0,0.0,-0.0001916885375976,0.0005750656127929,-0.1538467407226562,-0.0659332275390625,-0.0036630630493164,-0.0036630630493164,0.0,0.0,0.0,0.0
2025-11-06 18:37:06.519,293.865,0.063,0.021,-0.006,-0.356,-0.951,0.1,6.0200000000000005,-4.61,-56.47,0.6726000000000001,-0.7131000000000001,0.0131,-0.1968,0.04,-0.008,-0.055,125.055,0.334,-0.382,-0.098,-0.316,-0.788,-0.043,14.29,-26.8,-66.38,-0.3411,0.0433,-0.6851,-0.642,-0.09,-0.121,-0.015,282.52,-0.033,-0.013,0.0,-0.102,-0.993,-0.031,62.17,-10.46,-76.08,-0.4392,0.5016,0.5298,0.5241,0.042,-0.002,0.098,0.0,0.0,0.0,0.0,0.0,0.0,-0.0001916885375976,0.0005750656127929,-0.1538467407226562,-0.0659332275390625,-0.0036630630493164,-0.0036630630493164,0.0,0.0,0.0,0.0
2025-11-06 18:37:06.519,293.86,0.059,0.015,-0.003,-0.356,-0.95,0.103,5.96,-4.44,-56.73,0.6728000000000001,-0.7130000000000001,0.0131,-0.1967,0.04,-0.009,-0.059,125.055,0.334,-0.382,-0.098,-0.316,-0.788,-0.043,14.29,-26.8,-66.38,-0.3411,0.0433,-0.6851,-0.642,-0.09,-0.121,-0.015,282.52,-0.033,-0.013,0.0,-0.102,-0.993,-0.031,62.17,-10.46,-76.08,-0.4392,0.5016,0.5298,0.5241,0.042,-0.002,0.098,0.0,0.0,0.0,0.0,0.0,0.0,-0.0001916885375976,0.0005750656127929,-0.1538467407226562,-0.0659332275390625,-0.0036630630493164,-0.0036630630493164,0.0,0.0,0.0,0.0
2025-11-06 18:37:06.519,293.87,0.065,0.022,-0.005,-0.357,-0.949,0.097,6.0200000000000005,-4.61,-56.47,0.6724,-0.7133,0.013,-0.1968,0.04,-0.01,-0.052,125.055,0.334,-0.382,-0.098,-0.316,-0.788,-0.043,14.29,-26.8,-66.38,-0.3411,0.0433,-0.6851,-0.642,-0.09,-0.121,-0.015,282.52,-0.033,-0.013,0.0,-0.102,-0.993,-0.031,62.17,-10.46,-76.08,-0.4392,0.5016,0.5298,0.5241,0.042,-0.002,0.098,0.0,0.0,0.0,0.0,0.0,0.0,-0.0001916885375976,0.0005750656127929,-0.1538467407226562,-0.0659332275390625,-0.0036630630493164,-0.0036630630493164,0.0,0.0,0.0,0.0
2025-11-06 18:37:06.519,293.89,0.057,0.01,-0.006,-0.354,-0.951,0.091,5.43,-4.58,-56.44,0.6718000000000001,-0.7139,0.0129,-0.197,0.038,-0.007,-0.045,125.055,0.334,-0.382,-0.098,-0.316,-0.788,-0.043,14.29,-26.8,-66.38,-0.3411,0.0433,-0.6851,-0.642,-0.09,-0.121,-0.015,282.52,-0.033,-0.013,0.0,-0.102,-0.993,-0.031,62.17,-10.46,-76.08,-0.4392,0.5016,0.5298,0.5241,0.042,-0.002,0.098,0.0,0.0,0.0,0.0,0.0,0.0,-0.0001916885375976,0.0005750656127929,-0.1538467407226562,-0.0659332275390625,-0.0036630630493164,-0.0036630630493164,0.0,0.0,0.0,0.0
2025-11-06 18:37:06.519,293.885,0.061,0.012,-0.006,-0.355,-0.95,0.091,5.84,-4.91,-56.27,0.6719,-0.7137,0.0129,-0.197,0.038,-0.009,-0.045,125.055,0.334,-0.382,-0.098,-0.316,-0.788,-0.043,14.29,-26.8,-66.38,-0.3411,0.0433,-0.6851,-0.642,-0.09,-0.121,-0.015,282.52,-0.033,-0.013,0.0,-0.102,-0.993,-0.031,62.17,-10.46,-76.08,-0.4392,0.5016,0.5298,0.5241,0.042,-0.002,0.098,0.0,0.0,0.0,0.0,0.0,0.0,-0.0001916885375976,0.0005750656127929,-0.1538467407226562,-0.0659332275390625,-0.0036630630493164,-0.0036630630493164,0.0,0.0,0.0,0.0
2025-11-06 18:37:06.519,293.9,0.054,0.011,-0.003,-0.353,-0.951,0.093,5.43,-4.58,-56.44,0.6714,-0.7142000000000001,0.0129,-0.1971,0.036,-0.008,-0.045,125.055,0.334,-0.382,-0.098,-0.316,-0.788,-0.043,14.29,-26.8,-66.38,-0.3411,0.0433,-0.6851,-0.642,-0.09,-0.121,-0.015,282.52,-0.033,-0.013,0.0,-0.102,-0.993,-0.031,62.17,-10.46,-76.08,-0.4392,0.5016,0.5298,0.5241,0.042,-0.002,0.098,0.0,0.0,0.0,0.0,0.0,0.0,-0.0001916885375976,0.0005750656127929,-0.1538467407226562,-0.0659332275390625,-0.0036630630493164,-0.0036630630493164,0.0,0.0,0.0,0.0
2025-11-06 18:37:06.519,293.905,0.051,0.02,-0.003,-0.352,-0.953,0.098,6.22,-4.8500000000000005,-56.35,0.6713,-0.7143,0.0129,-0.1972,0.035,-0.006,-0.05,125.055,0.334,-0.382,-0.098,-0.316,-0.788,-0.043,14.29,-26.8,-66.38,-0.3411,0.0433,-0.6851,-0.642,-0.09,-0.121,-0.015,282.52,-0.033,-0.013,0.0,-0.102,-0.993,-0.031,62.17,-10.46,-76.08,-0.4392,0.5016,0.5298,0.5241,0.042,-0.002,0.098,0.0,0.0,0.0,0.0,0.0,0.0,-0.0001916885375976,0.0005750656127929,-0.1538467407226562,-0.0659332275390625,-0.0036630630493164,-0.0036630630493164,0.0,0.0,0.0,0.0
2025-11-06 18:37:06.519,293.91,0.049,0.026,-0.005,-0.353,-0.953,0.101,6.22,-4.8500000000000005,-56.35,0.6711,-0.7144,0.0128,-0.1972,0.036,-0.006,-0.053,125.055,0.334,-0.382,-0.098,-0.316,-0.788,-0.043,14.29,-26.8,-66.38,-0.3411,0.0433,-0.6851,-0.642,-0.09,-0.121,-0.015,282.52,-0.033,-0.013,0.0,-0.102,-0.993,-0.031,62.17,-10.46,-76.08,-0.4392,0.5016,0.5298,0.5241,0.042,-0.002,0.098,0.0,0.0,0.0,0.0,0.0,0.0,-0.0001916885375976,0.0005750656127929,-0.1538467407226562,-0.0659332275390625,-0.0036630630493164,-0.0036630630493164,0.0,0.0,0.0,0.0
2025-11-06 18:37:06.519,293.915,0.048,0.029,-0.004,-0.348,-0.954,0.103,5.8100000000000005,-4.3500000000000005,-56.21,0.671,-0.7145,0.0128,-0.1973,0.031,-0.004,-0.054,125.055,0.334,-0.382,-0.098,-0.316,-0.788,-0.043,14.29,-26.8,-66.38,-0.3411,0.0433,-0.6851,-0.642,-0.09,-0.121,-0.015,282.52,-0.033,-0.013,0.0,-0.102,-0.993,-0.031,62.17,-10.46,-76.08,-0.4392,0.5016,0.5298,0.5241,0.042,-0.002,0.098,0.0,0.0,0.0,0.0,0.0,0.0,-0.0001916885375976,0.0005750656127929,-0.1538467407226562,-0.0659332275390625,-0.0036630630493164,-0.0036630630493164,0.0,0.0,0.0,0.0
2025-11-06 18:37:06.519,293.93,0.028,0.026,-0.006,-0.352,-0.951,0.115,6.13,-4.53,-56.15,0.6707000000000001,-0.7148,0.0127,-0.1974,0.035,-0.007,-0.065,125.055,0.334,-0.382,-0.098,-0.316,-0.788,-0.043,14.29,-26.8,-66.38,-0.3411,0.0433,-0.6851,-0.642,-0.09,-0.121,-0.015,282.52,-0.033,-0.013,0.0,-0.102,-0.993,-0.031,62.17,-10.46,-76.08,-0.4392,0.5016,0.5298,0.5241,0.042,-0.002,0.098,0.0,0.0,0.0,0.0,0.0,0.0,-0.0001916885375976,0.0005750656127929,-0.1538467407226562,-0.0659332275390625,-0.0036630630493164,-0.0036630630493164,0.0,0.0,0.0,0.0
2025-11-06 18:37:06.519,293.935,0.026,0.026,-0.008,-0.353,-0.951,0.115,6.13,-4.53,-56.15,0.6706000000000001,-0.7149,0.0126,-0.1975,0.036,-0.007,-0.066,125.055,0.334,-0.382,-0.098,-0.316,-0.788,-0.043,14.29,-26.8,-66.38,-0.3411,0.0433,-0.6851,-0.642,-0.09,-0.121,-0.015,282.52,-0.033,-0.013,0.0,-0.102,-0.993,-0.031,62.17,-10.46,-76.08,-0.4392,0.5016,0.5298,0.5241,0.042,-0.002,0.098,0.0,0.0,0.0,0.0,0.0,0.0,-0.0001916885375976,0.0005750656127929,-0.1538467407226562,-0.0659332275390625,-0.0036630630493164,-0.0036630630493164,0.0,0.0,0.0,0.0
2025-11-06 18:37:06.519,293.925,0.034,0.022,-0.004,-0.353,-0.952,0.112,5.8100000000000005,-4.3500000000000005,-56.21,0.6708000000000001,-0.7147,0.0127,-0.1974,0.036,-0.006,-0.063,125.055,0.334,-0.382,-0.098,-0.316,-0.788,-0.043,14.29,-26.8,-66.38,-0.3411,0.0433,-0.6851,-0.642,-0.09,-0.121,-0.015,282.52,-0.033,-0.013,0.0,-0.102,-0.993,-0.031,62.17,-10.46,-76.08,-0.4392,0.5016,0.5298,0.5241,0.042,-0.002,0.098,0.0,0.0,0.0,0.0,0.0,0.0,-0.0001916885375976,0.0005750656127929,-0.1538467407226562,-0.0659332275390625,-0.0036630630493164,-0.0036630630493164,0.0,0.0,0.0,0.0
2025-11-06 18:37:06.519,293.855,0.056,0.013,-0.003,-0.356,-0.951,0.105,5.96,-4.44,-56.73,0.673,-0.7128,0.0131,-0.1967,0.04,-0.008,-0.061,125.055,0.334,-0.382,-0.098,-0.316,-0.788,-0.043,14.29,-26.8,-66.38,-0.3411,0.0433,-0.6851,-0.642,-0.09,-0.121,-0.015,282.52,-0.033,-0.013,0.0,-0.102,-0.993,-0.031,62.17,-10.46,-76.08,-0.4392,0.5016,0.5298,0.5241,0.042,-0.002,0.098,0.0,0.0,0.0,0.0,0.0,0.0,-0.0001916885375976,0.0005750656127929,-0.1538467407226562,-0.0659332275390625,-0.0036630630493164,-0.0036630630493164,0.0,0.0,0.0,0.0
2025-11-06 18:37:06.520,293.975,0.009,0.031,-0.002,-0.352,-0.953,0.107,5.84,-4.5,-56.67,0.6698000000000001,-0.7155,0.0124,-0.1979,0.034,-0.005,-0.056,125.055,0.334,-0.382,-0.098,-0.316,-0.788,-0.043,14.29,-26.8,-66.38,-0.3411,0.0433,-0.6851,-0.642,-0.09,-0.121,-0.015,282.645,-0.013,0.008,0.002,-0.103,-0.991,-0.039,62.35,-10.99,-75.44,-0.4483,0.4897,0.4978,0.5579000000000001,0.003,-0.003,0.015,0.0,0.0,0.0,0.0,0.0,0.0,-0.0001916885375976,0.0005750656127929,-0.1538467407226562,-0.0659332275390625,-0.0036630630493164,-0.0036630630493164,0.0,0.0,0.0,0.0
2025-11-06 18:37:06.520,293.97,0.013,0.027,-0.005,-0.35,-0.953,0.107,5.84,-4.5,-56.67,0.6699,-0.7154,0.0124,-0.1978,0.033,-0.005,-0.056,125.055,0.334,-0.382,-0.098,-0.316,-0.788,-0.043,14.29,-26.8,-66.38,-0.3411,0.0433,-0.6851,-0.642,-0.09,-0.121,-0.015,282.645,-0.013,0.008,0.002,-0.103,-0.991,-0.039,62.35,-10.99,-75.44,-0.4483,0.4897,0.4978,0.5579000000000001,0.003,-0.003,0.015,0.0,0.0,0.0,0.0,0.0,0.0,-0.0001916885375976,0.0005750656127929,-0.1538467407226562,-0.0659332275390625,-0.0036630630493164,-0.0036630630493164,0.0,0.0,0.0,0.0
2025-11-06 18:37:06.520,293.965,0.013,0.026,-0.005,-0.351,-0.952,0.106,6.57,-4.53,-56.65,0.6699,-0.7154,0.0125,-0.1977,0.034,-0.006,-0.055,125.055,0.334,-0.382,-0.098,-0.316,-0.788,-0.043,14.29,-26.8,-66.38,-0.3411,0.0433,-0.6851,-0.642,-0.09,-0.121,-0.015,282.645,-0.013,0.008,0.002,-0.103,-0.991,-0.039,62.35,-10.99,-75.44,-0.4483,0.4897,0.4978,0.5579000000000001,0.003,-0.003,0.015,0.0,0.0,0.0,0.0,0.0,0.0,-0.0001916885375976,0.0005750656127929,-0.1538467407226562,-0.0659332275390625,-0.0036630630493164,-0.0036630630493164,0.0,0.0,0.0,0.0
2025-11-06 18:37:06.520,293.945,0.026,0.028,-0.008,-0.353,-0.95,0.113,6.08,-4.58,-56.67,0.6703,-0.7151000000000001,0.0126,-0.1976,0.036,-0.008,-0.063,125.055,0.334,-0.382,-0.098,-0.316,-0.788,-0.043,14.29,-26.8,-66.38,-0.3411,0.0433,-0.6851,-0.642,-0.09,-0.121,-0.015,282.645,-0.013,0.008,0.002,-0.103,-0.991,-0.039,62.35,-10.99,-75.44,-0.4483,0.4897,0.4978,0.5579000000000001,0.003,-0.003,0.015,0.0,0.0,0.0,0.0,0.0,0.0,-0.0001916885375976,0.0005750656127929,-0.1538467407226562,-0.0659332275390625,-0.0036630630493164,-0.0036630630493164,0.0,0.0,0.0,0.0
2025-11-06 18:37:06.520,293.955,0.022,0.028,-0.011,-0.354,-0.951,0.109,6.57,-4.53,-56.65,0.6701,-0.7152000000000001,0.0125,-0.1977,0.036,-0.007,-0.058,125.055,0.334,-0.382,-0.098,-0.316,-0.788,-0.043,14.29,-26.8,-66.38,-0.3411,0.0433,-0.6851,-0.642,-0.09,-0.121,-0.015,282.645,-0.013,0.008,0.002,-0.103,-0.991,-0.039,62.35,-10.99,-75.44,-0.4483,0.4897,0.4978,0.5579000000000001,0.003,-0.003,0.015,0.0,0.0,0.0,0.0,0.0,0.0,-0.0001916885375976,0.0005750656127929,-0.1538467407226562,-0.0659332275390625,-0.0036630630493164,-0.0036630630493164,0.0,0.0,0.0,0.0
2025-11-06 18:37:06.520,293.94,0.023,0.029,-0.006,-0.354,-0.951,0.115,6.13,-4.53,-56.15,0.6705,-0.7150000000000001,0.0126,-0.1975,0.037,-0.007,-0.066,125.055,0.334,-0.382,-0.098,-0.316,-0.788,-0.043,14.29,-26.8,-66.38,-0.3411,0.0433,-0.6851,-0.642,-0.09,-0.121,-0.015,282.645,-0.013,0.008,0.002,-0.103,-0.991,-0.039,62.35,-10.99,-75.44,-0.4483,0.4897,0.4978,0.5579000000000001,0.003,-0.003,0.015,0.0,0.0,0.0,0.0,0.0,0.0,-0.0001916885375976,0.0005750656127929,-0.1538467407226562,-0.0659332275390625,-0.0036630630493164,-0.0036630630493164,0.0,0.0,0.0,0.0
2025-11-06 18:37:06.520,293.98,0.006,0.035,0.0,-0.351,-0.954,0.108,6.34,-4.94,-56.5,0.6697000000000001,-0.7155,0.0124,-0.1979,0.033,-0.004,-0.056,125.055,0.334,-0.382,-0.098,-0.316,-0.788,-0.043,14.29,-26.8,-66.38,-0.3411,0.0433,-0.6851,-0.642,-0.09,-0.121,-0.015,282.645,-0.013,0.008,0.002,-0.103,-0.991,-0.039,62.35,-10.99,-75.44,-0.4483,0.4897,0.4978,0.5579000000000001,0.003,-0.003,0.015,0.0,0.0,0.0,0.0,0.0,0.0,-0.0001916885375976,0.0005750656127929,-0.1538467407226562,-0.0659332275390625,-0.0036630630493164,-0.0036630630493164,0.0,0.0,0.0,0.0
2025-11-06 18:37:06.520,293.96,0.017,0.024,-0.008,-0.352,-0.951,0.107,6.57,-4.53,-56.65,0.67,-0.7153,0.0125,-0.1977,0.035,-0.007,-0.056,125.055,0.334,-0.382,-0.098,-0.316,-0.788,-0.043,14.29,-26.8,-66.38,-0.3411,0.0433,-0.6851,-0.642,-0.09,-0.121,-0.015,282.645,-0.013,0.008,0.002,-0.103,-0.991,-0.039,62.35,-10.99,-75.44,-0.4483,0.4897,0.4978,0.5579000000000001,0.003,-0.003,0.015,0.0,0.0,0.0,0.0,0.0,0.0,-0.0001916885375976,0.0005750656127929,-0.1538467407226562,-0.0659332275390625,-0.0036630630493164,-0.0036630630493164,0.0,0.0,0.0,0.0
2025-11-06 18:37:06.520,293.985,0.002,0.034,0.002,-0.35,-0.954,0.109,6.34,-4.94,-56.5,0.6697000000000001,-0.7155,0.0124,-0.198,0.032,-0.004,-0.057,125.055,0.334,-0.382,-0.098,-0.316,-0.788,-0.043,14.29,-26.8,-66.38,-0.3411,0.0433,-0.6851,-0.642,-0.09,-0.121,-0.015,282.645,-0.013,0.008,0.002,-0.103,-0.991,-0.039,62.35,-10.99,-75.44,-0.4483,0.4897,0.4978,0.5579000000000001,0.003,-0.003,0.015,0.0,0.0,0.0,0.0,0.0,0.0,-0.0001916885375976,0.0005750656127929,-0.1538467407226562,-0.0659332275390625,-0.0036630630493164,-0.0036630630493164,0.0,0.0,0.0,0.0
