Youthstudy/imurecv/data/merged/merged_20251106_183256.csv
System_Time,Timestamp_1,Gyro_X_1,Gyro_Y_1,Gyro_Z_1,Acc_X_1,Acc_Y_1,Acc_Z_1,Mag_X_1,Mag_Y_1,Mag_Z_1,Quat_W_1,Quat_X_1,Quat_Y_1,Quat_Z_1,Linear_Acc_X_1,Linear_Acc_Y_1,Linear_Acc_Z_1,Timestamp_2,Gyro_X_2,Gyro_Y_2,Gyro_Z_2,Acc_X_2,Acc_Y_2,Acc_Z_2,Mag_X_2,Mag_Y_2,Mag_Z_2,Quat_W_2,Quat_X_2,Quat_Y_2,Quat_Z_2,Linear_Acc_X_2,Linear_Acc_Y_2,Linear_Acc_Z_2,Timestamp_3,Gyro_X_3,Gyro_Y_3,Gyro_Z_3,Acc_X_3,Acc_Y_3,Acc_Z_3,Mag_X_3,Mag_Y_3,Mag_Z_3,Quat_W_3,Quat_X_3,Quat_Y_3,Quat_Z_3,Linear_Acc_X_3,Linear_Acc_Y_3,Linear_Acc_Z_3,kd_joint1,kd_joint2,kp_joint1,kp_joint2,p_des_joint1,p_des_joint2,ret0_joint1,ret0_joint2,ret1_joint1,ret1_joint2,ret2_joint1,ret2_joint2,t_ff_joint1,t_ff_joint2,v_des_joint1,v_des_joint2
2025-11-06 18:32:56.168,47.425,-0.095,-0.033,-0.168,-0.201,-0.99,0.004,13.18,-5.55,-48.93,0.8784000000000001,-0.4539,-0.11,-0.1009,0.286,0.164,-0.539,38.86,-0.062,0.28,-0.17,-0.087,-0.961,-0.149,29.37,-23.18,-73.8,0.7614000000000001,-0.6428,-0.0236,-0.0794,0.03,-0.021,-0.023,38.415,0.544,0.068,-0.458,0.02,-0.998,0.05,70.79,-13.53,-73.07000000000001,0.6709,-0.7312000000000001,0.0673,0.103,0.04,0.003,0.028,0.0,0.0,0.0,0.0,0.0,0.0,-0.0067110061645507,-0.0005750656127929,0.036630630493164,0.036630630493164,0.0036630630493164,0.0256414413452148,0.0,0.0,0.0,0.0
2025-11-06 18:32:56.168,47.515,-0.133,0.054,-0.02,-0.276,-0.982,0.034,12.62,-5.4,-52.64,0.8813000000000001,-0.4409,-0.1394,-0.0966,0.419,0.172,-0.578,38.86,-0.062,0.28,-0.17,-0.087,-0.961,-0.149,29.37,-23.18,-73.8,0.7614000000000001,-0.6428,-0.0236,-0.0794,0.03,-0.021,-0.023,38.415,0.544,0.068,-0.458,0.02,-0.998,0.05,70.79,-13.53,-73.07000000000001,0.6709,-0.7312000000000001,0.0673,0.103,0.04,0.003,0.028,0.0,0.0,0.0,0.0,0.0,0.0,-0.0067110061645507,-0.0005750656127929,0.036630630493164,0.036630630493164,0.0036630630493164,0.0256414413452148,0.0,0.0,0.0,0.0
2025-11-06 18:32:56.168,47.43,-0.286,1.545,-1.237,-0.192,-0.992,0.071,13.18,-5.55,-48.93,0.8786,-0.4526,-0.1147,-0.1,0.283,0.169,-0.606,38.86,-0.062,0.28,-0.17,-0.087,-0.961,-0.149,29.37,-23.18,-73.8,0.7614000000000001,-0.6428,-0.0236,-0.0794,0.03,-0.021,-0.023,38.415,0.544,0.068,-0.458,0.02,-0.998,0.05,70.79,-13.53,-73.07000000000001,0.6709,-0.7312000000000001,0.0673,0.103,0.04,0.003,0.028,0.0,0.0,0.0,0.0,0.0,0.0,-0.0067110061645507,-0.0005750656127929,0.036630630493164,0.036630630493164,0.0036630630493164,0.0256414413452148,0.0,0.0,0.0,0.0
2025-11-06 18:32:56.168,47.435,-1.175,5.163,-3.887,-0.189,-0.999,0.082,12.45,-5.9,-52.47,0.8792000000000001,-0.4475,-0.1301,-0.0978,0.305,0.18,-0.618,38.86,-0.062,0.28,-0.17,-0.087,-0.961,-0.149,29.37,-23.18,-73.8,0.7614000000000001,-0.6428,-0.0236,-0.0794,0.03,-0.021,-0.023,38.415,0.544,0.068,-0.458,0.02,-0.998,0.05,70.79,-13.53,-73.07000000000001,0.6709,-0.7312000000000001,0.0673,0.103,0.04,0.003,0.028,0.0,0.0,0.0,0.0,0.0,0.0,-0.0067110061645507,-0.0005750656127929,0.036630630493164,0.036630630493164,0.0036630630493164,0.0256414413452148,0.0,0.0,0.0,0.0
2025-11-06 18:32:56.168,47.44,-0.687,3.111,-2.361,-0.185,-1.003,0.093,12.45,-5.9,-52.47,0.8795000000000001,-0.4445,-0.1394,-0.0964,0.327,0.19,-0.63,38.86,-0.062,0.28,-0.17,-0.087,-0.961,-0.149,29.37,-23.18,-73.8,0.7614000000000001,-0.6428,-0.0236,-0.0794,0.03,-0.021,-0.023,38.415,0.544,0.068,-0.458,0.02,-0.998,0.05,70.79,-13.53,-73.07000000000001,0.6709,-0.7312000000000001,0.0673,0.103,0.04,0.003,0.028,0.0,0.0,0.0,0.0,0.0,0.0,-0.0067110061645507,-0.0005750656127929,0.036630630493164,0.036630630493164,0.0036630630493164,0.0256414413452148,0.0,0.0,0.0,0.0
2025-11-06 18:32:56.168,47.45,-0.153,-0.023,0.072,-0.178,-1.006,0.109,12.77,-5.8100000000000005,-52.61,0.8795000000000001,-0.4449,-0.1384,-0.0964,0.319,0.193,-0.646,38.86,-0.062,0.28,-0.17,-0.087,-0.961,-0.149,29.37,-23.18,-73.8,0.7614000000000001,-0.6428,-0.0236,-0.0794,0.03,-0.021,-0.023,38.415,0.544,0.068,-0.458,0.02,-0.998,0.05,70.79,-13.53,-73.07000000000001,0.6709,-0.7312000000000001,0.0673,0.103,0.04,0.003,0.028,0.0,0.0,0.0,0.0,0.0,0.0,-0.0067110061645507,-0.0005750656127929,0.036630630493164,0.036630630493164,0.0036630630493164,0.0256414413452148,0.0,0.0,0.0,0.0
2025-11-06 18:32:56.168,47.455,-0.224,0.053,0.026,-0.175,-1.008,0.111,12.77,-5.8100000000000005,-52.61,0.8796,-0.4445,-0.1384,-0.0965,0.316,0.195,-0.649,38.86,-0.062,0.28,-0.17,-0.087,-0.961,-0.149,29.37,-23.18,-73.8,0.7614000000000001,-0.6428,-0.0236,-0.0794,0.03,-0.021,-0.023,38.415,0.544,0.068,-0.458,0.02,-0.998,0.05,70.79,-13.53,-73.07000000000001,0.6709,-0.7312000000000001,0.0673,0.103,0.04,0.003,0.028,0.0,0.0,0.0,0.0,0.0,0.0,-0.0067110061645507,-0.0005750656127929,0.036630630493164,0.036630630493164,0.0036630630493164,0.0256414413452148,0.0,0.0,0.0,0.0
2025-11-06 18:32:56.168,47.46,-0.229,0.07,0.007,-0.174,-1.012,0.108,12.01,-5.72,-52.49,0.8798,-0.4441,-0.1384,-0.0965,0.315,0.2,-0.646,38.86,-0.062,0.28,-0.17,-0.087,-0.961,-0.149,29.37,-23.18,-73.8,0.7614000000000001,-0.6428,-0.0236,-0.0794,0.03,-0.021,-0.023,38.415,0.544,0.068,-0.458,0.02,-0.998,0.05,70.79,-13.53,-73.07000000000001,0.6709,-0.7312000000000001,0.0673,0.103,0.04,0.003,0.028,0.0,0.0,0.0,0.0,0.0,0.0,-0.0067110061645507,-0.0005750656127929,0.036630630493164,0.036630630493164,0.0036630630493164,0.0256414413452148,0.0,0.0,0.0,0.0
2025-11-06 18:32:56.168,47.51,-0.14,0.052,-0.033,-0.264,-0.99,0.034,12.62,-5.4,-52.64,0.8813000000000001,-0.4409,-0.1394,-0.0965,0.408,0.18,-0.577,38.86,-0.062,0.28,-0.17,-0.087,-0.961,-0.149,29.37,-23.18,-73.8,0.7614000000000001,-0.6428,-0.0236,-0.0794,0.03,-0.021,-0.023,38.415,0.544,0.068,-0.458,0.02,-0.998,0.05,70.79,-13.53,-73.07000000000001,0.6709,-0.7312000000000001,0.0673,0.103,0.04,0.003,0.028,0.0,0.0,0.0,0.0,0.0,0.0,-0.0067110061645507,-0.0005750656127929,0.036630630493164,0.036630630493164,0.0036630630493164,0.0256414413452148,0.0,0.0,0.0,0.0
2025-11-06 18:32:56.168,47.465,-0.227,0.076,-0.008,-0.176,-1.014,0.103,12.01,-5.72,-52.49,0.88,-0.4437,-0.1385,-0.0966,0.317,0.202,-0.641,38.86,-0.062,0.28,-0.17,-0.087,-0.961,-0.149,29.37,-23.18,-73.8,0.7614000000000001,-0.6428,-0.0236,-0.0794,0.03,-0.021,-0.023,38.415,0.544,0.068,-0.458,0.02,-0.998,0.05,70.79,-13.53,-73.07000000000001,0.6709,-0.7312000000000001,0.0673,0.103,0.04,0.003,0.028,0.0,0.0,0.0,0.0,0.0,0.0,-0.0067110061645507,-0.0005750656127929,0.036630630493164,0.036630630493164,0.0036630630493164,0.0256414413452148,0.0,0.0,0.0,0.0
2025-11-06 18:32:56.168,47.48,-0.191,0.063,-0.043,-0.198,-1.017,0.086,12.07,-5.72,-52.47,0.8806,-0.4425,-0.1389,-0.0966,0.34,0.206,-0.626,38.86,-0.062,0.28,-0.17,-0.087,-0.961,-0.149,29.37,-23.18,-73.8,0.7614000000000001,-0.6428,-0.0236,-0.0794,0.03,-0.021,-0.023,38.415,0.544,0.068,-0.458,0.02,-0.998,0.05,70.79,-13.53,-73.07000000000001,0.6709,-0.7312000000000001,0.0673,0.103,0.04,0.003,0.028,0.0,0.0,0.0,0.0,0.0,0.0,-0.0067110061645507,-0.0005750656127929,0.036630630493164,0.036630630493164,0.0036630630493164,0.0256414413452148,0.0,0.0,0.0,0.0
2025-11-06 18:32:56.168,47.485,-0.18,0.055,-0.053,-0.212,-1.015,0.076,11.66,-5.17,-52.0,0.8807,-0.4421,-0.139,-0.0966,0.354,0.205,-0.617,38.86,-0.062,0.28,-0.17,-0.087,-0.961,-0.149,29.37,-23.18,-73.8,0.7614000000000001,-0.6428,-0.0236,-0.0794,0.03,-0.021,-0.023,38.415,0.544,0.068,-0.458,0.02,-0.998,0.05,70.79,-13.53,-73.07000000000001,0.6709,-0.7312000000000001,0.0673,0.103,0.04,0.003,0.028,0.0,0.0,0.0,0.0,0.0,0.0,-0.0067110061645507,-0.0005750656127929,0.036630630493164,0.036630630493164,0.0036630630493164,0.0256414413452148,0.0,0.0,0.0,0.0
2025-11-06 18:32:56.168,47.49,-0.165,0.054,-0.055,-0.225,-1.01,0.064,11.66,-5.17,-52.0,0.8809,-0.4418,-0.1391,-0.0966,0.368,0.199,-0.606,38.86,-0.062,0.28,-0.17,-0.087,-0.961,-0.149,29.37,-23.18,-73.8,0.7614000000000001,-0.6428,-0.0236,-0.0794,0.03,-0.021,-0.023,38.415,0.544,0.068,-0.458,0.02,-0.998,0.05,70.79,-13.53,-73.07000000000001,0.6709,-0.7312000000000001,0.0673,0.103,0.04,0.003,0.028,0.0,0.0,0.0,0.0,0.0,0.0,-0.0067110061645507,-0.0005750656127929,0.036630630493164,0.036630630493164,0.0036630630493164,0.0256414413452148,0.0,0.0,0.0,0.0
2025-11-06 18:32:56.168,47.495,-0.158,0.049,-0.053,-0.235,-1.008,0.052,12.36,-5.58,-52.47,0.881,-0.4415,-0.1392,-0.0965,0.378,0.197,-0.594,38.86,-0.062,0.28,-0.17,-0.087,-0.961,-0.149,29.37,-23.18,-73.8,0.7614000000000001,-0.6428,-0.0236,-0.0794,0.03,-0.021,-0.023,38.415,0.544,0.068,-0.458,0.02,-0.998,0.05,70.79,-13.53,-73.07000000000001,0.6709,-0.7312000000000001,0.0673,0.103,0.04,0.003,0.028,0.0,0.0,0.0,0.0,0.0,0.0,-0.0067110061645507,-0.0005750656127929,0.036630630493164,0.036630630493164,0.0036630630493164,0.0256414413452148,0.0,0.0,0.0,0.0
2025-11-06 18:32:56.168,47.5,-0.151,0.048,-0.049,-0.244,-1.003,0.043,12.36,-5.58,-52.47,0.8812000000000001,-0.4413,-0.1393,-0.0965,0.388,0.193,-0.586,38.86,-0.062,0.28,-0.17,-0.087,-0.961,-0.149,29.37,-23.18,-73.8,0.7614000000000001,-0.6428,-0.0236,-0.0794,0.03,-0.021,-0.023,38.415,0.544,0.068,-0.458,0.02,-0.998,0.05,70.79,-13.53,-73.07000000000001,0.6709,-0.7312000000000001,0.0673,0.103,0.04,0.003,0.028,0.0,0.0,0.0,0.0,0.0,0.0,-0.0067110061645507,-0.0005750656127929,0.036630630493164,0.036630630493164,0.0036630630493164,0.0256414413452148,0.0,0.0,0.0,0.0
2025-11-06 18:32:56.168,47.47,-0.217,0.075,-0.02,-0.181,-1.018,0.097,12.07,-5.72,-52.47,0.8802000000000001,-0.4433,-0.1386,-0.0966,0.323,0.206,-0.636,38.86,-0.062,0.28,-0.17,-0.087,-0.961,-0.149,29.37,-23.18,-73.8,0.7614000000000001,-0.6428,-0.0236,-0.0794,0.03,-0.021,-0.023,38.415,0.544,0.068,-0.458,0.02,-0.998,0.05,70.79,-13.53,-73.07000000000001,0.6709,-0.7312000000000001,0.0673,0.103,0.04,0.003,0.028,0.0,0.0,0.0,0.0,0.0,0.0,-0.0067110061645507,-0.0005750656127929,0.036630630493164,0.036630630493164,0.0036630630493164,0.0256414413452148,0.0,0.0,0.0,0.0
2025-11-06 18:32:56.168,47.505,-0.146,0.051,-0.043,-0.254,-0.997,0.037,12.36,-5.58,-52.47,0.8812000000000001,-0.441,-0.1393,-0.0965,0.397,0.186,-0.581,38.86,-0.062,0.28,-0.17,-0.087,-0.961,-0.149,29.37,-23.18,-73.8,0.7614000000000001,-0.6428,-0.0236,-0.0794,0.03,-0.021,-0.023,38.415,0.544,0.068,-0.458,0.02,-0.998,0.05,70.79,-13.53,-73.07000000000001,0.6709,-0.7312000000000001,0.0673,0.103,0.04,0.003,0.028,0.0,0.0,0.0,0.0,0.0,0.0,-0.0067110061645507,-0.0005750656127929,0.036630630493164,0.036630630493164,0.0036630630493164,0.0256414413452148,0.0,0.0,0.0,0.0
2025-11-06 18:32:56.168,47.445,0.101,-0.267,0.208,-0.181,-1.007,0.102,12.77,-5.8100000000000005,-52.61,0.8794000000000001,-0.445,-0.1386,-0.0964,0.323,0.193,-0.639,38.86,-0.062,0.28,-0.17,-0.087,-0.961,-0.149,29.37,-23.18,-73.8,0.7614000000000001,-0.6428,-0.0236,-0.0794,0.03,-0.021,-0.023,38.415,0.544,0.068,-0.458,0.02,-0.998,0.05,70.79,-13.53,-73.07000000000001,0.6709,-0.7312000000000001,0.0673,0.103,0.04,0.003,0.028,0.0,0.0,0.0,0.0,0.0,0.0,-0.0067110061645507,-0.0005750656127929,0.036630630493164,0.036630630493164,0.0036630630493164,0.0256414413452148,0.0,0.0,0.0,0.0
2025-11-06 18:32:56.168,47.575,0.0,0.104,0.03,-0.274,-0.937,0.075,12.04,-6.05,-52.44,0.8806,-0.4415,-0.1402,-0.099,0.416,0.126,-0.619,38.86,-0.062,0.28,-0.17,-0.087,-0.961,-0.149,29.37,-23.18,-73.8,0.7614000000000001,-0.6428,-0.0236,-0.0794,0.03,-0.021,-0.023,38.415,0.544,0.068,-0.458,0.02,-0.998,0.05,70.79,-13.53,-73.07000000000001,0.6709,-0.7312000000000001,0.0673,0.103,0.04,0.003,0.028,0.0,0.0,0.0,0.0,0.0,0.0,-0.0067110061645507,-0.0005750656127929,0.036630630493164,0.036630630493164,0.0036630630493164,0.0256414413452148,0.0,0.0,0.0,0.0
2025-11-06 18:32:56.168,47.475,-0.204,0.072,-0.033,-0.188,-1.018,0.091,12.07,-5.72,-52.47,0.8804000000000001,-0.4429,-0.1387,-0.0966,0.33,0.207,-0.631,38.86,-0.062,0.28,-0.17,-0.087,-0.961,-0.149,29.37,-23.18,-73.8,0.7614000000000001,-0.6428,-0.0236,-0.0794,0.03,-0.021,-0.023,38.415,0.544,0.068,-0.458,0.02,-0.998,0.05,70.79,-13.53,-73.07000000000001,0.6709,-0.7312000000000001,0.0673,0.103,0.04,0.003,0.028,0.0,0.0,0.0,0.0,0.0,0.0,-0.0067110061645507,-0.0005750656127929,0.036630630493164,0.036630630493164,0.0036630630493164,0.0256414413452148,0.0,0.0,0.0,0.0
2025-11-06 18:32:56.168,47.57,-0.002,0.104,0.034,-0.278,-0.929,0.07,12.04,-6.05,-52.44,0.8807,-0.4414,-0.14,-0.0988,0.42,0.118,-0.614,38.86,-0.062,0.28,-0.17,-0.087,-0.961,-0.149,29.37,-23.18,-73.8,0.7614000000000001,-0.6428,-0.0236,-0.0794,0.03,-0.021,-0.023,38.415,0.544,0.068,-0.458,0.02,-0.998,0.05,70.79,-13.53,-73.07000000000001,0.6709,-0.7312000000000001,0.0673,0.103,0.04,0.003,0.028,0.0,0.0,0.0,0.0,0.0,0.0,-0.0067110061645507,-0.0005750656127929,0.036630630493164,0.036630630493164,0.0036630630493164,0.0256414413452148,0.0,0.0,0.0,0.0
2025-11-06 18:32:56.168,47.52,-0.121,0.055,-0.009,-0.284,-0.974,0.036,12.18,-5.14,-52.79,0.8812000000000001,-0.4412,-0.1392,-0.0968,0.427,0.163,-0.58,38.86,-0.062,0.28,-0.17,-0.087,-0.961,-0.149,29.37,-23.18,-73.8,0.7614000000000001,-0.6428,-0.0236,-0.0794,0.03,-0.021,-0.023,38.415,0.544,0.068,-0.458,0.02,-0.998,0.05,70.79,-13.53,-73.07000000000001,0.6709,-0.7312000000000001,0.0673,0.103,0.04,0.003,0.028,0.0,0.0,0.0,0.0,0.0,0.0,-0.0067110061645507,-0.0005750656127929,0.036630630493164,0.036630630493164,0.0036630630493164,0.0256414413452148,0.0,0.0,0.0,0.0
2025-11-06 18:32:56.168,47.53,-0.08,0.063,0.018,-0.297,-0.951,0.045,12.18,-5.14,-52.79,0.881,-0.4416,-0.1391,-0.0973,0.439,0.139,-0.589,38.86,-0.062,0.28,-0.17,-0.087,-0.961,-0.149,29.37,-23.18,-73.8,0.7614000000000001,-0.6428,-0.0236,-0.0794,0.03,-0.021,-0.023,38.415,0.544,0.068,-0.458,0.02,-0.998,0.05,70.79,-13.53,-73.07000000000001,0.6709,-0.7312000000000001,0.0673,0.103,0.04,0.003,0.028,0.0,0.0,0.0,0.0,0.0,0.0,-0.0067110061645507,-0.0005750656127929,0.036630630493164,0.036630630493164,0.0036630630493164,0.0256414413452148,0.0,0.0,0.0,0.0
2025-11-06 18:32:56.168,47.535,-0.063,0.07,0.025,-0.301,-0.94,0.049,12.21,-5.23,-53.11,0.8809,-0.4415,-0.1391,-0.0975,0.442,0.128,-0.593,38.86,-0.062,0.28,-0.17,-0.087,-0.961,-0.149,29.37,-23.18,-73.8,0.7614000000000001,-0.6428,-0.0236,-0.0794,0.03,-0.021,-0.023,38.415,0.544,0.068,-0.458,0.02,-0.998,0.05,70.79,-13.53,-73.07000000000001,0.6709,-0.7312000000000001,0.0673,0.103,0.04,0.003,0.028,0.0,0.0,0.0,0.0,0.0,0.0,-0.0067110061645507,-0.0005750656127929,0.036630630493164,0.036630630493164,0.0036630630493164,0.0256414413452148,0.0,0.0,0.0,0.0
2025-11-06 18:32:56.168,47.54,-0.048,0.071,0.032,-0.303,-0.929,0.051,12.21,-5.23,-53.11,0.8809,-0.4414,-0.1392,-0.0976,0.444,0.118,-0.596,38.86,-0.062,0.28,-0.17,-0.087,-0.961,-0.149,29.37,-23.18,-73.8,0.7614000000000001,-0.6428,-0.0236,-0.0794,0.03,-0.021,-0.023,38.415,0.544,0.068,-0.458,0.02,-0.998,0.05,70.79,-13.53,-73.07000000000001,0.6709,-0.7312000000000001,0.0673,0.103,0.04,0.003,0.028,0.0,0.0,0.0,0.0,0.0,0.0,-0.0067110061645507,-0.0005750656127929,0.036630630493164,0.036630630493164,0.0036630630493164,0.0256414413452148,0.0,0.0,0.0,0.0
2025-11-06 18:32:56.168,47.55,-0.023,0.077,0.04,-0.3,-0.915,0.054,12.24,-5.29,-52.49,0.8809,-0.4414,-0.1394,-0.098,0.441,0.104,-0.599,38.86,-0.062,0.28,-0.17,-0.087,-0.961,-0.149,29.37,-23.18,-73.8,0.7614000000000001,-0.6428,-0.0236,-0.0794,0.03,-0.021,-0.023,38.415,0.544,0.068,-0.458,0.02,-0.998,0.05,70.79,-13.53,-73.07000000000001,0.6709,-0.7312000000000001,0.0673,0.103,0.04,0.003,0.028,0.0,0.0,0.0,0.0,0.0,0.0,-0.0067110061645507,-0.0005750656127929,0.036630630493164,0.036630630493164,0.0036630630493164,0.0256414413452148,0.0,0.0,0.0,0.0
2025-11-06 18:32:56.168,47.555,-0.009,0.088,0.04,-0.294,-0.914,0.058,12.24,-5.29,-52.49,0.8809,-0.4414,-0.1395,-0.0982,0.436,0.103,-0.603,38.86,-0.062,0.28,-0.17,-0.087,-0.961,-0.149,29.37,-23.18,-73.8,0.7614000000000001,-0.6428,-0.0236,-0.0794,0.03,-0.021,-0.023,38.415,0.544,0.068,-0.458,0.02,-0.998,0.05,70.79,-13.53,-73.07000000000001,0.6709,-0.7312000000000001,0.0673,0.103,0.04,0.003,0.028,0.0,0.0,0.0,0.0,0.0,0.0,-0.0067110061645507,-0.0005750656127929,0.036630630493164,0.036630630493164,0.0036630630493164,0.0256414413452148,0.0,0.0,0.0,0.0
2025-11-06 18:32:56.168,47.56,-0.006,0.093,0.038,-0.288,-0.917,0.062,12.36,-5.55,-53.02,0.8808,-0.4414,-0.1397,-0.0984,0.429,0.107,-0.607,38.86,-0.062,0.28,-0.17,-0.087,-0.961,-0.149,29.37,-23.18,-73.8,0.7614000000000001,-0.6428,-0.0236,-0.0794,0.03,-0.021,-0.023,38.415,0.544,0.068,-0.458,0.02,-0.998,0.05,70.79,-13.53,-73.07000000000001,0.6709,-0.7312000000000001,0.0673,0.103,0.04,0.003,0.028,0.0,0.0,0.0,0.0,0.0,0.0,-0.0067110061645507,-0.0005750656127929,0.036630630493164,0.036630630493164,0.0036630630493164,0.0256414413452148,0.0,0.0,0.0,0.0
2025-11-06 18:32:56.168,47.525,-0.098,0.061,0.008,-0.293,-0.961,0.041,12.18,-5.14,-52.79,0.881,-0.4415,-0.1391,-0.0971,0.435,0.15,-0.585,38.86,-0.062,0.28,-0.17,-0.087,-0.961,-0.149,29.37,-23.18,-73.8,0.7614000000000001,-0.6428,-0.0236,-0.0794,0.03,-0.021,-0.023,38.415,0.544,0.068,-0.458,0.02,-0.998,0.05,70.79,-13.53,-73.07000000000001,0.6709,-0.7312000000000001,0.0673,0.103,0.04,0.003,0.028,0.0,0.0,0.0,0.0,0.0,0.0,-0.0067110061645507,-0.0005750656127929,0.036630630493164,0.036630630493164,0.0036630630493164,0.0256414413452148,0.0,0.0,0.0,0.0
2025-11-06 18:32:56.168,47.545,-0.033,0.073,0.038,-0.303,-0.92,0.053,12.24,-5.29,-52.49,0.8809,-0.4414,-0.1393,-0.0978,0.444,0.108,-0.598,38.86,-0.062,0.28,-0.17,-0.087,-0.961,-0.149,29.37,-23.18,-73.8,0.7614000000000001,-0.6428,-0.0236,-0.0794,0.03,-0.021,-0.023,38.415,0.544,0.068,-0.458,0.02,-0.998,0.05,70.79,-13.53,-73.07000000000001,0.6709,-0.7312000000000001,0.0673,0.103,0.04,0.003,0.028,0.0,0.0,0.0,0.0,0.0,0.0,-0.0067110061645507,-0.0005750656127929,0.036630630493164,0.036630630493164,0.0036630630493164,0.0256414413452148,0.0,0.0,0.0,0.0
2025-11-06 18:32:56.168,47.58,0.002,0.106,0.026,-0.269,-0.943,0.074,12.04,-6.05,-52.44,0.8805000000000001,-0.4416,-0.1403,-0.0992,0.411,0.132,-0.617,38.86,-0.062,0.28,-0.17,-0.087,-0.961,-0.149,29.37,-23.18,-73.8,0.7614000000000001,-0.6428,-0.0236,-0.0794,0.03,-0.021,-0.023,38.415,0.544,0.068,-0.458,0.02,-0.998,0.05,70.79,-13.53,-73.07000000000001,0.6709,-0.7312000000000001,0.0673,0.103,0.04,0.003,0.028,0.0,0.0,0.0,0.0,0.0,0.0,-0.0067110061645507,-0.0005750656127929,0.036630630493164,0.036630630493164,0.0036630630493164,0.0256414413452148,0.0,0.0,0.0,0.0
2025-11-06 18:32:56.168,47.585,0.004,0.104,0.023,-0.272,-0.948,0.074,11.83,-5.58,-52.79,0.8804000000000001,-0.4417,-0.1405,-0.0993,0.414,0.137,-0.617,38.86,-0.062,0.28,-0.17,-0.087,-0.961,-0.149,29.37,-23.18,-73.8,0.7614000000000001,-0.6428,-0.0236,-0.0794,0.03,-0.021,-0.023,38.415,0.544,0.068,-0.458,0.02,-0.998,0.05,70.79,-13.53,-73.07000000000001,0.6709,-0.7312000000000001,0.0673,0.103,0.04,0.003,0.028,0.0,0.0,0.0,0.0,0.0,0.0,-0.0067110061645507,-0.0005750656127929,0.036630630493164,0.036630630493164,0.0036630630493164,0.0256414413452148,0.0,0.0,0.0,0.0
2025-11-06 18:32:56.168,47.59,0.009,0.11,0.015,-0.272,-0.954,0.071,11.83,-5.58,-52.79,0.8803000000000001,-0.4419,-0.1406,-0.0994,0.414,0.143,-0.614,38.86,-0.062,0.28,-0.17,-0.087,-0.961,-0.149,29.37,-23.18,-73.8,0.7614000000000001,-0.6428,-0.0236,-0.0794,0.03,-0.021,-0.023,38.415,0.544,0.068,-0.458,0.02,-0.998,0.05,70.79,-13.53,-73.07000000000001,0.6709,-0.7312000000000001,0.0673,0.103,0.04,0.003,0.028,0.0,0.0,0.0,0.0,0.0,0.0,-0.0067110061645507,-0.0005750656127929,0.036630630493164,0.036630630493164,0.0036630630493164,0.0256414413452148,0.0,0.0,0.0,0.0
2025-11-06 18:32:56.168,47.595,0.015,0.115,0.011,-0.272,-0.959,0.069,11.83,-5.58,-52.96,0.8801,-0.4423,-0.1407,-0.0995,0.415,0.147,-0.61,38.86,-0.062,0.28,-0.17,-0.087,-0.961,-0.149,29.37,-23.18,-73.8,0.7614000000000001,-0.6428,-0.0236,-0.0794,0.03,-0.021,-0.023,38.415,0.544,0.068,-0.458,0.02,-0.998,0.05,70.79,-13.53,-73.07000000000001,0.6709,-0.7312000000000001,0.0673,0.103,0.04,0.003,0.028,0.0,0.0,0.0,0.0,0.0,0.0,-0.0067110061645507,-0.0005750656127929,0.036630630493164,0.036630630493164,0.0036630630493164,0.0256414413452148,0.0,0.0,0.0,0.0
2025-11-06 18:32:56.168,47.6,0.022,0.121,0.006,-0.274,-0.963,0.066,12.24,-5.93,-52.96,0.8797,-0.4429,-0.1407,-0.0996,0.416,0.15,-0.606,38.86,-0.062,0.28,-0.17,-0.087,-0.961,-0.149,29.37,-23.18,-73.8,0.7614000000000001,-0.6428,-0.0236,-0.0794,0.03,-0.021,-0.023,38.415,0.544,0.068,-0.458,0.02,-0.998,0.05,70.79,-13.53,-73.07000000000001,0.6709,-0.7312000000000001,0.0673,0.103,0.04,0.003,0.028,0.0,0.0,0.0,0.0,0.0,0.0,-0.0067110061645507,-0.0005750656127929,0.036630630493164,0.036630630493164,0.0036630630493164,0.0256414413452148,0.0,0.0,0.0,0.0
2025-11-06 18:32:56.168,47.605,0.031,0.13,-0.002,-0.279,-0.968,0.061,12.24,-5.93,-52.96,0.8793000000000001,-0.4438,-0.1407,-0.0997,0.421,0.154,-0.6,38.86,-0.062,0.28,-0.17,-0.087,-0.961,-0.149,29.37,-23.18,-73.8,0.7614000000000001,-0.6428,-0.0236,-0.0794,0.03,-0.021,-0.023,38.415,0.544,0.068,-0.458,0.02,-0.998,0.05,70.79,-13.53,-73.07000000000001,0.6709,-0.7312000000000001,0.0673,0.103,0.04,0.003,0.028,0.0,0.0,0.0,0.0,0.0,0.0,-0.0067110061645507,-0.0005750656127929,0.036630630493164,0.036630630493164,0.0036630630493164,0.0256414413452148,0.0,0.0,0.0,0.0
2025-11-06 18:32:56.168,47.565,-0.003,0.101,0.038,-0.284,-0.924,0.066,12.36,-5.55,-53.02,0.8808,-0.4414,-0.1398,-0.0986,0.426,0.113,-0.611,38.86,-0.062,0.28,-0.17,-0.087,-0.961,-0.149,29.37,-23.18,-73.8,0.7614000000000001,-0.6428,-0.0236,-0.0794,0.03,-0.021,-0.023,38.415,0.544,0.068,-0.458,0.02,-0.998,0.05,70.79,-13.53,-73.07000000000001,0.6709,-0.7312000000000001,0.0673,0.103,0.04,0.003,0.028,0.0,0.0,0.0,0.0,0.0,0.0,-0.0067110061645507,-0.0005750656127929,0.036630630493164,0.036630630493164,0.0036630630493164,0.0256414413452148,0.0,0.0,0.0,0.0
2025-11-06 18:32:56.168,47.61,0.041,0.137,-0.009,-0.284,-0.971,0.056,11.69,-5.78,-52.67,0.8789,-0.4445,-0.1407,-0.0999,0.425,0.155,-0.593,38.86,-0.062,0.28,-0.17,-0.087,-0.961,-0.149,29.37,-23.18,-73.8,0.7614000000000001,-0.6428,-0.0236,-0.0794,0.03,-0.021,-0.023,38.415,0.544,0.068,-0.458,0.02,-0.998,0.05,70.79,-13.53,-73.07000000000001,0.6709,-0.7312000000000001,0.0673,0.103,0.04,0.003,0.028,0.0,0.0,0.0,0.0,0.0,0.0,-0.0067110061645507,-0.0005750656127929,0.036630630493164,0.036630630493164,0.0036630630493164,0.0256414413452148,0.0,0.0,0.0,0.0
2025-11-06 18:32:56.169,47.62,0.05,0.145,-0.016,-0.296,-0.97,0.046,11.69,-5.78,-52.67,0.8782000000000001,-0.4458,-0.1409,-0.1003,0.437,0.153,-0.582,38.86,-0.062,0.28,-0.17,-0.087,-0.961,-0.149,29.37,-23.18,-73.8,0.7614000000000001,-0.6428,-0.0236,-0.0794,0.03,-0.021,-0.023,38.415,0.544,0.068,-0.458,0.02,-0.998,0.05,70.79,-13.53,-73.07000000000001,0.6709,-0.7312000000000001,0.0673,0.103,0.04,0.003,0.028,0.0,0.0,0.0,0.0,0.0,0.0,-0.0067110061645507,-0.0005750656127929,0.036630630493164,0.036630630493164,0.0036630630493164,0.0256414413452148,0.0,0.0,0.0,0.0
2025-11-06 18:32:56.169,47.66,0.059,0.129,0.013,-0.31,-0.951,0.052,11.6,-5.84,-52.79,0.8754000000000001,-0.4505,-0.1413,-0.1029,0.447,0.127,-0.579,38.86,-0.062,0.28,-0.17,-0.087,-0.961,-0.149,29.37,-23.18,-73.8,0.7614000000000001,-0.6428,-0.0236,-0.0794,0.03,-0.021,-0.023,38.415,0.544,0.068,-0.458,0.02,-0.998,0.05,70.79,-13.53,-73.07000000000001,0.6709,-0.7312000000000001,0.0673,0.103,0.04,0.003,0.028,0.0,0.0,0.0,0.0,0.0,0.0,-0.0067110061645507,-0.0005750656127929,0.036630630493164,0.036630630493164,0.0036630630493164,0.0256414413452148,0.0,0.0,0.0,0.0
2025-11-06 18:32:56.169,47.655,0.056,0.122,0.01,-0.311,-0.955,0.049,11.25,-5.96,-53.34,0.8756,-0.4501,-0.1412,-0.1026,0.449,0.131,-0.577,38.86,-0.062,0.28,-0.17,-0.087,-0.961,-0.149,29.37,-23.18,-73.8,0.7614000000000001,-0.6428,-0.0236,-0.0794,0.03,-0.021,-0.023,38.415,0.544,0.068,-0.458,0.02,-0.998,0.05,70.79,-13.53,-73.07000000000001,0.6709,-0.7312000000000001,0.0673,0.103,0.04,0.003,0.028,0.0,0.0,0.0,0.0,0.0,0.0,-0.0067110061645507,-0.0005750656127929,0.036630630493164,0.036630630493164,0.0036630630493164,0.0256414413452148,0.0,0.0,0.0,0.0
2025-11-06 18:32:56.169,47.735,0.189,0.2,0.006,-0.281,-0.976,0.072,12.1,-5.55,-52.2,0.8705,-0.4577,-0.1457,-0.1063,0.42,0.142,-0.583,38.86,-0.062,0.28,-0.17,-0.087,-0.961,-0.149,29.37,-23.18,-73.8,0.7614000000000001,-0.6428,-0.0236,-0.0794,0.03,-0.021,-0.023,38.415,0.544,0.068,-0.458,0.02,-0.998,0.05,70.79,-13.53,-73.07000000000001,0.6709,-0.7312000000000001,0.0673,0.103,0.04,0.003,0.028,0.0,0.0,0.0,0.0,0.0,0.0,-0.0067110061645507,-0.0005750656127929,0.036630630493164,0.036630630493164,0.0036630630493164,0.0256414413452148,0.0,0.0,0.0,0.0
2025-11-06 18:32:56.169,47.645,0.051,0.118,0.001,-0.31,-0.958,0.046,11.66,-6.05,-53.2,0.8763000000000001,-0.449,-0.1411,-0.1019,0.449,0.136,-0.5760000000000001,38.86,-0.062,0.28,-0.17,-0.087,-0.961,-0.149,29.37,-23.18,-73.8,0.7614000000000001,-0.6428,-0.0236,-0.0794,0.03,-0.021,-0.023,38.415,0.544,0.068,-0.458,0.02,-0.998,0.05,70.79,-13.53,-73.07000000000001,0.6709,-0.7312000000000001,0.0673,0.103,0.04,0.003,0.028,0.0,0.0,0.0,0.0,0.0,0.0,-0.0067110061645507,-0.0005750656127929,0.036630630493164,0.036630630493164,0.0036630630493164,0.0256414413452148,0.0,0.0,0.0,0.0
2025-11-06 18:32:56.169,47.63,0.05,0.137,-0.013,-0.304,-0.971,0.042,11.69,-5.93,-52.7,0.8775000000000001,-0.4469,-0.1412,-0.1008,0.444,0.152,-0.5750000000000001,38.86,-0.062,0.28,-0.17,-0.087,-0.961,-0.149,29.37,-23.18,-73.8,0.7614000000000001,-0.6428,-0.0236,-0.0794,0.03,-0.021,-0.023,38.415,0.544,0.068,-0.458,0.02,-0.998,0.05,70.79,-13.53,-73.07000000000001,0.6709,-0.7312000000000001,0.0673,0.103,0.04,0.003,0.028,0.0,0.0,0.0,0.0,0.0,0.0,-0.0067110061645507,-0.0005750656127929,0.036630630493164,0.036630630493164,0.0036630630493164,0.0256414413452148,0.0,0.0,0.0,0.0
2025-11-06 18:32:56.169,47.635,0.05,0.128,-0.011,-0.308,-0.966,0.041,11.66,-6.05,-53.2,0.8772000000000001,-0.4475,-0.1412,-0.1012,0.448,0.146,-0.5740000000000001,38.86,-0.062,0.28,-0.17,-0.087,-0.961,-0.149,29.37,-23.18,-73.8,0.7614000000000001,-0.6428,-0.0236,-0.0794,0.03,-0.021,-0.023,38.415,0.544,0.068,-0.458,0.02,-0.998,0.05,70.79,-13.53,-73.07000000000001,0.6709,-0.7312000000000001,0.0673,0.103,0.04,0.003,0.028,0.0,0.0,0.0,0.0,0.0,0.0,-0.0067110061645507,-0.0005750656127929,0.036630630493164,0.036630630493164,0.0036630630493164,0.0256414413452148,0.0,0.0,0.0,0.0
2025-11-06 18:32:56.169,47.625,0.051,0.143,-0.015,-0.3,-0.969,0.043,11.69,-5.93,-52.7,0.8778,-0.4464,-0.141,-0.1006,0.441,0.151,-0.577,38.86,-0.062,0.28,-0.17,-0.087,-0.961,-0.149,29.37,-23.18,-73.8,0.7614000000000001,-0.6428,-0.0236,-0.0794,0.03,-0.021,-0.023,38.415,0.544,0.068,-0.458,0.02,-0.998,0.05,70.79,-13.53,-73.07000000000001,0.6709,-0.7312000000000001,0.0673,0.103,0.04,0.003,0.028,0.0,0.0,0.0,0.0,0.0,0.0,-0.0067110061645507,-0.0005750656127929,0.036630630493164,0.036630630493164,0.0036630630493164,0.0256414413452148,0.0,0.0,0.0,0.0
2025-11-06 18:32:56.169,47.67,0.067,0.141,0.021,-0.303,-0.945,0.059,11.6,-5.84,-52.79,0.875,-0.4511,-0.1417,-0.1033,0.44,0.12,-0.585,38.86,-0.062,0.28,-0.17,-0.087,-0.961,-0.149,29.37,-23.18,-73.8,0.7614000000000001,-0.6428,-0.0236,-0.0794,0.03,-0.021,-0.023,38.415,0.544,0.068,-0.458,0.02,-0.998,0.05,70.79,-13.53,-73.07000000000001,0.6709,-0.7312000000000001,0.0673,0.103,0.04,0.003,0.028,0.0,0.0,0.0,0.0,0.0,0.0,-0.0067110061645507,-0.0005750656127929,0.036630630493164,0.036630630493164,0.0036630630493164,0.0256414413452148,0.0,0.0,0.0,0.0
2025-11-06 18:32:56.169,47.64,0.049,0.118,-0.005,-0.31,-0.961,0.045,11.66,-6.05,-53.2,0.8767,-0.4483,-0.1411,-0.1016,0.449,0.14,-0.5760000000000001,38.86,-0.062,0.28,-0.17,-0.087,-0.961,-0.149,29.37,-23.18,-73.8,0.7614000000000001,-0.6428,-0.0236,-0.0794,0.03,-0.021,-0.023,38.415,0.544,0.068,-0.458,0.02,-0.998,0.05,70.79,-13.53,-73.07000000000001,0.6709,-0.7312000000000001,0.0673,0.103,0.04,0.003,0.028,0.0,0.0,0.0,0.0,0.0,0.0,-0.0067110061645507,-0.0005750656127929,0.036630630493164,0.036630630493164,0.0036630630493164,0.0256414413452148,0.0,0.0,0.0,0.0
2025-11-06 18:32:56.169,47.65,0.051,0.118,0.004,-0.311,-0.954,0.049,11.25,-5.96,-53.34,0.876,-0.4496,-0.1412,-0.1023,0.449,0.132,-0.577,38.86,-0.062,0.28,-0.17,-0.087,-0.961,-0.149,29.37,-23.18,-73.8,0.7614000000000001,-0.6428,-0.0236,-0.0794,0.03,-0.021,-0.023,38.415,0.544,0.068,-0.458,0.02,-0.998,0.05,70.79,-13.53,-73.07000000000001,0.6709,-0.7312000000000001,0.0673,0.103,0.04,0.003,0.028,0.0,0.0,0.0,0.0,0.0,0.0,-0.0067110061645507,-0.0005750656127929,0.036630630493164,0.036630630493164,0.0036630630493164,0.0256414413452148,0.0,0.0,0.0,0.0
2025-11-06 18:32:56.169,47.715,0.17,0.189,0.013,-0.293,-0.966,0.045,11.86,-5.78,-52.76,0.8722000000000001,-0.455,-0.1444,-0.1055,0.431,0.136,-0.562,38.86,-0.062,0.28,-0.17,-0.087,-0.961,-0.149,29.37,-23.18,-73.8,0.7614000000000001,-0.6428,-0.0236,-0.0794,0.03,-0.021,-0.023,38.415,0.544,0.068,-0.458,0.02,-0.998,0.05,70.79,-13.53,-73.07000000000001,0.6709,-0.7312000000000001,0.0673,0.103,0.04,0.003,0.028,0.0,0.0,0.0,0.0,0.0,0.0,-0.0067110061645507,-0.0005750656127929,0.036630630493164,0.036630630493164,0.0036630630493164,0.0256414413452148,0.0,0.0,0.0,0.0
2025-11-06 18:32:56.169,47.68,0.089,0.148,0.026,-0.294,-0.938,0.058,11.95,-6.25,-53.05,0.8746,-0.4516,-0.1423,-0.1038,0.432,0.113,-0.582,38.86,-0.062,0.28,-0.17,-0.087,-0.961,-0.149,29.37,-23.18,-73.8,0.7614000000000001,-0.6428,-0.0236,-0.0794,0.03,-0.021,-0.023,38.415,0.544,0.068,-0.458,0.02,-0.998,0.05,70.79,-13.53,-73.07000000000001,0.6709,-0.7312000000000001,0.0673,0.103,0.04,0.003,0.028,0.0,0.0,0.0,0.0,0.0,0.0,-0.0067110061645507,-0.0005750656127929,0.036630630493164,0.036630630493164,0.0036630630493164,0.0256414413452148,0.0,0.0,0.0,0.0
2025-11-06 18:32:56.169,47.685,0.103,0.16,0.027,-0.292,-0.94,0.056,11.57,-5.72,-52.73,0.8743000000000001,-0.4519,-0.1426,-0.104,0.429,0.115,-0.58,38.86,-0.062,0.28,-0.17,-0.087,-0.961,-0.149,29.37,-23.18,-73.8,0.7614000000000001,-0.6428,-0.0236,-0.0794,0.03,-0.021,-0.023,38.415,0.544,0.068,-0.458,0.02,-0.998,0.05,70.79,-13.53,-73.07000000000001,0.6709,-0.7312000000000001,0.0673,0.103,0.04,0.003,0.028,0.0,0.0,0.0,0.0,0.0,0.0,-0.0067110061645507,-0.0005750656127929,0.036630630493164,0.036630630493164,0.0036630630493164,0.0256414413452148,0.0,0.0,0.0,0.0
2025-11-06 18:32:56.169,47.69,0.12,0.169,0.026,-0.291,-0.941,0.052,11.57,-5.72,-52.73,0.8741,-0.4523,-0.1429,-0.1042,0.429,0.115,-0.5750000000000001,38.86,-0.062,0.28,-0.17,-0.087,-0.961,-0.149,29.37,-23.18,-73.8,0.7614000000000001,-0.6428,-0.0236,-0.0794,0.03,-0.021,-0.023,38.415,0.544,0.068,-0.458,0.02,-0.998,0.05,70.79,-13.53,-73.07000000000001,0.6709,-0.7312000000000001,0.0673,0.103,0.04,0.003,0.028,0.0,0.0,0.0,0.0,0.0,0.0,-0.0067110061645507,-0.0005750656127929,0.036630630493164,0.036630630493164,0.0036630630493164,0.0256414413452148,0.0,0.0,0.0,0.0
2025-11-06 18:32:56.169,47.695,0.141,0.178,0.022,-0.292,-0.947,0.048,11.57,-5.72,-52.73,0.8738,-0.4527,-0.1432,-0.1044,0.431,0.12,-0.5700000000000001,38.86,-0.062,0.28,-0.17,-0.087,-0.961,-0.149,29.37,-23.18,-73.8,0.7614000000000001,-0.6428,-0.0236,-0.0794,0.03,-0.021,-0.023,38.415,0.544,0.068,-0.458,0.02,-0.998,0.05,70.79,-13.53,-73.07000000000001,0.6709,-0.7312000000000001,0.0673,0.103,0.04,0.003,0.028,0.0,0.0,0.0,0.0,0.0,0.0,-0.0067110061645507,-0.0005750656127929,0.036630630493164,0.036630630493164,0.0036630630493164,0.0256414413452148,0.0,0.0,0.0,0.0
2025-11-06 18:32:56.169,47.7,0.151,0.185,0.019,-0.294,-0.954,0.045,12.33,-5.93,-52.67,0.8735,-0.4532,-0.1436,-0.1047,0.432,0.126,-0.5660000000000001,38.86,-0.062,0.28,-0.17,-0.087,-0.961,-0.149,29.37,-23.18,-73.8,0.7614000000000001,-0.6428,-0.0236,-0.0794,0.03,-0.021,-0.023,38.415,0.544,0.068,-0.458,0.02,-0.998,0.05,70.79,-13.53,-73.07000000000001,0.6709,-0.7312000000000001,0.0673,0.103,0.04,0.003,0.028,0.0,0.0,0.0,0.0,0.0,0.0,-0.0067110061645507,-0.0005750656127929,0.036630630493164,0.036630630493164,0.0036630630493164,0.0256414413452148,0.0,0.0,0.0,0.0
2025-11-06 18:32:56.169,47.705,0.156,0.187,0.016,-0.295,-0.959,0.043,12.33,-5.93,-52.67,0.8731,-0.4538,-0.1439,-0.105,0.433,0.131,-0.5630000000000001,38.86,-0.062,0.28,-0.17,-0.087,-0.961,-0.149,29.37,-23.18,-73.8,0.7614000000000001,-0.6428,-0.0236,-0.0794,0.03,-0.021,-0.023,38.415,0.544,0.068,-0.458,0.02,-0.998,0.05,70.79,-13.53,-73.07000000000001,0.6709,-0.7312000000000001,0.0673,0.103,0.04,0.003,0.028,0.0,0.0,0.0,0.0,0.0,0.0,-0.0067110061645507,-0.0005750656127929,0.036630630493164,0.036630630493164,0.0036630630493164,0.0256414413452148,0.0,0.0,0.0,0.0
2025-11-06 18:32:56.169,47.71,0.166,0.186,0.015,-0.294,-0.961,0.041,11.86,-5.78,-52.76,0.8727,-0.4544,-0.1442,-0.1052,0.432,0.132,-0.559,38.86,-0.062,0.28,-0.17,-0.087,-0.961,-0.149,29.37,-23.18,-73.8,0.7614000000000001,-0.6428,-0.0236,-0.0794,0.03,-0.021,-0.023,38.415,0.544,0.068,-0.458,0.02,-0.998,0.05,70.79,-13.53,-73.07000000000001,0.6709,-0.7312000000000001,0.0673,0.103,0.04,0.003,0.028,0.0,0.0,0.0,0.0,0.0,0.0,-0.0067110061645507,-0.0005750656127929,0.036630630493164,0.036630630493164,0.0036630630493164,0.0256414413452148,0.0,0.0,0.0,0.0
2025-11-06 18:32:56.169,47.72,0.176,0.186,0.013,-0.29,-0.968,0.05,11.86,-5.78,-52.76,0.8718,-0.4557,-0.1447,-0.1057,0.428,0.137,-0.5650000000000001,38.86,-0.062,0.28,-0.17,-0.087,-0.961,-0.149,29.37,-23.18,-73.8,0.7614000000000001,-0.6428,-0.0236,-0.0794,0.03,-0.021,-0.023,38.415,0.544,0.068,-0.458,0.02,-0.998,0.05,70.79,-13.53,-73.07000000000001,0.6709,-0.7312000000000001,0.0673,0.103,0.04,0.003,0.028,0.0,0.0,0.0,0.0,0.0,0.0,-0.0067110061645507,-0.0005750656127929,0.036630630493164,0.036630630493164,0.0036630630493164,0.0256414413452148,0.0,0.0,0.0,0.0
2025-11-06 18:32:56.169,47.675,0.076,0.145,0.024,-0.297,-0.941,0.058,11.95,-6.25,-53.05,0.8748,-0.4514,-0.142,-0.1035,0.434,0.116,-0.583,38.86,-0.062,0.28,-0.17,-0.087,-0.961,-0.149,29.37,-23.18,-73.8,0.7614000000000001,-0.6428,-0.0236,-0.0794,0.03,-0.021,-0.023,38.415,0.544,0.068,-0.458,0.02,-0.998,0.05,70.79,-13.53,-73.07000000000001,0.6709,-0.7312000000000001,0.0673,0.103,0.04,0.003,0.028,0.0,0.0,0.0,0.0,0.0,0.0,-0.0067110061645507,-0.0005750656127929,0.036630630493164,0.036630630493164,0.0036630630493164,0.0256414413452148,0.0,0.0,0.0,0.0
2025-11-06 18:32:56.169,47.615,0.046,0.143,-0.013,-0.291,-0.97,0.052,11.69,-5.78,-52.67,0.8785000000000001,-0.4452,-0.1408,-0.1001,0.432,0.153,-0.588,38.86,-0.062,0.28,-0.17,-0.087,-0.961,-0.149,29.37,-23.18,-73.8,0.7614000000000001,-0.6428,-0.0236,-0.0794,0.03,-0.021,-0.023,38.415,0.544,0.068,-0.458,0.02,-0.998,0.05,70.79,-13.53,-73.07000000000001,0.6709,-0.7312000000000001,0.0673,0.103,0.04,0.003,0.028,0.0,0.0,0.0,0.0,0.0,0.0,-0.0067110061645507,-0.0005750656127929,0.036630630493164,0.036630630493164,0.0036630630493164,0.0256414413452148,0.0,0.0,0.0,0.0
2025-11-06 18:32:56.169,47.725,0.187,0.19,0.01,-0.286,-0.974,0.058,12.24,-6.0200000000000005,-52.32,0.8714000000000001,-0.4564,-0.145,-0.1059,0.425,0.142,-0.5710000000000001,38.86,-0.062,0.28,-0.17,-0.087,-0.961,-0.149,29.37,-23.18,-73.8,0.7614000000000001,-0.6428,-0.0236,-0.0794,0.03,-0.021,-0.023,38.415,0.544,0.068,-0.458,0.02,-0.998,0.05,70.79,-13.53,-73.07000000000001,0.6709,-0.7312000000000001,0.0673,0.103,0.04,0.003,0.028,0.0,0.0,0.0,0.0,0.0,0.0,-0.0067110061645507,-0.0005750656127929,0.036630630493164,0.036630630493164,0.0036630630493164,0.0256414413452148,0.0,0.0,0.0,0.0
2025-11-06 18:32:56.169,47.73,0.188,0.195,0.008,-0.283,-0.975,0.063,12.24,-6.0200000000000005,-52.32,0.8709,-0.4571,-0.1454,-0.1061,0.422,0.143,-0.5760000000000001,38.86,-0.062,0.28,-0.17,-0.087,-0.961,-0.149,29.37,-23.18,-73.8,0.7614000000000001,-0.6428,-0.0236,-0.0794,0.03,-0.021,-0.023,38.415,0.544,0.068,-0.458,0.02,-0.998,0.05,70.79,-13.53,-73.07000000000001,0.6709,-0.7312000000000001,0.0673,0.103,0.04,0.003,0.028,0.0,0.0,0.0,0.0,0.0,0.0,-0.0067110061645507,-0.0005750656127929,0.036630630493164,0.036630630493164,0.0036630630493164,0.0256414413452148,0.0,0.0,0.0,0.0
2025-11-06 18:32:56.169,47.8,0.086,0.163,0.025,-0.281,-0.963,0.072,11.86,-5.96,-52.32,0.8654000000000001,-0.4657,-0.1489,-0.1086,0.42,0.119,-0.5660000000000001,38.86,-0.062,0.28,-0.17,-0.087,-0.961,-0.149,29.37,-23.18,-73.8,0.7614000000000001,-0.6428,-0.0236,-0.0794,0.03,-0.021,-0.023,38.415,0.544,0.068,-0.458,0.02,-0.998,0.05,70.79,-13.53,-73.07000000000001,0.6709,-0.7312000000000001,0.0673,0.103,0.04,0.003,0.028,0.0,0.0,0.0,0.0,0.0,0.0,-0.0067110061645507,-0.0005750656127929,0.036630630493164,0.036630630493164,0.0036630630493164,0.0256414413452148,0.0,0.0,0.0,0.0
2025-11-06 18:32:56.169,47.74,0.186,0.206,0.004,-0.281,-0.975,0.073,12.1,-5.55,-52.2,0.8701000000000001,-0.4584,-0.1461,-0.1064,0.42,0.141,-0.583,38.86,-0.062,0.28,-0.17,-0.087,-0.961,-0.149,29.37,-23.18,-73.8,0.7614000000000001,-0.6428,-0.0236,-0.0794,0.03,-0.021,-0.023,38.415,0.544,0.068,-0.458,0.02,-0.998,0.05,70.79,-13.53,-73.07000000000001,0.6709,-0.7312000000000001,0.0673,0.103,0.04,0.003,0.028,0.0,0.0,0.0,0.0,0.0,0.0,-0.0067110061645507,-0.0005750656127929,0.036630630493164,0.036630630493164,0.0036630630493164,0.0256414413452148,0.0,0.0,0.0,0.0
2025-11-06 18:32:56.169,47.75,0.167,0.204,0.0,-0.277,-0.976,0.071,12.3,-6.72,-51.79,0.8693000000000001,-0.4596,-0.1468,-0.1068,0.417,0.14,-0.578,38.86,-0.062,0.28,-0.17,-0.087,-0.961,-0.149,29.37,-23.18,-73.8,0.7614000000000001,-0.6428,-0.0236,-0.0794,0.03,-0.021,-0.023,38.415,0.544,0.068,-0.458,0.02,-0.998,0.05,70.79,-13.53,-73.07000000000001,0.6709,-0.7312000000000001,0.0673,0.103,0.04,0.003,0.028,0.0,0.0,0.0,0.0,0.0,0.0,-0.0067110061645507,-0.0005750656127929,0.036630630493164,0.036630630493164,0.0036630630493164,0.0256414413452148,0.0,0.0,0.0,0.0
2025-11-06 18:32:56.169,47.79,0.11,0.155,0.02,-0.278,-0.96,0.064,11.89,-5.61,-51.18,0.8661000000000001,-0.4647,-0.1486,-0.1081,0.417,0.117,-0.561,38.86,-0.062,0.28,-0.17,-0.087,-0.961,-0.149,29.37,-23.18,-73.8,0.7614000000000001,-0.6428,-0.0236,-0.0794,0.03,-0.021,-0.023,38.415,0.544,0.068,-0.458,0.02,-0.998,0.05,70.79,-13.53,-73.07000000000001,0.6709,-0.7312000000000001,0.0673,0.103,0.04,0.003,0.028,0.0,0.0,0.0,0.0,0.0,0.0,-0.0067110061645507,-0.0005750656127929,0.036630630493164,0.036630630493164,0.0036630630493164,0.0256414413452148,0.0,0.0,0.0,0.0
2025-11-06 18:32:56.169,47.785,0.125,0.154,0.015,-0.276,-0.962,0.064,11.89,-5.61,-51.18,0.8664000000000001,-0.4642,-0.1484,-0.1079,0.415,0.12,-0.561,38.86,-0.062,0.28,-0.17,-0.087,-0.961,-0.149,29.37,-23.18,-73.8,0.7614000000000001,-0.6428,-0.0236,-0.0794,0.03,-0.021,-0.023,38.415,0.544,0.068,-0.458,0.02,-0.998,0.05,70.79,-13.53,-73.07000000000001,0.6709,-0.7312000000000001,0.0673,0.103,0.04,0.003,0.028,0.0,0.0,0.0,0.0,0.0,0.0,-0.0067110061645507,-0.0005750656127929,0.036630630493164,0.036630630493164,0.0036630630493164,0.0256414413452148,0.0,0.0,0.0,0.0
2025-11-06 18:32:56.169,47.78,0.133,0.154,0.01,-0.274,-0.963,0.063,12.56,-6.05,-51.76,0.8668,-0.4636,-0.1482,-0.1077,0.414,0.122,-0.562,38.86,-0.062,0.28,-0.17,-0.087,-0.961,-0.149,29.37,-23.18,-73.8,0.7614000000000001,-0.6428,-0.0236,-0.0794,0.03,-0.021,-0.023,38.415,0.544,0.068,-0.458,0.02,-0.998,0.05,70.79,-13.53,-73.07000000000001,0.6709,-0.7312000000000001,0.0673,0.103,0.04,0.003,0.028,0.0,0.0,0.0,0.0,0.0,0.0,-0.0067110061645507,-0.0005750656127929,0.036630630493164,0.036630630493164,0.0036630630493164,0.0256414413452148,0.0,0.0,0.0,0.0
2025-11-06 18:32:56.169,47.775,0.138,0.152,0.006,-0.272,-0.968,0.061,12.56,-6.05,-51.76,0.8672000000000001,-0.463,-0.1479,-0.1075,0.412,0.128,-0.561,38.86,-0.062,0.28,-0.17,-0.087,-0.961,-0.149,29.37,-23.18,-73.8,0.7614000000000001,-0.6428,-0.0236,-0.0794,0.03,-0.021,-0.023,38.415,0.544,0.068,-0.458,0.02,-0.998,0.05,70.79,-13.53,-73.07000000000001,0.6709,-0.7312000000000001,0.0673,0.103,0.04,0.003,0.028,0.0,0.0,0.0,0.0,0.0,0.0,-0.0067110061645507,-0.0005750656127929,0.036630630493164,0.036630630493164,0.0036630630493164,0.0256414413452148,0.0,0.0,0.0,0.0
2025-11-06 18:32:56.169,47.76,0.149,0.172,-0.002,-0.275,-0.972,0.06,12.07,-5.61,-51.88,0.8684000000000001,-0.4609,-0.1474,-0.1071,0.415,0.134,-0.5640000000000001,38.86,-0.062,0.28,-0.17,-0.087,-0.961,-0.149,29.37,-23.18,-73.8,0.7614000000000001,-0.6428,-0.0236,-0.0794,0.03,-0.021,-0.023,38.415,0.544,0.068,-0.458,0.02,-0.998,0.05,70.79,-13.53,-73.07000000000001,0.6709,-0.7312000000000001,0.0673,0.103,0.04,0.003,0.028,0.0,0.0,0.0,0.0,0.0,0.0,-0.0067110061645507,-0.0005750656127929,0.036630630493164,0.036630630493164,0.0036630630493164,0.0256414413452148,0.0,0.0,0.0,0.0
2025-11-06 18:32:56.169,47.765,0.142,0.159,0.001,-0.273,-0.971,0.059,12.07,-5.61,-51.88,0.868,-0.4616,-0.1476,-0.1072,0.413,0.132,-0.562,38.86,-0.062,0.28,-0.17,-0.087,-0.961,-0.149,29.37,-23.18,-73.8,0.7614000000000001,-0.6428,-0.0236,-0.0794,0.03,-0.021,-0.023,38.415,0.544,0.068,-0.458,0.02,-0.998,0.05,70.79,-13.53,-73.07000000000001,0.6709,-0.7312000000000001,0.0673,0.103,0.04,0.003,0.028,0.0,0.0,0.0,0.0,0.0,0.0,-0.0067110061645507,-0.0005750656127929,0.036630630493164,0.036630630493164,0.0036630630493164,0.0256414413452148,0.0,0.0,0.0,0.0
2025-11-06 18:32:56.169,47.665,0.059,0.131,0.018,-0.308,-0.947,0.056,11.6,-5.84,-52.79,0.8752000000000001,-0.4509,-0.1415,-0.1031,0.445,0.123,-0.583,38.86,-0.062,0.28,-0.17,-0.087,-0.961,-0.149,29.37,-23.18,-73.8,0.7614000000000001,-0.6428,-0.0236,-0.0794,0.03,-0.021,-0.023,38.415,0.544,0.068,-0.458,0.02,-0.998,0.05,70.79,-13.53,-73.07000000000001,0.6709,-0.7312000000000001,0.0673,0.103,0.04,0.003,0.028,0.0,0.0,0.0,0.0,0.0,0.0,-0.0067110061645507,-0.0005750656127929,0.036630630493164,0.036630630493164,0.0036630630493164,0.0256414413452148,0.0,0.0,0.0,0.0
2025-11-06 18:32:56.169,47.795,0.095,0.153,0.025,-0.28,-0.96,0.065,11.89,-5.61,-51.18,0.8658,-0.4652,-0.1488,-0.1083,0.419,0.117,-0.561,38.86,-0.062,0.28,-0.17,-0.087,-0.961,-0.149,29.37,-23.18,-73.8,0.7614000000000001,-0.6428,-0.0236,-0.0794,0.03,-0.021,-0.023,38.415,0.544,0.068,-0.458,0.02,-0.998,0.05,70.79,-13.53,-73.07000000000001,0.6709,-0.7312000000000001,0.0673,0.103,0.04,0.003,0.028,0.0,0.0,0.0,0.0,0.0,0.0,-0.0067110061645507,-0.0005750656127929,0.036630630493164,0.036630630493164,0.0036630630493164,0.0256414413452148,0.0,0.0,0.0,0.0
2025-11-06 18:32:56.169,47.77,0.137,0.154,0.004,-0.271,-0.97,0.059,12.07,-5.61,-51.88,0.8676,-0.4623,-0.1478,-0.1074,0.411,0.131,-0.56,38.86,-0.062,0.28,-0.17,-0.087,-0.961,-0.149,29.37,-23.18,-73.8,0.7614000000000001,-0.6428,-0.0236,-0.0794,0.03,-0.021,-0.023,38.415,0.544,0.068,-0.458,0.02,-0.998,0.05,70.79,-13.53,-73.07000000000001,0.6709,-0.7312000000000001,0.0673,0.103,0.04,0.003,0.028,0.0,0.0,0.0,0.0,0.0,0.0,-0.0067110061645507,-0.0005750656127929,0.036630630493164,0.036630630493164,0.0036630630493164,0.0256414413452148,0.0,0.0,0.0,0.0
2025-11-06 18:32:56.169,47.845,0.119,0.167,0.027,-0.284,-0.976,0.091,12.04,-5.87,-51.82,0.8622000000000001,-0.4707,-0.1508,-0.1105,0.423,0.125,-0.5740000000000001,38.86,-0.062,0.28,-0.17,-0.087,-0.961,-0.149,29.37,-23.18,-73.8,0.7614000000000001,-0.6428,-0.0236,-0.0794,0.03,-0.021,-0.023,38.415,0.544,0.068,-0.458,0.02,-0.998,0.05,70.79,-13.53,-73.07000000000001,0.6709,-0.7312000000000001,0.0673,0.103,0.04,0.003,0.028,0.0,0.0,0.0,0.0,0.0,0.0,-0.0067110061645507,-0.0005750656127929,0.036630630493164,0.036630630493164,0.0036630630493164,0.0256414413452148,0.0,0.0,0.0,0.0
2025-11-06 18:32:56.169,47.755,0.156,0.186,0.0,-0.276,-0.977,0.065,12.3,-6.72,-51.79,0.8689,-0.4602,-0.1471,-0.1069,0.416,0.14,-0.5700000000000001,38.86,-0.062,0.28,-0.17,-0.087,-0.961,-0.149,29.37,-23.18,-73.8,0.7614000000000001,-0.6428,-0.0236,-0.0794,0.03,-0.021,-0.023,38.415,0.544,0.068,-0.458,0.02,-0.998,0.05,70.79,-13.53,-73.07000000000001,0.6709,-0.7312000000000001,0.0673,0.103,0.04,0.003,0.028,0.0,0.0,0.0,0.0,0.0,0.0,-0.0067110061645507,-0.0005750656127929,0.036630630493164,0.036630630493164,0.0036630630493164,0.0256414413452148,0.0,0.0,0.0,0.0
2025-11-06 18:32:56.169,47.805,0.077,0.17,0.026,-0.282,-0.964,0.075,11.86,-5.96,-52.32,0.8651000000000001,-0.4663,-0.1491,-0.1088,0.421,0.12,-0.5680000000000001,38.86,-0.062,0.28,-0.17,-0.087,-0.961,-0.149,29.37,-23.18,-73.8,0.7614000000000001,-0.6428,-0.0236,-0.0794,0.03,-0.021,-0.023,38.415,0.544,0.068,-0.458,0.02,-0.998,0.05,70.79,-13.53,-73.07000000000001,0.6709,-0.7312000000000001,0.0673,0.103,0.04,0.003,0.028,0.0,0.0,0.0,0.0,0.0,0.0,-0.0067110061645507,-0.0005750656127929,0.036630630493164,0.036630630493164,0.0036630630493164,0.0256414413452148,0.0,0.0,0.0,0.0
2025-11-06 18:32:56.169,47.815,0.085,0.178,0.024,-0.283,-0.969,0.084,11.89,-6.28,-51.82,0.8643000000000001,-0.4675,-0.1495,-0.1093,0.422,0.124,-0.5750000000000001,38.86,-0.062,0.28,-0.17,-0.087,-0.961,-0.149,29.37,-23.18,-73.8,0.7614000000000001,-0.6428,-0.0236,-0.0794,0.03,-0.021,-0.023,38.415,0.544,0.068,-0.458,0.02,-0.998,0.05,70.79,-13.53,-73.07000000000001,0.6709,-0.7312000000000001,0.0673,0.103,0.04,0.003,0.028,0.0,0.0,0.0,0.0,0.0,0.0,-0.0067110061645507,-0.0005750656127929,0.036630630493164,0.036630630493164,0.0036630630493164,0.0256414413452148,0.0,0.0,0.0,0.0
2025-11-06 18:32:56.169,47.82,0.095,0.18,0.022,-0.28,-0.973,0.087,11.89,-6.28,-51.82,0.8639,-0.4681,-0.1497,-0.1095,0.419,0.126,-0.577,38.86,-0.062,0.28,-0.17,-0.087,-0.961,-0.149,29.37,-23.18,-73.8,0.7614000000000001,-0.6428,-0.0236,-0.0794,0.03,-0.021,-0.023,38.415,0.544,0.068,-0.458,0.02,-0.998,0.05,70.79,-13.53,-73.07000000000001,0.6709,-0.7312000000000001,0.0673,0.103,0.04,0.003,0.028,0.0,0.0,0.0,0.0,0.0,0.0,-0.0067110061645507,-0.0005750656127929,0.036630630493164,0.036630630493164,0.0036630630493164,0.0256414413452148,0.0,0.0,0.0,0.0
2025-11-06 18:32:56.169,47.825,0.099,0.179,0.023,-0.281,-0.973,0.09,11.72,-6.78,-51.71,0.8636,-0.4686,-0.1499,-0.1097,0.42,0.125,-0.579,38.86,-0.062,0.28,-0.17,-0.087,-0.961,-0.149,29.37,-23.18,-73.8,0.7614000000000001,-0.6428,-0.0236,-0.0794,0.03,-0.021,-0.023,38.415,0.544,0.068,-0.458,0.02,-0.998,0.05,70.79,-13.53,-73.07000000000001,0.6709,-0.7312000000000001,0.0673,0.103,0.04,0.003,0.028,0.0,0.0,0.0,0.0,0.0,0.0,-0.0067110061645507,-0.0005750656127929,0.036630630493164,0.036630630493164,0.0036630630493164,0.0256414413452148,0.0,0.0,0.0,0.0
2025-11-06 18:32:56.169,47.83,0.101,0.175,0.023,-0.28,-0.974,0.094,11.72,-6.78,-51.71,0.8632000000000001,-0.4692,-0.1501,-0.1099,0.419,0.126,-0.581,38.86,-0.062,0.28,-0.17,-0.087,-0.961,-0.149,29.37,-23.18,-73.8,0.7614000000000001,-0.6428,-0.0236,-0.0794,0.03,-0.021,-0.023,38.415,0.544,0.068,-0.458,0.02,-0.998,0.05,70.79,-13.53,-73.07000000000001,0.6709,-0.7312000000000001,0.0673,0.103,0.04,0.003,0.028,0.0,0.0,0.0,0.0,0.0,0.0,-0.0067110061645507,-0.0005750656127929,0.036630630493164,0.036630630493164,0.0036630630493164,0.0256414413452148,0.0,0.0,0.0,0.0
2025-11-06 18:32:56.169,47.835,0.103,0.174,0.023,-0.282,-0.975,0.094,12.04,-6.78,-51.82,0.8629,-0.4697,-0.1504,-0.1101,0.421,0.126,-0.579,38.86,-0.062,0.28,-0.17,-0.087,-0.961,-0.149,29.37,-23.18,-73.8,0.7614000000000001,-0.6428,-0.0236,-0.0794,0.03,-0.021,-0.023,38.415,0.544,0.068,-0.458,0.02,-0.998,0.05,70.79,-13.53,-73.07000000000001,0.6709,-0.7312000000000001,0.0673,0.103,0.04,0.003,0.028,0.0,0.0,0.0,0.0,0.0,0.0,-0.0067110061645507,-0.0005750656127929,0.036630630493164,0.036630630493164,0.0036630630493164,0.0256414413452148,0.0,0.0,0.0,0.0
2025-11-06 18:32:56.169,47.84,0.112,0.173,0.024,-0.283,-0.975,0.092,12.04,-5.87,-51.82,0.8625,-0.4702,-0.1506,-0.1103,0.421,0.126,-0.5760000000000001,38.86,-0.062,0.28,-0.17,-0.087,-0.961,-0.149,29.37,-23.18,-73.8,0.7614000000000001,-0.6428,-0.0236,-0.0794,0.03,-0.021,-0.023,38.415,0.544,0.068,-0.458,0.02,-0.998,0.05,70.79,-13.53,-73.07000000000001,0.6709,-0.7312000000000001,0.0673,0.103,0.04,0.003,0.028,0.0,0.0,0.0,0.0,0.0,0.0,-0.0067110061645507,-0.0005750656127929,0.036630630493164,0.036630630493164,0.0036630630493164,0.0256414413452148,0.0,0.0,0.0,0.0
2025-11-06 18:32:56.169,47.85,0.123,0.164,0.027,-0.286,-0.976,0.089,12.13,-6.16,-52.09,0.8618,-0.4712,-0.1511,-0.1107,0.425,0.126,-0.5710000000000001,38.86,-0.062,0.28,-0.17,-0.087,-0.961,-0.149,29.37,-23.18,-73.8,0.7614000000000001,-0.6428,-0.0236,-0.0794,0.03,-0.021,-0.023,38.415,0.544,0.068,-0.458,0.02,-0.998,0.05,70.79,-13.53,-73.07000000000001,0.6709,-0.7312000000000001,0.0673,0.103,0.04,0.003,0.028,0.0,0.0,0.0,0.0,0.0,0.0,-0.0067110061645507,-0.0005750656127929,0.036630630493164,0.036630630493164,0.0036630630493164,0.0256414413452148,0.0,0.0,0.0,0.0
2025-11-06 18:32:56.169,47.855,0.126,0.156,0.026,-0.289,-0.978,0.089,12.13,-6.16,-52.09,0.8615,-0.4717,-0.1513,-0.111,0.428,0.126,-0.5700000000000001,38.86,-0.062,0.28,-0.17,-0.087,-0.961,-0.149,29.37,-23.18,-73.8,0.7614000000000001,-0.6428,-0.0236,-0.0794,0.03,-0.021,-0.023,38.415,0.544,0.068,-0.458,0.02,-0.998,0.05,70.79,-13.53,-73.07000000000001,0.6709,-0.7312000000000001,0.0673,0.103,0.04,0.003,0.028,0.0,0.0,0.0,0.0,0.0,0.0,-0.0067110061645507,-0.0005750656127929,0.036630630493164,0.036630630493164,0.0036630630493164,0.0256414413452148,0.0,0.0,0.0,0.0
2025-11-06 18:32:56.169,47.745,0.179,0.206,0.0,-0.28,-0.977,0.075,12.1,-5.55,-52.2,0.8697,-0.459,-0.1465,-0.1066,0.419,0.142,-0.583,38.86,-0.062,0.28,-0.17,-0.087,-0.961,-0.149,29.37,-23.18,-73.8,0.7614000000000001,-0.6428,-0.0236,-0.0794,0.03,-0.021,-0.023,38.415,0.544,0.068,-0.458,0.02,-0.998,0.05,70.79,-13.53,-73.07000000000001,0.6709,-0.7312000000000001,0.0673,0.103,0.04,0.003,0.028,0.0,0.0,0.0,0.0,0.0,0.0,-0.0067110061645507,-0.0005750656127929,0.036630630493164,0.036630630493164,0.0036630630493164,0.0256414413452148,0.0,0.0,0.0,0.0
2025-11-06 18:32:56.169,47.81,0.078,0.173,0.024,-0.282,-0.967,0.08,11.89,-6.28,-51.82,0.8647,-0.4669,-0.1493,-0.109,0.421,0.122,-0.5720000000000001,38.86,-0.062,0.28,-0.17,-0.087,-0.961,-0.149,29.37,-23.18,-73.8,0.7614000000000001,-0.6428,-0.0236,-0.0794,0.03,-0.021,-0.023,38.415,0.544,0.068,-0.458,0.02,-0.998,0.05,70.79,-13.53,-73.07000000000001,0.6709,-0.7312000000000001,0.0673,0.103,0.04,0.003,0.028,0.0,0.0,0.0,0.0,0.0,0.0,-0.0067110061645507,-0.0005750656127929,0.036630630493164,0.036630630493164,0.0036630630493164,0.0256414413452148,0.0,0.0,0.0,0.0
2025-11-06 18:32:56.171,47.895,0.112,0.167,0.023,-0.294,-0.973,0.075,12.18,-6.1000000000000005,-50.74,0.859,-0.4751,-0.1532,-0.1127,0.433,0.117,-0.549,38.86,-0.062,0.28,-0.17,-0.087,-0.961,-0.149,29.37,-23.18,-73.8,0.7614000000000001,-0.6428,-0.0236,-0.0794,0.03,-0.021,-0.023,38.745,-0.045,-0.025,0.007,-0.027,-0.995,0.048,69.24,-13.38,-72.93,0.6819000000000001,-0.7205,0.1001,0.0761,0.0,-0.002,0.01,0.0,0.0,0.0,0.0,0.0,0.0,-0.0067110061645507,-0.0005750656127929,0.036630630493164,0.036630630493164,0.0036630630493164,0.0256414413452148,0.0,0.0,0.0,0.0
2025-11-06 18:32:56.171,47.89,0.117,0.16,0.029,-0.294,-0.976,0.079,12.18,-6.1000000000000005,-50.74,0.8594,-0.4746,-0.153,-0.1124,0.433,0.12,-0.554,38.86,-0.062,0.28,-0.17,-0.087,-0.961,-0.149,29.37,-23.18,-73.8,0.7614000000000001,-0.6428,-0.0236,-0.0794,0.03,-0.021,-0.023,38.745,-0.045,-0.025,0.007,-0.027,-0.995,0.048,69.24,-13.38,-72.93,0.6819000000000001,-0.7205,0.1001,0.0761,0.0,-0.002,0.01,0.0,0.0,0.0,0.0,0.0,0.0,-0.0067110061645507,-0.0005750656127929,0.036630630493164,0.036630630493164,0.0036630630493164,0.0256414413452148,0.0,0.0,0.0,0.0
2025-11-06 18:32:56.171,47.885,0.123,0.15,0.03,-0.295,-0.977,0.083,12.01,-5.78,-50.51,0.8597,-0.4742,-0.1527,-0.1122,0.434,0.122,-0.559,38.86,-0.062,0.28,-0.17,-0.087,-0.961,-0.149,29.37,-23.18,-73.8,0.7614000000000001,-0.6428,-0.0236,-0.0794,0.03,-0.021,-0.023,38.745,-0.045,-0.025,0.007,-0.027,-0.995,0.048,69.24,-13.38,-72.93,0.6819000000000001,-0.7205,0.1001,0.0761,0.0,-0.002,0.01,0.0,0.0,0.0,0.0,0.0,0.0,-0.0067110061645507,-0.0005750656127929,0.036630630493164,0.036630630493164,0.0036630630493164,0.0256414413452148,0.0,0.0,0.0,0.0
2025-11-06 18:32:56.171,47.88,0.124,0.145,0.029,-0.295,-0.98,0.088,12.01,-5.78,-50.51,0.86,-0.4737,-0.1525,-0.112,0.434,0.126,-0.5650000000000001,38.86,-0.062,0.28,-0.17,-0.087,-0.961,-0.149,29.37,-23.18,-73.8,0.7614000000000001,-0.6428,-0.0236,-0.0794,0.03,-0.021,-0.023,38.745,-0.045,-0.025,0.007,-0.027,-0.995,0.048,69.24,-13.38,-72.93,0.6819000000000001,-0.7205,0.1001,0.0761,0.0,-0.002,0.01,0.0,0.0,0.0,0.0,0.0,0.0,-0.0067110061645507,-0.0005750656127929,0.036630630493164,0.036630630493164,0.0036630630493164,0.0256414413452148,0.0,0.0,0.0,0.0
2025-11-06 18:32:56.171,47.9,0.106,0.179,0.018,-0.293,-0.972,0.071,12.24,-7.13,-50.54,0.8586,-0.4757,-0.1534,-0.113,0.431,0.114,-0.544,38.86,-0.062,0.28,-0.17,-0.087,-0.961,-0.149,29.37,-23.18,-73.8,0.7614000000000001,-0.6428,-0.0236,-0.0794,0.03,-0.021,-0.023,38.745,-0.045,-0.025,0.007,-0.027,-0.995,0.048,69.24,-13.38,-72.93,0.6819000000000001,-0.7205,0.1001,0.0761,0.0,-0.002,0.01,0.0,0.0,0.0,0.0,0.0,0.0,-0.0067110061645507,-0.0005750656127929,0.036630630493164,0.036630630493164,0.0036630630493164,0.0256414413452148,0.0,0.0,0.0,0.0
2025-11-06 18:32:56.171,47.87,0.127,0.142,0.03,-0.295,-0.982,0.092,12.18,-5.67,-50.83,0.8606,-0.4729,-0.1521,-0.1115,0.434,0.129,-0.5710000000000001,38.86,-0.062,0.28,-0.17,-0.087,-0.961,-0.149,29.37,-23.18,-73.8,0.7614000000000001,-0.6428,-0.0236,-0.0794,0.03,-0.021,-0.023,38.745,-0.045,-0.025,0.007,-0.027,-0.995,0.048,69.24,-13.38,-72.93,0.6819000000000001,-0.7205,0.1001,0.0761,0.0,-0.002,0.01,0.0,0.0,0.0,0.0,0.0,0.0,-0.0067110061645507,-0.0005750656127929,0.036630630493164,0.036630630493164,0.0036630630493164,0.0256414413452148,0.0,0.0,0.0,0.0
2025-11-06 18:32:56.171,47.865,0.128,0.147,0.028,-0.292,-0.981,0.09,12.18,-5.67,-50.83,0.8609,-0.4725,-0.1518,-0.1113,0.431,0.128,-0.5690000000000001,38.86,-0.062,0.28,-0.17,-0.087,-0.961,-0.149,29.37,-23.18,-73.8,0.7614000000000001,-0.6428,-0.0236,-0.0794,0.03,-0.021,-0.023,38.745,-0.045,-0.025,0.007,-0.027,-0.995,0.048,69.24,-13.38,-72.93,0.6819000000000001,-0.7205,0.1001,0.0761,0.0,-0.002,0.01,0.0,0.0,0.0,0.0,0.0,0.0,-0.0067110061645507,-0.0005750656127929,0.036630630493164,0.036630630493164,0.0036630630493164,0.0256414413452148,0.0,0.0,0.0,0.0
2025-11-06 18:32:56.171,47.91,0.087,0.198,0.005,-0.293,-0.97,0.069,12.24,-7.13,-50.54,0.8579,-0.4767,-0.154,-0.1136,0.432,0.111,-0.54,38.86,-0.062,0.28,-0.17,-0.087,-0.961,-0.149,29.37,-23.18,-73.8,0.7614000000000001,-0.6428,-0.0236,-0.0794,0.03,-0.021,-0.023,38.745,-0.045,-0.025,0.007,-0.027,-0.995,0.048,69.24,-13.38,-72.93,0.6819000000000001,-0.7205,0.1001,0.0761,0.0,-0.002,0.01,0.0,0.0,0.0,0.0,0.0,0.0,-0.0067110061645507,-0.0005750656127929,0.036630630493164,0.036630630493164,0.0036630630493164,0.0256414413452148,0.0,0.0,0.0,0.0
2025-11-06 18:32:56.171,47.875,0.126,0.145,0.031,-0.295,-0.982,0.091,12.01,-5.78,-50.51,0.8603000000000001,-0.4733,-0.1523,-0.1118,0.434,0.128,-0.5690000000000001,38.86,-0.062,0.28,-0.17,-0.087,-0.961,-0.149,29.37,-23.18,-73.8,0.7614000000000001,-0.6428,-0.0236,-0.0794,0.03,-0.021,-0.023,38.745,-0.045,-0.025,0.007,-0.027,-0.995,0.048,69.24,-13.38,-72.93,0.6819000000000001,-0.7205,0.1001,0.0761,0.0,-0.002,0.01,0.0,0.0,0.0,0.0,0.0,0.0,-0.0067110061645507,-0.0005750656127929,0.036630630493164,0.036630630493164,0.0036630630493164,0.0256414413452148,0.0,0.0,0.0,0.0
2025-11-06 18:32:56.171,47.905,0.095,0.19,0.012,-0.295,-0.97,0.069,12.24,-7.13,-50.54,0.8583000000000001,-0.4762,-0.1537,-0.1133,0.433,0.112,-0.541,38.86,-0.062,0.28,-0.17,-0.087,-0.961,-0.149,29.37,-23.18,-73.8,0.7614000000000001,-0.6428,-0.0236,-0.0794,0.03,-0.021,-0.023,38.745,-0.045,-0.025,0.007,-0.027,-0.995,0.048,69.24,-13.38,-72.93,0.6819000000000001,-0.7205,0.1001,0.0761,0.0,-0.002,0.01,0.0,0.0,0.0,0.0,0.0,0.0,-0.0067110061645507,-0.0005750656127929,0.036630630493164,0.036630630493164,0.0036630630493164,0.0256414413452148,0.0,0.0,0.0,0.0
2025-11-06 18:32:56.171,47.925,0.066,0.18,-0.011,-0.29,-0.969,0.072,12.04,-6.37,-50.01,0.8568,-0.4783,-0.1546,-0.1145,0.429,0.109,-0.539,38.86,-0.062,0.28,-0.17,-0.087,-0.961,-0.149,29.37,-23.18,-73.8,0.7614000000000001,-0.6428,-0.0236,-0.0794,0.03,-0.021,-0.023,38.745,-0.045,-0.025,0.007,-0.027,-0.995,0.048,69.24,-13.38,-72.93,0.6819000000000001,-0.7205,0.1001,0.0761,0.0,-0.002,0.01,0.0,0.0,0.0,0.0,0.0,0.0,-0.0067110061645507,-0.0005750656127929,0.036630630493164,0.036630630493164,0.0036630630493164,0.0256414413452148,0.0,0.0,0.0,0.0
2025-11-06 18:32:56.171,47.915,0.078,0.195,0.0,-0.294,-0.968,0.068,12.48,-5.84,-50.45,0.8575,-0.4772,-0.1542,-0.114,0.433,0.109,-0.537,38.86,-0.062,0.28,-0.17,-0.087,-0.961,-0.149,29.37,-23.18,-73.8,0.7614000000000001,-0.6428,-0.0236,-0.0794,0.03,-0.021,-0.023,38.745,-0.045,-0.025,0.007,-0.027,-0.995,0.048,69.24,-13.38,-72.93,0.6819000000000001,-0.7205,0.1001,0.0761,0.0,-0.002,0.01,0.0,0.0,0.0,0.0,0.0,0.0,-0.0067110061645507,-0.0005750656127929,0.036630630493164,0.036630630493164,0.0036630630493164,0.0256414413452148,0.0,0.0,0.0,0.0
2025-11-06 18:32:56.171,47.945,0.065,0.179,-0.025,-0.295,-0.975,0.073,12.04,-6.25,-50.01,0.8555,-0.4799,-0.1557,-0.1154,0.433,0.112,-0.536,38.86,-0.062,0.28,-0.17,-0.087,-0.961,-0.149,29.37,-23.18,-73.8,0.7614000000000001,-0.6428,-0.0236,-0.0794,0.03,-0.021,-0.023,38.745,-0.045,-0.025,0.007,-0.027,-0.995,0.048,69.24,-13.38,-72.93,0.6819000000000001,-0.7205,0.1001,0.0761,0.0,-0.002,0.01,0.0,0.0,0.0,0.0,0.0,0.0,-0.0067110061645507,-0.0005750656127929,0.036630630493164,0.036630630493164,0.0036630630493164,0.0256414413452148,0.0,0.0,0.0,0.0
2025-11-06 18:32:56.171,47.96,0.048,0.176,-0.027,-0.302,-0.976,0.065,11.98,-5.84,-49.4,0.8548,-0.4808,-0.1567,-0.1161,0.441,0.112,-0.526,38.86,-0.062,0.28,-0.17,-0.087,-0.961,-0.149,29.37,-23.18,-73.8,0.7614000000000001,-0.6428,-0.0236,-0.0794,0.03,-0.021,-0.023,38.745,-0.045,-0.025,0.007,-0.027,-0.995,0.048,69.24,-13.38,-72.93,0.6819000000000001,-0.7205,0.1001,0.0761,0.0,-0.002,0.01,0.0,0.0,0.0,0.0,0.0,0.0,-0.0067110061645507,-0.0005750656127929,0.036630630493164,0.036630630493164,0.0036630630493164,0.0256414413452148,0.0,0.0,0.0,0.0
2025-11-06 18:32:56.171,47.955,0.059,0.177,-0.029,-0.298,-0.976,0.072,11.98,-5.84,-49.4,0.8550000000000001,-0.4806,-0.1564,-0.1158,0.437,0.112,-0.534,38.86,-0.062,0.28,-0.17,-0.087,-0.961,-0.149,29.37,-23.18,-73.8,0.7614000000000001,-0.6428,-0.0236,-0.0794,0.03,-0.021,-0.023,38.745,-0.045,-0.025,0.007,-0.027,-0.995,0.048,69.24,-13.38,-72.93,0.6819000000000001,-0.7205,0.1001,0.0761,0.0,-0.002,0.01,0.0,0.0,0.0,0.0,0.0,0.0,-0.0067110061645507,-0.0005750656127929,0.036630630493164,0.036630630493164,0.0036630630493164,0.0256414413452148,0.0,0.0,0.0,0.0
2025-11-06 18:32:56.171,47.95,0.064,0.179,-0.027,-0.296,-0.976,0.074,11.98,-5.84,-49.4,0.8553000000000001,-0.4803,-0.156,-0.1156,0.435,0.112,-0.536,38.86,-0.062,0.28,-0.17,-0.087,-0.961,-0.149,29.37,-23.18,-73.8,0.7614000000000001,-0.6428,-0.0236,-0.0794,0.03,-0.021,-0.023,38.745,-0.045,-0.025,0.007,-0.027,-0.995,0.048,69.24,-13.38,-72.93,0.6819000000000001,-0.7205,0.1001,0.0761,0.0,-0.002,0.01,0.0,0.0,0.0,0.0,0.0,0.0,-0.0067110061645507,-0.0005750656127929,0.036630630493164,0.036630630493164,0.0036630630493164,0.0256414413452148,0.0,0.0,0.0,0.0
2025-11-06 18:32:56.171,47.92,0.071,0.187,-0.005,-0.294,-0.969,0.069,12.48,-5.84,-50.45,0.8571000000000001,-0.4777,-0.1544,-0.1143,0.432,0.109,-0.538,38.86,-0.062,0.28,-0.17,-0.087,-0.961,-0.149,29.37,-23.18,-73.8,0.7614000000000001,-0.6428,-0.0236,-0.0794,0.03,-0.021,-0.023,38.745,-0.045,-0.025,0.007,-0.027,-0.995,0.048,69.24,-13.38,-72.93,0.6819000000000001,-0.7205,0.1001,0.0761,0.0,-0.002,0.01,0.0,0.0,0.0,0.0,0.0,0.0,-0.0067110061645507,-0.0005750656127929,0.036630630493164,0.036630630493164,0.0036630630493164,0.0256414413452148,0.0,0.0,0.0,0.0
2025-11-06 18:32:56.171,47.94,0.063,0.177,-0.023,-0.292,-0.974,0.072,12.04,-6.25,-50.01,0.8558,-0.4796,-0.1554,-0.1152,0.431,0.112,-0.536,38.86,-0.062,0.28,-0.17,-0.087,-0.961,-0.149,29.37,-23.18,-73.8,0.7614000000000001,-0.6428,-0.0236,-0.0794,0.03,-0.021,-0.023,38.745,-0.045,-0.025,0.007,-0.027,-0.995,0.048,69.24,-13.38,-72.93,0.6819000000000001,-0.7205,0.1001,0.0761,0.0,-0.002,0.01,0.0,0.0,0.0,0.0,0.0,0.0,-0.0067110061645507,-0.0005750656127929,0.036630630493164,0.036630630493164,0.0036630630493164,0.0256414413452148,0.0,0.0,0.0,0.0
2025-11-06 18:32:56.171,47.935,0.062,0.177,-0.021,-0.291,-0.972,0.073,12.04,-6.37,-50.01,0.8561000000000001,-0.4792,-0.1551,-0.115,0.429,0.11,-0.538,38.86,-0.062,0.28,-0.17,-0.087,-0.961,-0.149,29.37,-23.18,-73.8,0.7614000000000001,-0.6428,-0.0236,-0.0794,0.03,-0.021,-0.023,38.745,-0.045,-0.025,0.007,-0.027,-0.995,0.048,69.24,-13.38,-72.93,0.6819000000000001,-0.7205,0.1001,0.0761,0.0,-0.002,0.01,0.0,0.0,0.0,0.0,0.0,0.0,-0.0067110061645507,-0.0005750656127929,0.036630630493164,0.036630630493164,0.0036630630493164,0.0256414413452148,0.0,0.0,0.0,0.0
2025-11-06 18:32:56.171,47.93,0.064,0.175,-0.016,-0.291,-0.971,0.072,12.04,-6.37,-50.01,0.8564,-0.4788,-0.1549,-0.1148,0.429,0.11,-0.538,38.86,-0.062,0.28,-0.17,-0.087,-0.961,-0.149,29.37,-23.18,-73.8,0.7614000000000001,-0.6428,-0.0236,-0.0794,0.03,-0.021,-0.023,38.745,-0.045,-0.025,0.007,-0.027,-0.995,0.048,69.24,-13.38,-72.93,0.6819000000000001,-0.7205,0.1001,0.0761,0.0,-0.002,0.01,0.0,0.0,0.0,0.0,0.0,0.0,-0.0067110061645507,-0.0005750656127929,0.036630630493164,0.036630630493164,0.0036630630493164,0.0256414413452148,0.0,0.0,0.0,0.0
2025-11-06 18:32:56.171,47.86,0.127,0.15,0.026,-0.289,-0.98,0.09,12.13,-6.16,-52.09,0.8612000000000001,-0.4721,-0.1516,-0.1111,0.428,0.128,-0.5700000000000001,38.86,-0.062,0.28,-0.17,-0.087,-0.961,-0.149,29.37,-23.18,-73.8,0.7614000000000001,-0.6428,-0.0236,-0.0794,0.03,-0.021,-0.023,38.745,-0.045,-0.025,0.007,-0.027,-0.995,0.048,69.24,-13.38,-72.93,0.6819000000000001,-0.7205,0.1001,0.0761,0.0,-0.002,0.01,0.0,0.0,0.0,0.0,0.0,0.0,-0.0067110061645507,-0.0005750656127929,0.036630630493164,0.036630630493164,0.0036630630493164,0.0256414413452148,0.0,0.0,0.0,0.0
2025-11-06 18:32:56.173,48.005,0.015,0.208,-0.005,-0.307,-1.006,0.036,12.04,-5.61,-49.78,0.8535,-0.4814,-0.1599,-0.1181,0.45,0.139,-0.493,38.86,-0.062,0.28,-0.17,-0.087,-0.961,-0.149,29.37,-23.18,-73.8,0.7614000000000001,-0.6428,-0.0236,-0.0794,0.03,-0.021,-0.023,38.91,-0.026,-0.02,0.0,-0.041,-0.994,0.038,68.89,-13.59,-72.66,0.6857000000000001,-0.7161000000000001,0.1051,0.0763,0.007,-0.003,0.009,0.0,0.0,0.0,0.0,0.0,0.0,-0.0067110061645507,-0.0005750656127929,0.036630630493164,0.036630630493164,0.0036630630493164,0.0256414413452148,0.0,0.0,0.0,0.0
2025-11-06 18:32:56.173,48.0,0.019,0.195,-0.007,-0.308,-1.006,0.039,12.04,-5.61,-49.78,0.8537,-0.4814,-0.1595,-0.1178,0.45,0.14,-0.496,38.86,-0.062,0.28,-0.17,-0.087,-0.961,-0.149,29.37,-23.18,-73.8,0.7614000000000001,-0.6428,-0.0236,-0.0794,0.03,-0.021,-0.023,38.91,-0.026,-0.02,0.0,-0.041,-0.994,0.038,68.89,-13.59,-72.66,0.6857000000000001,-0.7161000000000001,0.1051,0.0763,0.007,-0.003,0.009,0.0,0.0,0.0,0.0,0.0,0.0,-0.0067110061645507,-0.0005750656127929,0.036630630493164,0.036630630493164,0.0036630630493164,0.0256414413452148,0.0,0.0,0.0,0.0
2025-11-06 18:32:56.173,47.995,0.018,0.184,-0.006,-0.307,-1.003,0.041,13.53,-6.3100000000000005,-49.89,0.8538,-0.4814,-0.1591,-0.1176,0.448,0.137,-0.499,38.86,-0.062,0.28,-0.17,-0.087,-0.961,-0.149,29.37,-23.18,-73.8,0.7614000000000001,-0.6428,-0.0236,-0.0794,0.03,-0.021,-0.023,38.91,-0.026,-0.02,0.0,-0.041,-0.994,0.038,68.89,-13.59,-72.66,0.6857000000000001,-0.7161000000000001,0.1051,0.0763,0.007,-0.003,0.009,0.0,0.0,0.0,0.0,0.0,0.0,-0.0067110061645507,-0.0005750656127929,0.036630630493164,0.036630630493164,0.0036630630493164,0.0256414413452148,0.0,0.0,0.0,0.0
2025-11-06 18:32:56.173,47.965,0.035,0.176,-0.025,-0.303,-0.978,0.057,12.21,-5.7,-50.13,0.8546,-0.481,-0.157,-0.1163,0.443,0.113,-0.517,38.86,-0.062,0.28,-0.17,-0.087,-0.961,-0.149,29.37,-23.18,-73.8,0.7614000000000001,-0.6428,-0.0236,-0.0794,0.03,-0.021,-0.023,38.91,-0.026,-0.02,0.0,-0.041,-0.994,0.038,68.89,-13.59,-72.66,0.6857000000000001,-0.7161000000000001,0.1051,0.0763,0.007,-0.003,0.009,0.0,0.0,0.0,0.0,0.0,0.0,-0.0067110061645507,-0.0005750656127929,0.036630630493164,0.036630630493164,0.0036630630493164,0.0256414413452148,0.0,0.0,0.0,0.0
2025-11-06 18:32:56.173,47.975,0.021,0.173,-0.02,-0.305,-0.985,0.045,12.33,-6.1000000000000005,-49.51,0.8543000000000001,-0.4812,-0.1577,-0.1167,0.445,0.119,-0.504,38.86,-0.062,0.28,-0.17,-0.087,-0.961,-0.149,29.37,-23.18,-73.8,0.7614000000000001,-0.6428,-0.0236,-0.0794,0.03,-0.021,-0.023,38.91,-0.026,-0.02,0.0,-0.041,-0.994,0.038,68.89,-13.59,-72.66,0.6857000000000001,-0.7161000000000001,0.1051,0.0763,0.007,-0.003,0.009,0.0,0.0,0.0,0.0,0.0,0.0,-0.0067110061645507,-0.0005750656127929,0.036630630493164,0.036630630493164,0.0036630630493164,0.0256414413452148,0.0,0.0,0.0,0.0
2025-11-06 18:32:56.173,47.97,0.029,0.174,-0.02,-0.304,-0.981,0.051,12.21,-5.7,-50.13,0.8544,-0.4811,-0.1573,-0.1165,0.443,0.116,-0.511,38.86,-0.062,0.28,-0.17,-0.087,-0.961,-0.149,29.37,-23.18,-73.8,0.7614000000000001,-0.6428,-0.0236,-0.0794,0.03,-0.021,-0.023,38.91,-0.026,-0.02,0.0,-0.041,-0.994,0.038,68.89,-13.59,-72.66,0.6857000000000001,-0.7161000000000001,0.1051,0.0763,0.007,-0.003,0.009,0.0,0.0,0.0,0.0,0.0,0.0,-0.0067110061645507,-0.0005750656127929,0.036630630493164,0.036630630493164,0.0036630630493164,0.0256414413452148,0.0,0.0,0.0,0.0
2025-11-06 18:32:56.173,48.01,0.01,0.216,-0.004,-0.305,-1.002,0.033,12.04,-5.61,-49.78,0.8534,-0.4814,-0.1604,-0.1184,0.448,0.136,-0.489,38.86,-0.062,0.28,-0.17,-0.087,-0.961,-0.149,29.37,-23.18,-73.8,0.7614000000000001,-0.6428,-0.0236,-0.0794,0.03,-0.021,-0.023,38.91,-0.026,-0.02,0.0,-0.041,-0.994,0.038,68.89,-13.59,-72.66,0.6857000000000001,-0.7161000000000001,0.1051,0.0763,0.007,-0.003,0.009,0.0,0.0,0.0,0.0,0.0,0.0,-0.0067110061645507,-0.0005750656127929,0.036630630493164,0.036630630493164,0.0036630630493164,0.0256414413452148,0.0,0.0,0.0,0.0
2025-11-06 18:32:56.173,47.98,0.019,0.171,-0.016,-0.306,-0.987,0.04,12.33,-6.1000000000000005,-49.51,0.8541000000000001,-0.4813,-0.158,-0.117,0.446,0.121,-0.498,38.86,-0.062,0.28,-0.17,-0.087,-0.961,-0.149,29.37,-23.18,-73.8,0.7614000000000001,-0.6428,-0.0236,-0.0794,0.03,-0.021,-0.023,38.91,-0.026,-0.02,0.0,-0.041,-0.994,0.038,68.89,-13.59,-72.66,0.6857000000000001,-0.7161000000000001,0.1051,0.0763,0.007,-0.003,0.009,0.0,0.0,0.0,0.0,0.0,0.0,-0.0067110061645507,-0.0005750656127929,0.036630630493164,0.036630630493164,0.0036630630493164,0.0256414413452148,0.0,0.0,0.0,0.0
2025-11-06 18:32:56.173,47.985,0.014,0.168,-0.012,-0.304,-0.993,0.037,12.33,-6.1000000000000005,-49.51,0.8540000000000001,-0.4814,-0.1584,-0.1172,0.445,0.127,-0.496,38.86,-0.062,0.28,-0.17,-0.087,-0.961,-0.149,29.37,-23.18,-73.8,0.7614000000000001,-0.6428,-0.0236,-0.0794,0.03,-0.021,-0.023,38.91,-0.026,-0.02,0.0,-0.041,-0.994,0.038,68.89,-13.59,-72.66,0.6857000000000001,-0.7161000000000001,0.1051,0.0763,0.007,-0.003,0.009,0.0,0.0,0.0,0.0,0.0,0.0,-0.0067110061645507,-0.0005750656127929,0.036630630493164,0.036630630493164,0.0036630630493164,0.0256414413452148,0.0,0.0,0.0,0.0
2025-11-06 18:32:56.173,48.05,-0.053,0.18,-0.008,-0.259,-0.959,0.036,13.06,-6.890000000000001,-49.51,0.8523000000000001,-0.4819,-0.1631,-0.121,0.403,0.092,-0.49,38.86,-0.062,0.28,-0.17,-0.087,-0.961,-0.149,29.37,-23.18,-73.8,0.7614000000000001,-0.6428,-0.0236,-0.0794,0.03,-0.021,-0.023,38.91,-0.026,-0.02,0.0,-0.041,-0.994,0.038,68.89,-13.59,-72.66,0.6857000000000001,-0.7161000000000001,0.1051,0.0763,0.007,-0.003,0.009,0.0,0.0,0.0,0.0,0.0,0.0,-0.0067110061645507,-0.0005750656127929,0.036630630493164,0.036630630493164,0.0036630630493164,0.0256414413452148,0.0,0.0,0.0,0.0
2025-11-06 18:32:56.173,48.015,0.001,0.221,-0.002,-0.301,-0.999,0.032,13.3,-6.92,-49.92,0.8533000000000001,-0.4814,-0.1608,-0.1187,0.444,0.133,-0.488,38.86,-0.062,0.28,-0.17,-0.087,-0.961,-0.149,29.37,-23.18,-73.8,0.7614000000000001,-0.6428,-0.0236,-0.0794,0.03,-0.021,-0.023,38.91,-0.026,-0.02,0.0,-0.041,-0.994,0.038,68.89,-13.59,-72.66,0.6857000000000001,-0.7161000000000001,0.1051,0.0763,0.007,-0.003,0.009,0.0,0.0,0.0,0.0,0.0,0.0,-0.0067110061645507,-0.0005750656127929,0.036630630493164,0.036630630493164,0.0036630630493164,0.0256414413452148,0.0,0.0,0.0,0.0
2025-11-06 18:32:56.173,48.055,-0.052,0.159,-0.009,-0.251,-0.954,0.033,13.06,-6.890000000000001,-49.51,0.8522000000000001,-0.4818,-0.1634,-0.1212,0.395,0.087,-0.488,38.86,-0.062,0.28,-0.17,-0.087,-0.961,-0.149,29.37,-23.18,-73.8,0.7614000000000001,-0.6428,-0.0236,-0.0794,0.03,-0.021,-0.023,38.91,-0.026,-0.02,0.0,-0.041,-0.994,0.038,68.89,-13.59,-72.66,0.6857000000000001,-0.7161000000000001,0.1051,0.0763,0.007,-0.003,0.009,0.0,0.0,0.0,0.0,0.0,0.0,-0.0067110061645507,-0.0005750656127929,0.036630630493164,0.036630630493164,0.0036630630493164,0.0256414413452148,0.0,0.0,0.0,0.0
2025-11-06 18:32:56.173,48.07,-0.059,0.11,-0.006,-0.242,-0.951,0.034,11.98,-5.9,-49.34,0.8522000000000001,-0.4815,-0.1641,-0.1217,0.387,0.084,-0.488,38.86,-0.062,0.28,-0.17,-0.087,-0.961,-0.149,29.37,-23.18,-73.8,0.7614000000000001,-0.6428,-0.0236,-0.0794,0.03,-0.021,-0.023,38.91,-0.026,-0.02,0.0,-0.041,-0.994,0.038,68.89,-13.59,-72.66,0.6857000000000001,-0.7161000000000001,0.1051,0.0763,0.007,-0.003,0.009,0.0,0.0,0.0,0.0,0.0,0.0,-0.0067110061645507,-0.0005750656127929,0.036630630493164,0.036630630493164,0.0036630630493164,0.0256414413452148,0.0,0.0,0.0,0.0
2025-11-06 18:32:56.173,48.045,-0.051,0.192,-0.007,-0.264,-0.964,0.036,12.01,-6.13,-50.16,0.8524,-0.4819,-0.1628,-0.1207,0.408,0.097,-0.491,38.86,-0.062,0.28,-0.17,-0.087,-0.961,-0.149,29.37,-23.18,-73.8,0.7614000000000001,-0.6428,-0.0236,-0.0794,0.03,-0.021,-0.023,38.91,-0.026,-0.02,0.0,-0.041,-0.994,0.038,68.89,-13.59,-72.66,0.6857000000000001,-0.7161000000000001,0.1051,0.0763,0.007,-0.003,0.009,0.0,0.0,0.0,0.0,0.0,0.0,-0.0067110061645507,-0.0005750656127929,0.036630630493164,0.036630630493164,0.0036630630493164,0.0256414413452148,0.0,0.0,0.0,0.0
2025-11-06 18:32:56.173,48.06,-0.053,0.145,-0.008,-0.247,-0.952,0.03,13.06,-6.890000000000001,-49.51,0.8522000000000001,-0.4817,-0.1636,-0.1214,0.392,0.085,-0.485,38.86,-0.062,0.28,-0.17,-0.087,-0.961,-0.149,29.37,-23.18,-73.8,0.7614000000000001,-0.6428,-0.0236,-0.0794,0.03,-0.021,-0.023,38.91,-0.026,-0.02,0.0,-0.041,-0.994,0.038,68.89,-13.59,-72.66,0.6857000000000001,-0.7161000000000001,0.1051,0.0763,0.007,-0.003,0.009,0.0,0.0,0.0,0.0,0.0,0.0,-0.0067110061645507,-0.0005750656127929,0.036630630493164,0.036630630493164,0.0036630630493164,0.0256414413452148,0.0,0.0,0.0,0.0
2025-11-06 18:32:56.173,48.035,-0.041,0.211,-0.004,-0.279,-0.978,0.034,12.62,-5.72,-49.4,0.8528,-0.4816,-0.1623,-0.12,0.423,0.111,-0.49,38.86,-0.062,0.28,-0.17,-0.087,-0.961,-0.149,29.37,-23.18,-73.8,0.7614000000000001,-0.6428,-0.0236,-0.0794,0.03,-0.021,-0.023,38.91,-0.026,-0.02,0.0,-0.041,-0.994,0.038,68.89,-13.59,-72.66,0.6857000000000001,-0.7161000000000001,0.1051,0.0763,0.007,-0.003,0.009,0.0,0.0,0.0,0.0,0.0,0.0,-0.0067110061645507,-0.0005750656127929,0.036630630493164,0.036630630493164,0.0036630630493164,0.0256414413452148,0.0,0.0,0.0,0.0
2025-11-06 18:32:56.173,48.03,-0.033,0.212,-0.005,-0.286,-0.984,0.032,12.62,-5.72,-49.4,0.8530000000000001,-0.4814,-0.162,-0.1196,0.43,0.118,-0.487,38.86,-0.062,0.28,-0.17,-0.087,-0.961,-0.149,29.37,-23.18,-73.8,0.7614000000000001,-0.6428,-0.0236,-0.0794,0.03,-0.021,-0.023,38.91,-0.026,-0.02,0.0,-0.041,-0.994,0.038,68.89,-13.59,-72.66,0.6857000000000001,-0.7161000000000001,0.1051,0.0763,0.007,-0.003,0.009,0.0,0.0,0.0,0.0,0.0,0.0,-0.0067110061645507,-0.0005750656127929,0.036630630493164,0.036630630493164,0.0036630630493164,0.0256414413452148,0.0,0.0,0.0,0.0
2025-11-06 18:32:56.173,48.025,-0.024,0.214,-0.003,-0.292,-0.99,0.031,12.62,-5.72,-49.4,0.8531000000000001,-0.4814,-0.1617,-0.1193,0.436,0.124,-0.487,38.86,-0.062,0.28,-0.17,-0.087,-0.961,-0.149,29.37,-23.18,-73.8,0.7614000000000001,-0.6428,-0.0236,-0.0794,0.03,-0.021,-0.023,38.91,-0.026,-0.02,0.0,-0.041,-0.994,0.038,68.89,-13.59,-72.66,0.6857000000000001,-0.7161000000000001,0.1051,0.0763,0.007,-0.003,0.009,0.0,0.0,0.0,0.0,0.0,0.0,-0.0067110061645507,-0.0005750656127929,0.036630630493164,0.036630630493164,0.0036630630493164,0.0256414413452148,0.0,0.0,0.0,0.0
2025-11-06 18:32:56.173,48.04,-0.047,0.203,-0.005,-0.271,-0.97,0.035,12.01,-6.13,-50.16,0.8525,-0.4818,-0.1625,-0.1204,0.415,0.103,-0.49,38.86,-0.062,0.28,-0.17,-0.087,-0.961,-0.149,29.37,-23.18,-73.8,0.7614000000000001,-0.6428,-0.0236,-0.0794,0.03,-0.021,-0.023,38.91,-0.026,-0.02,0.0,-0.041,-0.994,0.038,68.89,-13.59,-72.66,0.6857000000000001,-0.7161000000000001,0.1051,0.0763,0.007,-0.003,0.009,0.0,0.0,0.0,0.0,0.0,0.0,-0.0067110061645507,-0.0005750656127929,0.036630630493164,0.036630630493164,0.0036630630493164,0.0256414413452148,0.0,0.0,0.0,0.0
2025-11-06 18:32:56.173,48.02,-0.012,0.215,-0.004,-0.297,-0.994,0.029,13.3,-6.92,-49.92,0.8532000000000001,-0.4814,-0.1613,-0.119,0.441,0.128,-0.485,38.86,-0.062,0.28,-0.17,-0.087,-0.961,-0.149,29.37,-23.18,-73.8,0.7614000000000001,-0.6428,-0.0236,-0.0794,0.03,-0.021,-0.023,38.91,-0.026,-0.02,0.0,-0.041,-0.994,0.038,68.89,-13.59,-72.66,0.6857000000000001,-0.7161000000000001,0.1051,0.0763,0.007,-0.003,0.009,0.0,0.0,0.0,0.0,0.0,0.0,-0.0067110061645507,-0.0005750656127929,0.036630630493164,0.036630630493164,0.0036630630493164,0.0256414413452148,0.0,0.0,0.0,0.0
2025-11-06 18:32:56.173,48.065,-0.056,0.127,-0.008,-0.243,-0.951,0.031,11.98,-5.9,-49.34,0.8522000000000001,-0.4816,-0.1639,-0.1215,0.388,0.084,-0.486,38.86,-0.062,0.28,-0.17,-0.087,-0.961,-0.149,29.37,-23.18,-73.8,0.7614000000000001,-0.6428,-0.0236,-0.0794,0.03,-0.021,-0.023,38.91,-0.026,-0.02,0.0,-0.041,-0.994,0.038,68.89,-13.59,-72.66,0.6857000000000001,-0.7161000000000001,0.1051,0.0763,0.007,-0.003,0.009,0.0,0.0,0.0,0.0,0.0,0.0,-0.0067110061645507,-0.0005750656127929,0.036630630493164,0.036630630493164,0.0036630630493164,0.0256414413452148,0.0,0.0,0.0,0.0
2025-11-06 18:32:56.173,47.99,0.018,0.176,-0.007,-0.306,-0.999,0.041,13.53,-6.3100000000000005,-49.89,0.8539,-0.4814,-0.1587,-0.1174,0.447,0.134,-0.498,38.86,-0.062,0.28,-0.17,-0.087,-0.961,-0.149,29.37,-23.18,-73.8,0.7614000000000001,-0.6428,-0.0236,-0.0794,0.03,-0.021,-0.023,38.91,-0.026,-0.02,0.0,-0.041,-0.994,0.038,68.89,-13.59,-72.66,0.6857000000000001,-0.7161000000000001,0.1051,0.0763,0.007,-0.003,0.009,0.0,0.0,0.0,0.0,0.0,0.0,-0.0067110061645507,-0.0005750656127929,0.036630630493164,0.036630630493164,0.0036630630493164,0.0256414413452148,0.0,0.0,0.0,0.0
2025-11-06 18:32:56.173,48.075,-0.062,0.094,-0.002,-0.238,-0.952,0.036,12.27,-6.0200000000000005,-50.21,0.8522000000000001,-0.4815,-0.1642,-0.1218,0.384,0.085,-0.491,38.86,-0.062,0.28,-0.17,-0.087,-0.961,-0.149,29.37,-23.18,-73.8,0.7614000000000001,-0.6428,-0.0236,-0.0794,0.03,-0.021,-0.023,38.91,-0.026,-0.02,0.0,-0.041,-0.994,0.038,68.89,-13.59,-72.66,0.6857000000000001,-0.7161000000000001,0.1051,0.0763,0.007,-0.003,0.009,0.0,0.0,0.0,0.0,0.0,0.0,-0.0067110061645507,-0.0005750656127929,0.036630630493164,0.036630630493164,0.0036630630493164,0.0256414413452148,0.0,0.0,0.0,0.0
2025-11-06 18:32:56.173,48.105,-0.078,0.007,0.012,-0.25,-0.971,0.067,12.1,-5.49,-49.54,0.8517,-0.4825,-0.1636,-0.1222,0.394,0.104,-0.521,38.86,-0.062,0.28,-0.17,-0.087,-0.961,-0.149,29.37,-23.18,-73.8,0.7614000000000001,-0.6428,-0.0236,-0.0794,0.03,-0.021,-0.023,38.91,-0.026,-0.02,0.0,-0.041,-0.994,0.038,68.89,-13.59,-72.66,0.6857000000000001,-0.7161000000000001,0.1051,0.0763,0.007,-0.003,0.009,0.0,0.0,0.0,0.0,0.0,0.0,-0.0067110061645507,-0.0005750656127929,0.036630630493164,0.036630630493164,0.0036630630493164,0.0256414413452148,0.0,0.0,0.0,0.0
2025-11-06 18:32:56.173,48.12,-0.078,0.0,0.007,-0.275,-0.977,0.077,12.16,-5.37,-50.01,0.8507,-0.4846,-0.1624,-0.1223,0.416,0.108,-0.527,38.86,-0.062,0.28,-0.17,-0.087,-0.961,-0.149,29.37,-23.18,-73.8,0.7614000000000001,-0.6428,-0.0236,-0.0794,0.03,-0.021,-0.023,38.91,-0.026,-0.02,0.0,-0.041,-0.994,0.038,68.89,-13.59,-72.66,0.6857000000000001,-0.7161000000000001,0.1051,0.0763,0.007,-0.003,0.009,0.0,0.0,0.0,0.0,0.0,0.0,-0.0067110061645507,-0.0005750656127929,0.036630630493164,0.036630630493164,0.0036630630493164,0.0256414413452148,0.0,0.0,0.0,0.0
2025-11-06 18:32:56.173,48.115,-0.077,-0.002,0.008,-0.267,-0.978,0.074,12.16,-5.37,-50.01,0.8509,-0.4841,-0.1627,-0.1222,0.408,0.109,-0.524,38.86,-0.062,0.28,-0.17,-0.087,-0.961,-0.149,29.37,-23.18,-73.8,0.7614000000000001,-0.6428,-0.0236,-0.0794,0.03,-0.021,-0.023,38.91,-0.026,-0.02,0.0,-0.041,-0.994,0.038,68.89,-13.59,-72.66,0.6857000000000001,-0.7161000000000001,0.1051,0.0763,0.007,-0.003,0.009,0.0,0.0,0.0,0.0,0.0,0.0,-0.0067110061645507,-0.0005750656127929,0.036630630493164,0.036630630493164,0.0036630630493164,0.0256414413452148,0.0,0.0,0.0,0.0
2025-11-06 18:32:56.173,48.11,-0.08,0.0,0.01,-0.26,-0.977,0.069,12.1,-5.49,-49.54,0.8512000000000001,-0.4835,-0.1631,-0.1222,0.402,0.108,-0.52,38.86,-0.062,0.28,-0.17,-0.087,-0.961,-0.149,29.37,-23.18,-73.8,0.7614000000000001,-0.6428,-0.0236,-0.0794,0.03,-0.021,-0.023,38.91,-0.026,-0.02,0.0,-0.041,-0.994,0.038,68.89,-13.59,-72.66,0.6857000000000001,-0.7161000000000001,0.1051,0.0763,0.007,-0.003,0.009,0.0,0.0,0.0,0.0,0.0,0.0,-0.0067110061645507,-0.0005750656127929,0.036630630493164,0.036630630493164,0.0036630630493164,0.0256414413452148,0.0,0.0,0.0,0.0
2025-11-06 18:32:56.173,48.085,-0.071,0.044,0.004,-0.238,-0.959,0.046,12.27,-6.0200000000000005,-50.21,0.8522000000000001,-0.4813,-0.1643,-0.122,0.384,0.092,-0.501,38.86,-0.062,0.28,-0.17,-0.087,-0.961,-0.149,29.37,-23.18,-73.8,0.7614000000000001,-0.6428,-0.0236,-0.0794,0.03,-0.021,-0.023,38.91,-0.026,-0.02,0.0,-0.041,-0.994,0.038,68.89,-13.59,-72.66,0.6857000000000001,-0.7161000000000001,0.1051,0.0763,0.007,-0.003,0.009,0.0,0.0,0.0,0.0,0.0,0.0,-0.0067110061645507,-0.0005750656127929,0.036630630493164,0.036630630493164,0.0036630630493164,0.0256414413452148,0.0,0.0,0.0,0.0
2025-11-06 18:32:56.173,48.09,-0.075,0.033,0.005,-0.239,-0.962,0.05,12.01,-5.34,-49.86,0.8522000000000001,-0.4814,-0.1643,-0.1221,0.384,0.096,-0.505,38.86,-0.062,0.28,-0.17,-0.087,-0.961,-0.149,29.37,-23.18,-73.8,0.7614000000000001,-0.6428,-0.0236,-0.0794,0.03,-0.021,-0.023,38.91,-0.026,-0.02,0.0,-0.041,-0.994,0.038,68.89,-13.59,-72.66,0.6857000000000001,-0.7161000000000001,0.1051,0.0763,0.007,-0.003,0.009,0.0,0.0,0.0,0.0,0.0,0.0,-0.0067110061645507,-0.0005750656127929,0.036630630493164,0.036630630493164,0.0036630630493164,0.0256414413452148,0.0,0.0,0.0,0.0
2025-11-06 18:32:56.173,48.125,-0.078,0.0,0.004,-0.282,-0.977,0.081,12.16,-5.37,-50.01,0.8505,-0.4849,-0.1621,-0.1224,0.422,0.107,-0.531,38.86,-0.062,0.28,-0.17,-0.087,-0.961,-0.149,29.37,-23.18,-73.8,0.7614000000000001,-0.6428,-0.0236,-0.0794,0.03,-0.021,-0.023,38.91,-0.026,-0.02,0.0,-0.041,-0.994,0.038,68.89,-13.59,-72.66,0.6857000000000001,-0.7161000000000001,0.1051,0.0763,0.007,-0.003,0.009,0.0,0.0,0.0,0.0,0.0,0.0,-0.0067110061645507,-0.0005750656127929,0.036630630493164,0.036630630493164,0.0036630630493164,0.0256414413452148,0.0,0.0,0.0,0.0
2025-11-06 18:32:56.173,48.1,-0.08,0.02,0.01,-0.245,-0.968,0.06,12.01,-5.34,-49.86,0.8520000000000001,-0.4817,-0.164,-0.1222,0.389,0.101,-0.514,38.86,-0.062,0.28,-0.17,-0.087,-0.961,-0.149,29.37,-23.18,-73.8,0.7614000000000001,-0.6428,-0.0236,-0.0794,0.03,-0.021,-0.023,38.91,-0.026,-0.02,0.0,-0.041,-0.994,0.038,68.89,-13.59,-72.66,0.6857000000000001,-0.7161000000000001,0.1051,0.0763,0.007,-0.003,0.009,0.0,0.0,0.0,0.0,0.0,0.0,-0.0067110061645507,-0.0005750656127929,0.036630630493164,0.036630630493164,0.0036630630493164,0.0256414413452148,0.0,0.0,0.0,0.0
2025-11-06 18:32:56.173,48.13,-0.071,0.006,0.001,-0.287,-0.977,0.084,12.1,-5.8100000000000005,-49.6,0.8504,-0.4852,-0.1619,-0.1225,0.426,0.107,-0.532,38.86,-0.062,0.28,-0.17,-0.087,-0.961,-0.149,29.37,-23.18,-73.8,0.7614000000000001,-0.6428,-0.0236,-0.0794,0.03,-0.021,-0.023,38.91,-0.026,-0.02,0.0,-0.041,-0.994,0.038,68.89,-13.59,-72.66,0.6857000000000001,-0.7161000000000001,0.1051,0.0763,0.007,-0.003,0.009,0.0,0.0,0.0,0.0,0.0,0.0,-0.0067110061645507,-0.0005750656127929,0.036630630493164,0.036630630493164,0.0036630630493164,0.0256414413452148,0.0,0.0,0.0,0.0
2025-11-06 18:32:56.173,48.15,-0.044,-0.01,0.0,-0.299,-0.965,0.075,12.65,-5.61,-49.66,0.8482000000000001,-0.4895,-0.1596,-0.1238,0.432,0.09,-0.518,38.86,-0.062,0.28,-0.17,-0.087,-0.961,-0.149,29.37,-23.18,-73.8,0.7614000000000001,-0.6428,-0.0236,-0.0794,0.03,-0.021,-0.023,38.91,-0.026,-0.02,0.0,-0.041,-0.994,0.038,68.89,-13.59,-72.66,0.6857000000000001,-0.7161000000000001,0.1051,0.0763,0.007,-0.003,0.009,0.0,0.0,0.0,0.0,0.0,0.0,-0.0067110061645507,-0.0005750656127929,0.036630630493164,0.036630630493164,0.0036630630493164,0.0256414413452148,0.0,0.0,0.0,0.0
2025-11-06 18:32:56.173,48.095,-0.08,0.026,0.009,-0.242,-0.965,0.055,12.01,-5.34,-49.86,0.8522000000000001,-0.4815,-0.1642,-0.1222,0.387,0.099,-0.51,38.86,-0.062,0.28,-0.17,-0.087,-0.961,-0.149,29.37,-23.18,-73.8,0.7614000000000001,-0.6428,-0.0236,-0.0794,0.03,-0.021,-0.023,38.91,-0.026,-0.02,0.0,-0.041,-0.994,0.038,68.89,-13.59,-72.66,0.6857000000000001,-0.7161000000000001,0.1051,0.0763,0.007,-0.003,0.009,0.0,0.0,0.0,0.0,0.0,0.0,-0.0067110061645507,-0.0005750656127929,0.036630630493164,0.036630630493164,0.0036630630493164,0.0256414413452148,0.0,0.0,0.0,0.0
2025-11-06 18:32:56.173,48.145,-0.048,-0.005,-0.002,-0.298,-0.969,0.078,12.65,-5.61,-49.66,0.8491000000000001,-0.4877,-0.1605,-0.1233,0.434,0.096,-0.523,38.86,-0.062,0.28,-0.17,-0.087,-0.961,-0.149,29.37,-23.18,-73.8,0.7614000000000001,-0.6428,-0.0236,-0.0794,0.03,-0.021,-0.023,38.91,-0.026,-0.02,0.0,-0.041,-0.994,0.038,68.89,-13.59,-72.66,0.6857000000000001,-0.7161000000000001,0.1051,0.0763,0.007,-0.003,0.009,0.0,0.0,0.0,0.0,0.0,0.0,-0.0067110061645507,-0.0005750656127929,0.036630630493164,0.036630630493164,0.0036630630493164,0.0256414413452148,0.0,0.0,0.0,0.0
2025-11-06 18:32:56.173,48.14,-0.054,-0.003,-0.003,-0.296,-0.969,0.079,12.65,-5.61,-49.66,0.8496,-0.4868,-0.161,-0.123,0.433,0.097,-0.526,38.86,-0.062,0.28,-0.17,-0.087,-0.961,-0.149,29.37,-23.18,-73.8,0.7614000000000001,-0.6428,-0.0236,-0.0794,0.03,-0.021,-0.023,38.91,-0.026,-0.02,0.0,-0.041,-0.994,0.038,68.89,-13.59,-72.66,0.6857000000000001,-0.7161000000000001,0.1051,0.0763,0.007,-0.003,0.009,0.0,0.0,0.0,0.0,0.0,0.0,-0.0067110061645507,-0.0005750656127929,0.036630630493164,0.036630630493164,0.0036630630493164,0.0256414413452148,0.0,0.0,0.0,0.0
2025-11-06 18:32:56.173,48.18,-0.038,-0.018,0.015,-0.298,-0.959,0.069,12.1,-6.46,-50.45,0.8436,-0.4979,-0.155,-0.1272,0.416,0.074,-0.498,38.86,-0.062,0.28,-0.17,-0.087,-0.961,-0.149,29.37,-23.18,-73.8,0.7614000000000001,-0.6428,-0.0236,-0.0794,0.03,-0.021,-0.023,38.91,-0.026,-0.02,0.0,-0.041,-0.994,0.038,68.89,-13.59,-72.66,0.6857000000000001,-0.7161000000000001,0.1051,0.0763,0.007,-0.003,0.009,0.0,0.0,0.0,0.0,0.0,0.0,-0.0067110061645507,-0.0005750656127929,0.036630630493164,0.036630630493164,0.0036630630493164,0.0256414413452148,0.0,0.0,0.0,0.0
2025-11-06 18:32:56.173,48.175,-0.036,-0.021,0.013,-0.3,-0.958,0.07,12.68,-6.16,-49.51,0.8441000000000001,-0.4971,-0.1555,-0.1268,0.42,0.073,-0.5,38.86,-0.062,0.28,-0.17,-0.087,-0.961,-0.149,29.37,-23.18,-73.8,0.7614000000000001,-0.6428,-0.0236,-0.0794,0.03,-0.021,-0.023,38.91,-0.026,-0.02,0.0,-0.041,-0.994,0.038,68.89,-13.59,-72.66,0.6857000000000001,-0.7161000000000001,0.1051,0.0763,0.007,-0.003,0.009,0.0,0.0,0.0,0.0,0.0,0.0,-0.0067110061645507,-0.0005750656127929,0.036630630493164,0.036630630493164,0.0036630630493164,0.0256414413452148,0.0,0.0,0.0,0.0
2025-11-06 18:32:56.173,48.17,-0.036,-0.013,0.01,-0.302,-0.96,0.07,12.68,-6.16,-49.51,0.8445,-0.4963,-0.156,-0.1265,0.423,0.077,-0.502,38.86,-0.062,0.28,-0.17,-0.087,-0.961,-0.149,29.37,-23.18,-73.8,0.7614000000000001,-0.6428,-0.0236,-0.0794,0.03,-0.021,-0.023,38.91,-0.026,-0.02,0.0,-0.041,-0.994,0.038,68.89,-13.59,-72.66,0.6857000000000001,-0.7161000000000001,0.1051,0.0763,0.007,-0.003,0.009,0.0,0.0,0.0,0.0,0.0,0.0,-0.0067110061645507,-0.0005750656127929,0.036630630493164,0.036630630493164,0.0036630630493164,0.0256414413452148,0.0,0.0,0.0,0.0
2025-11-06 18:32:56.173,48.135,-0.06,0.004,0.0,-0.293,-0.972,0.08,12.1,-5.8100000000000005,-49.6,0.8501000000000001,-0.4858,-0.1616,-0.1227,0.432,0.101,-0.528,38.86,-0.062,0.28,-0.17,-0.087,-0.961,-0.149,29.37,-23.18,-73.8,0.7614000000000001,-0.6428,-0.0236,-0.0794,0.03,-0.021,-0.023,38.91,-0.026,-0.02,0.0,-0.041,-0.994,0.038,68.89,-13.59,-72.66,0.6857000000000001,-0.7161000000000001,0.1051,0.0763,0.007,-0.003,0.009,0.0,0.0,0.0,0.0,0.0,0.0,-0.0067110061645507,-0.0005750656127929,0.036630630493164,0.036630630493164,0.0036630630493164,0.0256414413452148,0.0,0.0,0.0,0.0
2025-11-06 18:32:56.173,48.16,-0.038,-0.013,0.003,-0.3,-0.963,0.072,12.3,-6.13,-49.92,0.8464,-0.4929,-0.1578,-0.1251,0.428,0.084,-0.51,38.86,-0.062,0.28,-0.17,-0.087,-0.961,-0.149,29.37,-23.18,-73.8,0.7614000000000001,-0.6428,-0.0236,-0.0794,0.03,-0.021,-0.023,38.91,-0.026,-0.02,0.0,-0.041,-0.994,0.038,68.89,-13.59,-72.66,0.6857000000000001,-0.7161000000000001,0.1051,0.0763,0.007,-0.003,0.009,0.0,0.0,0.0,0.0,0.0,0.0,-0.0067110061645507,-0.0005750656127929,0.036630630493164,0.036630630493164,0.0036630630493164,0.0256414413452148,0.0,0.0,0.0,0.0
2025-11-06 18:32:56.173,48.155,-0.045,-0.016,0.001,-0.301,-0.965,0.074,12.3,-6.13,-49.92,0.8474,-0.491,-0.1588,-0.1244,0.431,0.088,-0.514,38.86,-0.062,0.28,-0.17,-0.087,-0.961,-0.149,29.37,-23.18,-73.8,0.7614000000000001,-0.6428,-0.0236,-0.0794,0.03,-0.021,-0.023,38.91,-0.026,-0.02,0.0,-0.041,-0.994,0.038,68.89,-13.59,-72.66,0.6857000000000001,-0.7161000000000001,0.1051,0.0763,0.007,-0.003,0.009,0.0,0.0,0.0,0.0,0.0,0.0,-0.0067110061645507,-0.0005750656127929,0.036630630493164,0.036630630493164,0.0036630630493164,0.0256414413452148,0.0,0.0,0.0,0.0
2025-11-06 18:32:56.173,48.08,-0.066,0.064,0.0,-0.238,-0.955,0.041,12.27,-6.0200000000000005,-50.21,0.8522000000000001,-0.4814,-0.1643,-0.1219,0.383,0.089,-0.496,38.86,-0.062,0.28,-0.17,-0.087,-0.961,-0.149,29.37,-23.18,-73.8,0.7614000000000001,-0.6428,-0.0236,-0.0794,0.03,-0.021,-0.023,38.91,-0.026,-0.02,0.0,-0.041,-0.994,0.038,68.89,-13.59,-72.66,0.6857000000000001,-0.7161000000000001,0.1051,0.0763,0.007,-0.003,0.009,0.0,0.0,0.0,0.0,0.0,0.0,-0.0067110061645507,-0.0005750656127929,0.036630630493164,0.036630630493164,0.0036630630493164,0.0256414413452148,0.0,0.0,0.0,0.0
2025-11-06 18:32:56.173,48.165,-0.034,-0.012,0.004,-0.302,-0.963,0.071,12.68,-6.16,-49.51,0.8453,-0.4949,-0.1568,-0.1259,0.425,0.082,-0.506,38.86,-0.062,0.28,-0.17,-0.087,-0.961,-0.149,29.37,-23.18,-73.8,0.7614000000000001,-0.6428,-0.0236,-0.0794,0.03,-0.021,-0.023,38.91,-0.026,-0.02,0.0,-0.041,-0.994,0.038,68.89,-13.59,-72.66,0.6857000000000001,-0.7161000000000001,0.1051,0.0763,0.007,-0.003,0.009,0.0,0.0,0.0,0.0,0.0,0.0,-0.0067110061645507,-0.0005750656127929,0.036630630493164,0.036630630493164,0.0036630630493164,0.0256414413452148,0.0,0.0,0.0,0.0
2025-11-06 18:32:56.175,48.235,-0.03,-0.01,0.019,-0.279,-0.971,0.062,11.66,-5.61,-49.86,0.8366,-0.5108,-0.1478,-0.1313,0.376,0.073,-0.469,38.86,-0.062,0.28,-0.17,-0.087,-0.961,-0.149,29.37,-23.18,-73.8,0.7614000000000001,-0.6428,-0.0236,-0.0794,0.03,-0.021,-0.023,39.025,0.0,-0.015,-0.007,-0.03,-0.994,0.028,68.54,-13.56,-72.87,0.6912,-0.7107,0.1043,0.0776,-0.003,-0.004,0.003,0.0,0.0,0.0,0.0,0.0,0.0,-0.0067110061645507,-0.0005750656127929,0.036630630493164,0.036630630493164,0.0036630630493164,0.0256414413452148,0.0,0.0,0.0,0.0
2025-11-06 18:32:56.175,48.19,-0.034,-0.011,0.022,-0.296,-0.958,0.065,11.98,-5.7,-49.81,0.8430000000000001,-0.4992,-0.1542,-0.1278,0.412,0.071,-0.492,38.86,-0.062,0.28,-0.17,-0.087,-0.961,-0.149,29.37,-23.18,-73.8,0.7614000000000001,-0.6428,-0.0236,-0.0794,0.03,-0.021,-0.023,39.025,0.0,-0.015,-0.007,-0.03,-0.994,0.028,68.54,-13.56,-72.87,0.6912,-0.7107,0.1043,0.0776,-0.003,-0.004,0.003,0.0,0.0,0.0,0.0,0.0,0.0,-0.0067110061645507,-0.0005750656127929,0.036630630493164,0.036630630493164,0.0036630630493164,0.0256414413452148,0.0,0.0,0.0,0.0
2025-11-06 18:32:56.175,48.195,-0.033,-0.006,0.027,-0.293,-0.958,0.064,11.98,-5.7,-49.81,0.8427,-0.4997,-0.1538,-0.1281,0.407,0.07,-0.49,38.86,-0.062,0.28,-0.17,-0.087,-0.961,-0.149,29.37,-23.18,-73.8,0.7614000000000001,-0.6428,-0.0236,-0.0794,0.03,-0.021,-0.023,39.025,0.0,-0.015,-0.007,-0.03,-0.994,0.028,68.54,-13.56,-72.87,0.6912,-0.7107,0.1043,0.0776,-0.003,-0.004,0.003,0.0,0.0,0.0,0.0,0.0,0.0,-0.0067110061645507,-0.0005750656127929,0.036630630493164,0.036630630493164,0.0036630630493164,0.0256414413452148,0.0,0.0,0.0,0.0
2025-11-06 18:32:56.175,48.2,-0.028,-0.013,0.027,-0.291,-0.962,0.063,11.98,-5.7,-49.81,0.8421000000000001,-0.5007,-0.1532,-0.1285,0.404,0.074,-0.487,38.86,-0.062,0.28,-0.17,-0.087,-0.961,-0.149,29.37,-23.18,-73.8,0.7614000000000001,-0.6428,-0.0236,-0.0794,0.03,-0.021,-0.023,39.025,0.0,-0.015,-0.007,-0.03,-0.994,0.028,68.54,-13.56,-72.87,0.6912,-0.7107,0.1043,0.0776,-0.003,-0.004,0.003,0.0,0.0,0.0,0.0,0.0,0.0,-0.0067110061645507,-0.0005750656127929,0.036630630493164,0.036630630493164,0.0036630630493164,0.0256414413452148,0.0,0.0,0.0,0.0
2025-11-06 18:32:56.175,48.205,-0.026,-0.019,0.029,-0.29,-0.965,0.064,11.83,-6.0200000000000005,-50.27,0.8414,-0.502,-0.1525,-0.1289,0.4,0.075,-0.486,38.86,-0.062,0.28,-0.17,-0.087,-0.961,-0.149,29.37,-23.18,-73.8,0.7614000000000001,-0.6428,-0.0236,-0.0794,0.03,-0.021,-0.023,39.025,0.0,-0.015,-0.007,-0.03,-0.994,0.028,68.54,-13.56,-72.87,0.6912,-0.7107,0.1043,0.0776,-0.003,-0.004,0.003,0.0,0.0,0.0,0.0,0.0,0.0,-0.0067110061645507,-0.0005750656127929,0.036630630493164,0.036630630493164,0.0036630630493164,0.0256414413452148,0.0,0.0,0.0,0.0
2025-11-06 18:32:56.175,48.21,-0.023,-0.021,0.029,-0.286,-0.966,0.065,11.83,-6.0200000000000005,-50.27,0.8407,-0.5034000000000001,-0.1518,-0.1293,0.394,0.075,-0.485,38.86,-0.062,0.28,-0.17,-0.087,-0.961,-0.149,29.37,-23.18,-73.8,0.7614000000000001,-0.6428,-0.0236,-0.0794,0.03,-0.021,-0.023,39.025,0.0,-0.015,-0.007,-0.03,-0.994,0.028,68.54,-13.56,-72.87,0.6912,-0.7107,0.1043,0.0776,-0.003,-0.004,0.003,0.0,0.0,0.0,0.0,0.0,0.0,-0.0067110061645507,-0.0005750656127929,0.036630630493164,0.036630630493164,0.0036630630493164,0.0256414413452148,0.0,0.0,0.0,0.0
2025-11-06 18:32:56.175,48.22,-0.026,-0.021,0.027,-0.283,-0.968,0.065,12.13,-5.7,-50.19,0.8391000000000001,-0.5061,-0.1503,-0.1301,0.387,0.074,-0.481,38.86,-0.062,0.28,-0.17,-0.087,-0.961,-0.149,29.37,-23.18,-73.8,0.7614000000000001,-0.6428,-0.0236,-0.0794,0.03,-0.021,-0.023,39.025,0.0,-0.015,-0.007,-0.03,-0.994,0.028,68.54,-13.56,-72.87,0.6912,-0.7107,0.1043,0.0776,-0.003,-0.004,0.003,0.0,0.0,0.0,0.0,0.0,0.0,-0.0067110061645507,-0.0005750656127929,0.036630630493164,0.036630630493164,0.0036630630493164,0.0256414413452148,0.0,0.0,0.0,0.0
2025-11-06 18:32:56.175,48.305,-0.053,-0.098,0.018,-0.274,-0.968,0.049,12.18,-5.99,-49.6,0.8325,-0.5185000000000001,-0.142,-0.1335,0.355,0.061,-0.443,38.86,-0.062,0.28,-0.17,-0.087,-0.961,-0.149,29.37,-23.18,-73.8,0.7614000000000001,-0.6428,-0.0236,-0.0794,0.03,-0.021,-0.023,39.025,0.0,-0.015,-0.007,-0.03,-0.994,0.028,68.54,-13.56,-72.87,0.6912,-0.7107,0.1043,0.0776,-0.003,-0.004,0.003,0.0,0.0,0.0,0.0,0.0,0.0,-0.0067110061645507,-0.0005750656127929,0.036630630493164,0.036630630493164,0.0036630630493164,0.0256414413452148,0.0,0.0,0.0,0.0
2025-11-06 18:32:56.175,48.225,-0.025,-0.015,0.023,-0.281,-0.969,0.065,12.13,-5.7,-50.19,0.8383,-0.5077,-0.1494,-0.1305,0.383,0.073,-0.478,38.86,-0.062,0.28,-0.17,-0.087,-0.961,-0.149,29.37,-23.18,-73.8,0.7614000000000001,-0.6428,-0.0236,-0.0794,0.03,-0.021,-0.023,39.025,0.0,-0.015,-0.007,-0.03,-0.994,0.028,68.54,-13.56,-72.87,0.6912,-0.7107,0.1043,0.0776,-0.003,-0.004,0.003,0.0,0.0,0.0,0.0,0.0,0.0,-0.0067110061645507,-0.0005750656127929,0.036630630493164,0.036630630493164,0.0036630630493164,0.0256414413452148,0.0,0.0,0.0,0.0
2025-11-06 18:32:56.175,48.23,-0.027,-0.01,0.021,-0.281,-0.97,0.062,11.66,-5.61,-49.86,0.8374,-0.5093,-0.1486,-0.1309,0.38,0.073,-0.472,38.86,-0.062,0.28,-0.17,-0.087,-0.961,-0.149,29.37,-23.18,-73.8,0.7614000000000001,-0.6428,-0.0236,-0.0794,0.03,-0.021,-0.023,39.025,0.0,-0.015,-0.007,-0.03,-0.994,0.028,68.54,-13.56,-72.87,0.6912,-0.7107,0.1043,0.0776,-0.003,-0.004,0.003,0.0,0.0,0.0,0.0,0.0,0.0,-0.0067110061645507,-0.0005750656127929,0.036630630493164,0.036630630493164,0.0036630630493164,0.0256414413452148,0.0,0.0,0.0,0.0
2025-11-06 18:32:56.175,48.215,-0.024,-0.019,0.027,-0.285,-0.967,0.066,12.13,-5.7,-50.19,0.8399000000000001,-0.5048,-0.151,-0.1297,0.391,0.074,-0.484,38.86,-0.062,0.28,-0.17,-0.087,-0.961,-0.149,29.37,-23.18,-73.8,0.7614000000000001,-0.6428,-0.0236,-0.0794,0.03,-0.021,-0.023,39.025,0.0,-0.015,-0.007,-0.03,-0.994,0.028,68.54,-13.56,-72.87,0.6912,-0.7107,0.1043,0.0776,-0.003,-0.004,0.003,0.0,0.0,0.0,0.0,0.0,0.0,-0.0067110061645507,-0.0005750656127929,0.036630630493164,0.036630630493164,0.0036630630493164,0.0256414413452148,0.0,0.0,0.0,0.0
2025-11-06 18:32:56.175,48.27,-0.05,-0.015,0.011,-0.274,-0.977,0.052,11.89,-5.87,-49.4,0.8341000000000001,-0.5152,-0.1452,-0.1326,0.363,0.073,-0.452,38.86,-0.062,0.28,-0.17,-0.087,-0.961,-0.149,29.37,-23.18,-73.8,0.7614000000000001,-0.6428,-0.0236,-0.0794,0.03,-0.021,-0.023,39.025,0.0,-0.015,-0.007,-0.03,-0.994,0.028,68.54,-13.56,-72.87,0.6912,-0.7107,0.1043,0.0776,-0.003,-0.004,0.003,0.0,0.0,0.0,0.0,0.0,0.0,-0.0067110061645507,-0.0005750656127929,0.036630630493164,0.036630630493164,0.0036630630493164,0.0256414413452148,0.0,0.0,0.0,0.0
2025-11-06 18:32:56.175,48.24,-0.031,-0.002,0.016,-0.278,-0.974,0.06,11.83,-5.9,-49.45,0.8359000000000001,-0.5119,-0.1472,-0.1316,0.372,0.074,-0.465,38.86,-0.062,0.28,-0.17,-0.087,-0.961,-0.149,29.37,-23.18,-73.8,0.7614000000000001,-0.6428,-0.0236,-0.0794,0.03,-0.021,-0.023,39.025,0.0,-0.015,-0.007,-0.03,-0.994,0.028,68.54,-13.56,-72.87,0.6912,-0.7107,0.1043,0.0776,-0.003,-0.004,0.003,0.0,0.0,0.0,0.0,0.0,0.0,-0.0067110061645507,-0.0005750656127929,0.036630630493164,0.036630630493164,0.0036630630493164,0.0256414413452148,0.0,0.0,0.0,0.0
2025-11-06 18:32:56.175,48.295,-0.054,-0.078,0.017,-0.274,-0.975,0.044,12.62,-5.43,-49.66,0.8329000000000001,-0.5176000000000001,-0.143,-0.1333,0.357,0.069,-0.439,38.86,-0.062,0.28,-0.17,-0.087,-0.961,-0.149,29.37,-23.18,-73.8,0.7614000000000001,-0.6428,-0.0236,-0.0794,0.03,-0.021,-0.023,39.025,0.0,-0.015,-0.007,-0.03,-0.994,0.028,68.54,-13.56,-72.87,0.6912,-0.7107,0.1043,0.0776,-0.003,-0.004,0.003,0.0,0.0,0.0,0.0,0.0,0.0,-0.0067110061645507,-0.0005750656127929,0.036630630493164,0.036630630493164,0.0036630630493164,0.0256414413452148,0.0,0.0,0.0,0.0
2025-11-06 18:32:56.175,48.285,-0.052,-0.06,0.015,-0.276,-0.978,0.044,11.78,-6.22,-49.66,0.8333,-0.5167,-0.1439,-0.1331,0.361,0.073,-0.441,38.86,-0.062,0.28,-0.17,-0.087,-0.961,-0.149,29.37,-23.18,-73.8,0.7614000000000001,-0.6428,-0.0236,-0.0794,0.03,-0.021,-0.023,39.025,0.0,-0.015,-0.007,-0.03,-0.994,0.028,68.54,-13.56,-72.87,0.6912,-0.7107,0.1043,0.0776,-0.003,-0.004,0.003,0.0,0.0,0.0,0.0,0.0,0.0,-0.0067110061645507,-0.0005750656127929,0.036630630493164,0.036630630493164,0.0036630630493164,0.0256414413452148,0.0,0.0,0.0,0.0
2025-11-06 18:32:56.175,48.275,-0.049,-0.028,0.011,-0.273,-0.976,0.051,11.89,-5.87,-49.4,0.8338,-0.5159,-0.1447,-0.1328,0.36,0.072,-0.449,38.86,-0.062,0.28,-0.17,-0.087,-0.961,-0.149,29.37,-23.18,-73.8,0.7614000000000001,-0.6428,-0.0236,-0.0794,0.03,-0.021,-0.023,39.025,0.0,-0.015,-0.007,-0.03,-0.994,0.028,68.54,-13.56,-72.87,0.6912,-0.7107,0.1043,0.0776,-0.003,-0.004,0.003,0.0,0.0,0.0,0.0,0.0,0.0,-0.0067110061645507,-0.0005750656127929,0.036630630493164,0.036630630493164,0.0036630630493164,0.0256414413452148,0.0,0.0,0.0,0.0
2025-11-06 18:32:56.175,48.28,-0.05,-0.039,0.013,-0.272,-0.978,0.046,11.78,-6.22,-49.66,0.8335,-0.5164,-0.1443,-0.133,0.359,0.073,-0.443,38.86,-0.062,0.28,-0.17,-0.087,-0.961,-0.149,29.37,-23.18,-73.8,0.7614000000000001,-0.6428,-0.0236,-0.0794,0.03,-0.021,-0.023,39.025,0.0,-0.015,-0.007,-0.03,-0.994,0.028,68.54,-13.56,-72.87,0.6912,-0.7107,0.1043,0.0776,-0.003,-0.004,0.003,0.0,0.0,0.0,0.0,0.0,0.0,-0.0067110061645507,-0.0005750656127929,0.036630630493164,0.036630630493164,0.0036630630493164,0.0256414413452148,0.0,0.0,0.0,0.0
2025-11-06 18:32:56.175,48.265,-0.051,-0.011,0.01,-0.274,-0.978,0.056,11.89,-5.87,-49.4,0.8345,-0.5146000000000001,-0.1456,-0.1324,0.364,0.075,-0.456,38.86,-0.062,0.28,-0.17,-0.087,-0.961,-0.149,29.37,-23.18,-73.8,0.7614000000000001,-0.6428,-0.0236,-0.0794,0.03,-0.021,-0.023,39.025,0.0,-0.015,-0.007,-0.03,-0.994,0.028,68.54,-13.56,-72.87,0.6912,-0.7107,0.1043,0.0776,-0.003,-0.004,0.003,0.0,0.0,0.0,0.0,0.0,0.0,-0.0067110061645507,-0.0005750656127929,0.036630630493164,0.036630630493164,0.0036630630493164,0.0256414413452148,0.0,0.0,0.0,0.0
2025-11-06 18:32:56.175,48.26,-0.047,0.0,0.01,-0.274,-0.979,0.057,12.01,-5.37,-49.81,0.8347,-0.5141,-0.1459,-0.1323,0.365,0.076,-0.458,38.86,-0.062,0.28,-0.17,-0.087,-0.961,-0.149,29.37,-23.18,-73.8,0.7614000000000001,-0.6428,-0.0236,-0.0794,0.03,-0.021,-0.023,39.025,0.0,-0.015,-0.007,-0.03,-0.994,0.028,68.54,-13.56,-72.87,0.6912,-0.7107,0.1043,0.0776,-0.003,-0.004,0.003,0.0,0.0,0.0,0.0,0.0,0.0,-0.0067110061645507,-0.0005750656127929,0.036630630493164,0.036630630493164,0.0036630630493164,0.0256414413452148,0.0,0.0,0.0,0.0
2025-11-06 18:32:56.175,48.255,-0.044,0.002,0.009,-0.276,-0.98,0.058,12.01,-5.37,-49.81,0.8350000000000001,-0.5136000000000001,-0.1462,-0.1321,0.368,0.078,-0.46,38.86,-0.062,0.28,-0.17,-0.087,-0.961,-0.149,29.37,-23.18,-73.8,0.7614000000000001,-0.6428,-0.0236,-0.0794,0.03,-0.021,-0.023,39.025,0.0,-0.015,-0.007,-0.03,-0.994,0.028,68.54,-13.56,-72.87,0.6912,-0.7107,0.1043,0.0776,-0.003,-0.004,0.003,0.0,0.0,0.0,0.0,0.0,0.0,-0.0067110061645507,-0.0005750656127929,0.036630630493164,0.036630630493164,0.0036630630493164,0.0256414413452148,0.0,0.0,0.0,0.0
2025-11-06 18:32:56.175,48.25,-0.039,-0.001,0.011,-0.277,-0.977,0.058,11.83,-5.9,-49.45,0.8352,-0.5132,-0.1465,-0.1319,0.369,0.076,-0.461,38.86,-0.062,0.28,-0.17,-0.087,-0.961,-0.149,29.37,-23.18,-73.8,0.7614000000000001,-0.6428,-0.0236,-0.0794,0.03,-0.021,-0.023,39.025,0.0,-0.015,-0.007,-0.03,-0.994,0.028,68.54,-13.56,-72.87,0.6912,-0.7107,0.1043,0.0776,-0.003,-0.004,0.003,0.0,0.0,0.0,0.0,0.0,0.0,-0.0067110061645507,-0.0005750656127929,0.036630630493164,0.036630630493164,0.0036630630493164,0.0256414413452148,0.0,0.0,0.0,0.0
2025-11-06 18:32:56.175,48.185,-0.036,-0.014,0.018,-0.296,-0.958,0.068,12.1,-6.46,-50.45,0.8433,-0.4985,-0.1546,-0.1275,0.412,0.072,-0.495,38.86,-0.062,0.28,-0.17,-0.087,-0.961,-0.149,29.37,-23.18,-73.8,0.7614000000000001,-0.6428,-0.0236,-0.0794,0.03,-0.021,-0.023,39.025,0.0,-0.015,-0.007,-0.03,-0.994,0.028,68.54,-13.56,-72.87,0.6912,-0.7107,0.1043,0.0776,-0.003,-0.004,0.003,0.0,0.0,0.0,0.0,0.0,0.0,-0.0067110061645507,-0.0005750656127929,0.036630630493164,0.036630630493164,0.0036630630493164,0.0256414413452148,0.0,0.0,0.0,0.0
2025-11-06 18:32:56.175,48.245,-0.035,-0.005,0.013,-0.278,-0.977,0.059,11.83,-5.9,-49.45,0.8356,-0.5126000000000001,-0.1468,-0.1318,0.371,0.076,-0.463,38.86,-0.062,0.28,-0.17,-0.087,-0.961,-0.149,29.37,-23.18,-73.8,0.7614000000000001,-0.6428,-0.0236,-0.0794,0.03,-0.021,-0.023,39.025,0.0,-0.015,-0.007,-0.03,-0.994,0.028,68.54,-13.56,-72.87,0.6912,-0.7107,0.1043,0.0776,-0.003,-0.004,0.003,0.0,0.0,0.0,0.0,0.0,0.0,-0.0067110061645507,-0.0005750656127929,0.036630630493164,0.036630630493164,0.0036630630493164,0.0256414413452148,0.0,0.0,0.0,0.0
2025-11-06 18:32:56.175,48.3,-0.051,-0.088,0.02,-0.274,-0.973,0.047,12.62,-5.43,-49.66,0.8327,-0.5181,-0.1425,-0.1334,0.356,0.066,-0.442,38.86,-0.062,0.28,-0.17,-0.087,-0.961,-0.149,29.37,-23.18,-73.8,0.7614000000000001,-0.6428,-0.0236,-0.0794,0.03,-0.021,-0.023,39.025,0.0,-0.015,-0.007,-0.03,-0.994,0.028,68.54,-13.56,-72.87,0.6912,-0.7107,0.1043,0.0776,-0.003,-0.004,0.003,0.0,0.0,0.0,0.0,0.0,0.0,-0.0067110061645507,-0.0005750656127929,0.036630630493164,0.036630630493164,0.0036630630493164,0.0256414413452148,0.0,0.0,0.0,0.0
2025-11-06 18:32:56.175,48.29,-0.053,-0.067,0.018,-0.275,-0.976,0.043,12.62,-5.43,-49.66,0.8331000000000001,-0.5171,-0.1435,-0.1332,0.36,0.07,-0.439,38.86,-0.062,0.28,-0.17,-0.087,-0.961,-0.149,29.37,-23.18,-73.8,0.7614000000000001,-0.6428,-0.0236,-0.0794,0.03,-0.021,-0.023,39.025,0.0,-0.015,-0.007,-0.03,-0.994,0.028,68.54,-13.56,-72.87,0.6912,-0.7107,0.1043,0.0776,-0.003,-0.004,0.003,0.0,0.0,0.0,0.0,0.0,0.0,-0.0067110061645507,-0.0005750656127929,0.036630630493164,0.036630630493164,0.0036630630493164,0.0256414413452148,0.0,0.0,0.0,0.0
2025-11-06 18:32:56.175,48.31,-0.047,-0.101,0.019,-0.276,-0.966,0.054,12.18,-5.99,-49.6,0.8323,-0.5189,-0.1416,-0.1336,0.356,0.059,-0.447,38.86,-0.062,0.28,-0.17,-0.087,-0.961,-0.149,29.37,-23.18,-73.8,0.7614000000000001,-0.6428,-0.0236,-0.0794,0.03,-0.021,-0.023,39.025,0.0,-0.015,-0.007,-0.03,-0.994,0.028,68.54,-13.56,-72.87,0.6912,-0.7107,0.1043,0.0776,-0.003,-0.004,0.003,0.0,0.0,0.0,0.0,0.0,0.0,-0.0067110061645507,-0.0005750656127929,0.036630630493164,0.036630630493164,0.0036630630493164,0.0256414413452148,0.0,0.0,0.0,0.0
