Youthstudy/imurecv/data/merged/merged_20251106_183409.csv
System_Time,Timestamp_1,Gyro_X_1,Gyro_Y_1,Gyro_Z_1,Acc_X_1,Acc_Y_1,Acc_Z_1,Mag_X_1,Mag_Y_1,Mag_Z_1,Quat_W_1,Quat_X_1,Quat_Y_1,Quat_Z_1,Linear_Acc_X_1,Linear_Acc_Y_1,Linear_Acc_Z_1,Timestamp_2,Gyro_X_2,Gyro_Y_2,Gyro_Z_2,Acc_X_2,Acc_Y_2,Acc_Z_2,Mag_X_2,Mag_Y_2,Mag_Z_2,Quat_W_2,Quat_X_2,Quat_Y_2,Quat_Z_2,Linear_Acc_X_2,Linear_Acc_Y_2,Linear_Acc_Z_2,Timestamp_3,Gyro_X_3,Gyro_Y_3,Gyro_Z_3,Acc_X_3,Acc_Y_3,Acc_Z_3,Mag_X_3,Mag_Y_3,Mag_Z_3,Quat_W_3,Quat_X_3,Quat_Y_3,Quat_Z_3,Linear_Acc_X_3,Linear_Acc_Y_3,Linear_Acc_Z_3,kd_joint1,kd_joint2,kp_joint1,kp_joint2,p_des_joint1,p_des_joint2,ret0_joint1,ret0_joint2,ret1_joint1,ret1_joint2,ret2_joint1,ret2_joint2,t_ff_joint1,t_ff_joint2,v_des_joint1,v_des_joint2
2025-11-06 18:34:09.363,63.42,0.038,-0.056,-0.003,-0.286,-0.935,0.228,12.8,-6.72,-43.34,0.5959,-0.775,-0.0358,-0.2071,-0.01,-0.004,0.001,52.15,-0.012,0.01,-0.009,-0.084,-0.968,-0.187,31.21,-22.88,-75.27,0.5880000000000001,-0.5268,-0.3612,-0.4961,-0.006,-0.009,0.003,52.995,-0.026,-0.007,-0.005,-0.092,-0.993,0.036,69.21000000000001,-16.25,-67.78,0.6926,-0.7164,0.0818,0.0127,-0.003,0.0,0.003,0.0,0.0,0.0,0.0,0.0,0.0,-0.0546493530273437,0.0009584426879882,0.036630630493164,0.0073261260986328,0.0036630630493164,0.0036630630493164,0.0,0.0,0.0,0.0
2025-11-06 18:34:09.364,63.43,0.048,-0.074,0.003,-0.285,-0.936,0.227,11.54,-7.36,-43.7,0.5957,-0.7752,-0.0357,-0.2068,-0.01,-0.004,0.003,52.15,-0.012,0.01,-0.009,-0.084,-0.968,-0.187,31.21,-22.88,-75.27,0.5880000000000001,-0.5268,-0.3612,-0.4961,-0.006,-0.009,0.003,52.995,-0.026,-0.007,-0.005,-0.092,-0.993,0.036,69.21000000000001,-16.25,-67.78,0.6926,-0.7164,0.0818,0.0127,-0.003,0.0,0.003,0.0,0.0,0.0,0.0,0.0,0.0,-0.0546493530273437,0.0009584426879882,0.036630630493164,0.0073261260986328,0.0036630630493164,0.0036630630493164,0.0,0.0,0.0,0.0
2025-11-06 18:34:09.364,63.435,0.057,-0.085,0.008,-0.285,-0.936,0.226,11.31,-6.57,-43.67,0.5956,-0.7753,-0.0355,-0.2066,-0.01,-0.004,0.005,52.15,-0.012,0.01,-0.009,-0.084,-0.968,-0.187,31.21,-22.88,-75.27,0.5880000000000001,-0.5268,-0.3612,-0.4961,-0.006,-0.009,0.003,52.995,-0.026,-0.007,-0.005,-0.092,-0.993,0.036,69.21000000000001,-16.25,-67.78,0.6926,-0.7164,0.0818,0.0127,-0.003,0.0,0.003,0.0,0.0,0.0,0.0,0.0,0.0,-0.0546493530273437,0.0009584426879882,0.036630630493164,0.0073261260986328,0.0036630630493164,0.0036630630493164,0.0,0.0,0.0,0.0
2025-11-06 18:34:09.364,63.58,0.128,-0.107,0.027,-0.31,-0.945,0.259,12.07,-7.07,-43.64,0.5902000000000001,-0.781,-0.0311,-0.2016,0.014,0.008,-0.011,52.15,-0.012,0.01,-0.009,-0.084,-0.968,-0.187,31.21,-22.88,-75.27,0.5880000000000001,-0.5268,-0.3612,-0.4961,-0.006,-0.009,0.003,52.995,-0.026,-0.007,-0.005,-0.092,-0.993,0.036,69.21000000000001,-16.25,-67.78,0.6926,-0.7164,0.0818,0.0127,-0.003,0.0,0.003,0.0,0.0,0.0,0.0,0.0,0.0,-0.0546493530273437,0.0009584426879882,0.036630630493164,0.0073261260986328,0.0036630630493164,0.0036630630493164,0.0,0.0,0.0,0.0
2025-11-06 18:34:09.364,63.445,0.086,-0.088,0.016,-0.284,-0.939,0.225,11.31,-6.57,-43.67,0.5953,-0.7757000000000001,-0.0353,-0.2063,-0.011,-0.001,0.007,52.15,-0.012,0.01,-0.009,-0.084,-0.968,-0.187,31.21,-22.88,-75.27,0.5880000000000001,-0.5268,-0.3612,-0.4961,-0.006,-0.009,0.003,52.995,-0.026,-0.007,-0.005,-0.092,-0.993,0.036,69.21000000000001,-16.25,-67.78,0.6926,-0.7164,0.0818,0.0127,-0.003,0.0,0.003,0.0,0.0,0.0,0.0,0.0,0.0,-0.0546493530273437,0.0009584426879882,0.036630630493164,0.0073261260986328,0.0036630630493164,0.0036630630493164,0.0,0.0,0.0,0.0
2025-11-06 18:34:09.364,63.45,0.094,-0.092,0.018,-0.284,-0.938,0.225,12.13,-7.68,-44.37,0.5951000000000001,-0.7758,-0.0352,-0.2062,-0.011,-0.001,0.007,52.15,-0.012,0.01,-0.009,-0.084,-0.968,-0.187,31.21,-22.88,-75.27,0.5880000000000001,-0.5268,-0.3612,-0.4961,-0.006,-0.009,0.003,52.995,-0.026,-0.007,-0.005,-0.092,-0.993,0.036,69.21000000000001,-16.25,-67.78,0.6926,-0.7164,0.0818,0.0127,-0.003,0.0,0.003,0.0,0.0,0.0,0.0,0.0,0.0,-0.0546493530273437,0.0009584426879882,0.036630630493164,0.0073261260986328,0.0036630630493164,0.0036630630493164,0.0,0.0,0.0,0.0
2025-11-06 18:34:09.364,63.455,0.099,-0.086,0.018,-0.286,-0.939,0.225,12.13,-7.68,-44.37,0.5949,-0.776,-0.0351,-0.206,-0.009,-0.001,0.008,52.15,-0.012,0.01,-0.009,-0.084,-0.968,-0.187,31.21,-22.88,-75.27,0.5880000000000001,-0.5268,-0.3612,-0.4961,-0.006,-0.009,0.003,52.995,-0.026,-0.007,-0.005,-0.092,-0.993,0.036,69.21000000000001,-16.25,-67.78,0.6926,-0.7164,0.0818,0.0127,-0.003,0.0,0.003,0.0,0.0,0.0,0.0,0.0,0.0,-0.0546493530273437,0.0009584426879882,0.036630630493164,0.0073261260986328,0.0036630630493164,0.0036630630493164,0.0,0.0,0.0,0.0
2025-11-06 18:34:09.364,63.46,0.108,-0.088,0.018,-0.287,-0.937,0.225,12.36,-7.04,-43.81,0.5947,-0.7763,-0.035,-0.2058,-0.008,-0.002,0.009,52.15,-0.012,0.01,-0.009,-0.084,-0.968,-0.187,31.21,-22.88,-75.27,0.5880000000000001,-0.5268,-0.3612,-0.4961,-0.006,-0.009,0.003,52.995,-0.026,-0.007,-0.005,-0.092,-0.993,0.036,69.21000000000001,-16.25,-67.78,0.6926,-0.7164,0.0818,0.0127,-0.003,0.0,0.003,0.0,0.0,0.0,0.0,0.0,0.0,-0.0546493530273437,0.0009584426879882,0.036630630493164,0.0073261260986328,0.0036630630493164,0.0036630630493164,0.0,0.0,0.0,0.0
2025-11-06 18:34:09.364,63.465,0.109,-0.086,0.019,-0.289,-0.937,0.224,12.36,-7.04,-43.81,0.5945,-0.7765000000000001,-0.0349,-0.2057,-0.006,-0.003,0.011,52.15,-0.012,0.01,-0.009,-0.084,-0.968,-0.187,31.21,-22.88,-75.27,0.5880000000000001,-0.5268,-0.3612,-0.4961,-0.006,-0.009,0.003,52.995,-0.026,-0.007,-0.005,-0.092,-0.993,0.036,69.21000000000001,-16.25,-67.78,0.6926,-0.7164,0.0818,0.0127,-0.003,0.0,0.003,0.0,0.0,0.0,0.0,0.0,0.0,-0.0546493530273437,0.0009584426879882,0.036630630493164,0.0073261260986328,0.0036630630493164,0.0036630630493164,0.0,0.0,0.0,0.0
2025-11-06 18:34:09.364,63.47,0.107,-0.09,0.021,-0.29,-0.938,0.224,12.36,-7.04,-43.81,0.5943,-0.7767000000000001,-0.0348,-0.2055,-0.005,-0.001,0.011,52.15,-0.012,0.01,-0.009,-0.084,-0.968,-0.187,31.21,-22.88,-75.27,0.5880000000000001,-0.5268,-0.3612,-0.4961,-0.006,-0.009,0.003,52.995,-0.026,-0.007,-0.005,-0.092,-0.993,0.036,69.21000000000001,-16.25,-67.78,0.6926,-0.7164,0.0818,0.0127,-0.003,0.0,0.003,0.0,0.0,0.0,0.0,0.0,0.0,-0.0546493530273437,0.0009584426879882,0.036630630493164,0.0073261260986328,0.0036630630493164,0.0036630630493164,0.0,0.0,0.0,0.0
2025-11-06 18:34:09.364,63.475,0.108,-0.089,0.019,-0.29,-0.938,0.227,11.66,-6.46,-44.43,0.5941000000000001,-0.7769,-0.0347,-0.2054,-0.005,-0.001,0.009,52.15,-0.012,0.01,-0.009,-0.084,-0.968,-0.187,31.21,-22.88,-75.27,0.5880000000000001,-0.5268,-0.3612,-0.4961,-0.006,-0.009,0.003,52.995,-0.026,-0.007,-0.005,-0.092,-0.993,0.036,69.21000000000001,-16.25,-67.78,0.6926,-0.7164,0.0818,0.0127,-0.003,0.0,0.003,0.0,0.0,0.0,0.0,0.0,0.0,-0.0546493530273437,0.0009584426879882,0.036630630493164,0.0073261260986328,0.0036630630493164,0.0036630630493164,0.0,0.0,0.0,0.0
2025-11-06 18:34:09.364,63.485,0.103,-0.094,0.021,-0.292,-0.941,0.229,12.01,-6.6000000000000005,-43.75,0.5937,-0.7773,-0.0344,-0.2051,-0.003,0.001,0.007,52.15,-0.012,0.01,-0.009,-0.084,-0.968,-0.187,31.21,-22.88,-75.27,0.5880000000000001,-0.5268,-0.3612,-0.4961,-0.006,-0.009,0.003,52.995,-0.026,-0.007,-0.005,-0.092,-0.993,0.036,69.21000000000001,-16.25,-67.78,0.6926,-0.7164,0.0818,0.0127,-0.003,0.0,0.003,0.0,0.0,0.0,0.0,0.0,0.0,-0.0546493530273437,0.0009584426879882,0.036630630493164,0.0073261260986328,0.0036630630493164,0.0036630630493164,0.0,0.0,0.0,0.0
2025-11-06 18:34:09.364,63.49,0.097,-0.097,0.019,-0.292,-0.941,0.233,12.01,-6.6000000000000005,-43.75,0.5935,-0.7775000000000001,-0.0343,-0.2049,-0.003,0.002,0.004,52.15,-0.012,0.01,-0.009,-0.084,-0.968,-0.187,31.21,-22.88,-75.27,0.5880000000000001,-0.5268,-0.3612,-0.4961,-0.006,-0.009,0.003,52.995,-0.026,-0.007,-0.005,-0.092,-0.993,0.036,69.21000000000001,-16.25,-67.78,0.6926,-0.7164,0.0818,0.0127,-0.003,0.0,0.003,0.0,0.0,0.0,0.0,0.0,0.0,-0.0546493530273437,0.0009584426879882,0.036630630493164,0.0073261260986328,0.0036630630493164,0.0036630630493164,0.0,0.0,0.0,0.0
2025-11-06 18:34:09.364,63.495,0.094,-0.101,0.021,-0.291,-0.943,0.235,12.01,-6.6000000000000005,-43.75,0.5933,-0.7777000000000001,-0.0342,-0.2047,-0.004,0.004,0.003,52.15,-0.012,0.01,-0.009,-0.084,-0.968,-0.187,31.21,-22.88,-75.27,0.5880000000000001,-0.5268,-0.3612,-0.4961,-0.006,-0.009,0.003,52.995,-0.026,-0.007,-0.005,-0.092,-0.993,0.036,69.21000000000001,-16.25,-67.78,0.6926,-0.7164,0.0818,0.0127,-0.003,0.0,0.003,0.0,0.0,0.0,0.0,0.0,0.0,-0.0546493530273437,0.0009584426879882,0.036630630493164,0.0073261260986328,0.0036630630493164,0.0036630630493164,0.0,0.0,0.0,0.0
2025-11-06 18:34:09.364,63.44,0.07,-0.087,0.01,-0.285,-0.938,0.227,11.31,-6.57,-43.67,0.5955,-0.7755000000000001,-0.0354,-0.2065,-0.01,-0.002,0.004,52.15,-0.012,0.01,-0.009,-0.084,-0.968,-0.187,31.21,-22.88,-75.27,0.5880000000000001,-0.5268,-0.3612,-0.4961,-0.006,-0.009,0.003,52.995,-0.026,-0.007,-0.005,-0.092,-0.993,0.036,69.21000000000001,-16.25,-67.78,0.6926,-0.7164,0.0818,0.0127,-0.003,0.0,0.003,0.0,0.0,0.0,0.0,0.0,0.0,-0.0546493530273437,0.0009584426879882,0.036630630493164,0.0073261260986328,0.0036630630493164,0.0036630630493164,0.0,0.0,0.0,0.0
2025-11-06 18:34:09.364,63.505,0.086,-0.115,0.021,-0.288,-0.942,0.239,11.8,-6.98,-43.61,0.5929,-0.7781,-0.0339,-0.2043,-0.007,0.003,0.0,52.15,-0.012,0.01,-0.009,-0.084,-0.968,-0.187,31.21,-22.88,-75.27,0.5880000000000001,-0.5268,-0.3612,-0.4961,-0.006,-0.009,0.003,52.995,-0.026,-0.007,-0.005,-0.092,-0.993,0.036,69.21000000000001,-16.25,-67.78,0.6926,-0.7164,0.0818,0.0127,-0.003,0.0,0.003,0.0,0.0,0.0,0.0,0.0,0.0,-0.0546493530273437,0.0009584426879882,0.036630630493164,0.0073261260986328,0.0036630630493164,0.0036630630493164,0.0,0.0,0.0,0.0
2025-11-06 18:34:09.364,63.5,0.091,-0.107,0.021,-0.289,-0.941,0.236,11.8,-6.98,-43.61,0.5931000000000001,-0.7779,-0.034,-0.2045,-0.006,0.002,0.003,52.15,-0.012,0.01,-0.009,-0.084,-0.968,-0.187,31.21,-22.88,-75.27,0.5880000000000001,-0.5268,-0.3612,-0.4961,-0.006,-0.009,0.003,52.995,-0.026,-0.007,-0.005,-0.092,-0.993,0.036,69.21000000000001,-16.25,-67.78,0.6926,-0.7164,0.0818,0.0127,-0.003,0.0,0.003,0.0,0.0,0.0,0.0,0.0,0.0,-0.0546493530273437,0.0009584426879882,0.036630630493164,0.0073261260986328,0.0036630630493164,0.0036630630493164,0.0,0.0,0.0,0.0
2025-11-06 18:34:09.364,63.57,0.115,-0.112,0.032,-0.305,-0.947,0.258,11.89,-7.3,-42.96,0.5907,-0.7805000000000001,-0.0314,-0.2019,0.009,0.01,-0.011,52.15,-0.012,0.01,-0.009,-0.084,-0.968,-0.187,31.21,-22.88,-75.27,0.5880000000000001,-0.5268,-0.3612,-0.4961,-0.006,-0.009,0.003,52.995,-0.026,-0.007,-0.005,-0.092,-0.993,0.036,69.21000000000001,-16.25,-67.78,0.6926,-0.7164,0.0818,0.0127,-0.003,0.0,0.003,0.0,0.0,0.0,0.0,0.0,0.0,-0.0546493530273437,0.0009584426879882,0.036630630493164,0.0073261260986328,0.0036630630493164,0.0036630630493164,0.0,0.0,0.0,0.0
2025-11-06 18:34:09.364,63.56,0.1,-0.113,0.04,-0.298,-0.946,0.254,11.89,-7.3,-42.96,0.5912000000000001,-0.78,-0.0317,-0.2023,0.002,0.009,-0.008,52.15,-0.012,0.01,-0.009,-0.084,-0.968,-0.187,31.21,-22.88,-75.27,0.5880000000000001,-0.5268,-0.3612,-0.4961,-0.006,-0.009,0.003,52.995,-0.026,-0.007,-0.005,-0.092,-0.993,0.036,69.21000000000001,-16.25,-67.78,0.6926,-0.7164,0.0818,0.0127,-0.003,0.0,0.003,0.0,0.0,0.0,0.0,0.0,0.0,-0.0546493530273437,0.0009584426879882,0.036630630493164,0.0073261260986328,0.0036630630493164,0.0036630630493164,0.0,0.0,0.0,0.0
2025-11-06 18:34:09.364,63.555,0.089,-0.109,0.043,-0.294,-0.946,0.249,12.13,-6.92,-43.17,0.5914,-0.7798,-0.0319,-0.2025,-0.001,0.008,-0.004,52.15,-0.012,0.01,-0.009,-0.084,-0.968,-0.187,31.21,-22.88,-75.27,0.5880000000000001,-0.5268,-0.3612,-0.4961,-0.006,-0.009,0.003,52.995,-0.026,-0.007,-0.005,-0.092,-0.993,0.036,69.21000000000001,-16.25,-67.78,0.6926,-0.7164,0.0818,0.0127,-0.003,0.0,0.003,0.0,0.0,0.0,0.0,0.0,0.0,-0.0546493530273437,0.0009584426879882,0.036630630493164,0.0073261260986328,0.0036630630493164,0.0036630630493164,0.0,0.0,0.0,0.0
2025-11-06 18:34:09.364,63.55,0.083,-0.107,0.043,-0.293,-0.945,0.249,12.13,-6.92,-43.17,0.5916,-0.7796000000000001,-0.0321,-0.2026,-0.002,0.007,-0.004,52.15,-0.012,0.01,-0.009,-0.084,-0.968,-0.187,31.21,-22.88,-75.27,0.5880000000000001,-0.5268,-0.3612,-0.4961,-0.006,-0.009,0.003,52.995,-0.026,-0.007,-0.005,-0.092,-0.993,0.036,69.21000000000001,-16.25,-67.78,0.6926,-0.7164,0.0818,0.0127,-0.003,0.0,0.003,0.0,0.0,0.0,0.0,0.0,0.0,-0.0546493530273437,0.0009584426879882,0.036630630493164,0.0073261260986328,0.0036630630493164,0.0036630630493164,0.0,0.0,0.0,0.0
2025-11-06 18:34:09.364,63.545,0.075,-0.109,0.043,-0.29,-0.943,0.248,11.13,-6.98,-43.46,0.5918,-0.7794000000000001,-0.0323,-0.2028,-0.005,0.005,-0.004,52.15,-0.012,0.01,-0.009,-0.084,-0.968,-0.187,31.21,-22.88,-75.27,0.5880000000000001,-0.5268,-0.3612,-0.4961,-0.006,-0.009,0.003,52.995,-0.026,-0.007,-0.005,-0.092,-0.993,0.036,69.21000000000001,-16.25,-67.78,0.6926,-0.7164,0.0818,0.0127,-0.003,0.0,0.003,0.0,0.0,0.0,0.0,0.0,0.0,-0.0546493530273437,0.0009584426879882,0.036630630493164,0.0073261260986328,0.0036630630493164,0.0036630630493164,0.0,0.0,0.0,0.0
2025-11-06 18:34:09.364,63.54,0.07,-0.11,0.041,-0.287,-0.942,0.248,11.13,-6.98,-43.46,0.5919,-0.7792,-0.0325,-0.203,-0.008,0.005,-0.005,52.15,-0.012,0.01,-0.009,-0.084,-0.968,-0.187,31.21,-22.88,-75.27,0.5880000000000001,-0.5268,-0.3612,-0.4961,-0.006,-0.009,0.003,52.995,-0.026,-0.007,-0.005,-0.092,-0.993,0.036,69.21000000000001,-16.25,-67.78,0.6926,-0.7164,0.0818,0.0127,-0.003,0.0,0.003,0.0,0.0,0.0,0.0,0.0,0.0,-0.0546493530273437,0.0009584426879882,0.036630630493164,0.0073261260986328,0.0036630630493164,0.0036630630493164,0.0,0.0,0.0,0.0
2025-11-06 18:34:09.364,63.565,0.109,-0.112,0.035,-0.303,-0.948,0.256,11.89,-7.3,-42.96,0.5909,-0.7802,-0.0315,-0.2021,0.007,0.011,-0.009,52.15,-0.012,0.01,-0.009,-0.084,-0.968,-0.187,31.21,-22.88,-75.27,0.5880000000000001,-0.5268,-0.3612,-0.4961,-0.006,-0.009,0.003,52.995,-0.026,-0.007,-0.005,-0.092,-0.993,0.036,69.21000000000001,-16.25,-67.78,0.6926,-0.7164,0.0818,0.0127,-0.003,0.0,0.003,0.0,0.0,0.0,0.0,0.0,0.0,-0.0546493530273437,0.0009584426879882,0.036630630493164,0.0073261260986328,0.0036630630493164,0.0036630630493164,0.0,0.0,0.0,0.0
2025-11-06 18:34:09.364,63.53,0.066,-0.115,0.038,-0.284,-0.941,0.254,11.19,-7.13,-43.55,0.5922000000000001,-0.7789,-0.0329,-0.2033,-0.011,0.003,-0.012,52.15,-0.012,0.01,-0.009,-0.084,-0.968,-0.187,31.21,-22.88,-75.27,0.5880000000000001,-0.5268,-0.3612,-0.4961,-0.006,-0.009,0.003,52.995,-0.026,-0.007,-0.005,-0.092,-0.993,0.036,69.21000000000001,-16.25,-67.78,0.6926,-0.7164,0.0818,0.0127,-0.003,0.0,0.003,0.0,0.0,0.0,0.0,0.0,0.0,-0.0546493530273437,0.0009584426879882,0.036630630493164,0.0073261260986328,0.0036630630493164,0.0036630630493164,0.0,0.0,0.0,0.0
2025-11-06 18:34:09.364,63.525,0.066,-0.116,0.034,-0.285,-0.942,0.256,11.19,-7.13,-43.55,0.5924,-0.7787000000000001,-0.0331,-0.2035,-0.01,0.004,-0.014,52.15,-0.012,0.01,-0.009,-0.084,-0.968,-0.187,31.21,-22.88,-75.27,0.5880000000000001,-0.5268,-0.3612,-0.4961,-0.006,-0.009,0.003,52.995,-0.026,-0.007,-0.005,-0.092,-0.993,0.036,69.21000000000001,-16.25,-67.78,0.6926,-0.7164,0.0818,0.0127,-0.003,0.0,0.003,0.0,0.0,0.0,0.0,0.0,0.0,-0.0546493530273437,0.0009584426879882,0.036630630493164,0.0073261260986328,0.0036630630493164,0.0036630630493164,0.0,0.0,0.0,0.0
2025-11-06 18:34:09.364,63.52,0.066,-0.118,0.03,-0.284,-0.942,0.254,11.4,-6.69,-43.61,0.5925,-0.7786000000000001,-0.0333,-0.2037,-0.011,0.004,-0.012,52.15,-0.012,0.01,-0.009,-0.084,-0.968,-0.187,31.21,-22.88,-75.27,0.5880000000000001,-0.5268,-0.3612,-0.4961,-0.006,-0.009,0.003,52.995,-0.026,-0.007,-0.005,-0.092,-0.993,0.036,69.21000000000001,-16.25,-67.78,0.6926,-0.7164,0.0818,0.0127,-0.003,0.0,0.003,0.0,0.0,0.0,0.0,0.0,0.0,-0.0546493530273437,0.0009584426879882,0.036630630493164,0.0073261260986328,0.0036630630493164,0.0036630630493164,0.0,0.0,0.0,0.0
2025-11-06 18:34:09.364,63.515,0.07,-0.119,0.029,-0.286,-0.943,0.248,11.4,-6.69,-43.61,0.5926,-0.7784000000000001,-0.0335,-0.2039,-0.009,0.004,-0.007,52.15,-0.012,0.01,-0.009,-0.084,-0.968,-0.187,31.21,-22.88,-75.27,0.5880000000000001,-0.5268,-0.3612,-0.4961,-0.006,-0.009,0.003,52.995,-0.026,-0.007,-0.005,-0.092,-0.993,0.036,69.21000000000001,-16.25,-67.78,0.6926,-0.7164,0.0818,0.0127,-0.003,0.0,0.003,0.0,0.0,0.0,0.0,0.0,0.0,-0.0546493530273437,0.0009584426879882,0.036630630493164,0.0073261260986328,0.0036630630493164,0.0036630630493164,0.0,0.0,0.0,0.0
2025-11-06 18:34:09.364,63.535,0.068,-0.114,0.04,-0.285,-0.941,0.253,11.13,-6.98,-43.46,0.5921000000000001,-0.7791,-0.0327,-0.2031,-0.01,0.003,-0.009,52.15,-0.012,0.01,-0.009,-0.084,-0.968,-0.187,31.21,-22.88,-75.27,0.5880000000000001,-0.5268,-0.3612,-0.4961,-0.006,-0.009,0.003,52.995,-0.026,-0.007,-0.005,-0.092,-0.993,0.036,69.21000000000001,-16.25,-67.78,0.6926,-0.7164,0.0818,0.0127,-0.003,0.0,0.003,0.0,0.0,0.0,0.0,0.0,0.0,-0.0546493530273437,0.0009584426879882,0.036630630493164,0.0073261260986328,0.0036630630493164,0.0036630630493164,0.0,0.0,0.0,0.0
2025-11-06 18:34:09.364,63.51,0.075,-0.118,0.026,-0.289,-0.943,0.246,11.4,-6.69,-43.61,0.5928,-0.7782,-0.0337,-0.2041,-0.005,0.004,-0.005,52.15,-0.012,0.01,-0.009,-0.084,-0.968,-0.187,31.21,-22.88,-75.27,0.5880000000000001,-0.5268,-0.3612,-0.4961,-0.006,-0.009,0.003,52.995,-0.026,-0.007,-0.005,-0.092,-0.993,0.036,69.21000000000001,-16.25,-67.78,0.6926,-0.7164,0.0818,0.0127,-0.003,0.0,0.003,0.0,0.0,0.0,0.0,0.0,0.0,-0.0546493530273437,0.0009584426879882,0.036630630493164,0.0073261260986328,0.0036630630493164,0.0036630630493164,0.0,0.0,0.0,0.0
2025-11-06 18:34:09.364,63.425,0.042,-0.068,0.0,-0.286,-0.935,0.228,11.54,-7.36,-43.7,0.5958,-0.7751,-0.0357,-0.207,-0.01,-0.005,0.002,52.15,-0.012,0.01,-0.009,-0.084,-0.968,-0.187,31.21,-22.88,-75.27,0.5880000000000001,-0.5268,-0.3612,-0.4961,-0.006,-0.009,0.003,52.995,-0.026,-0.007,-0.005,-0.092,-0.993,0.036,69.21000000000001,-16.25,-67.78,0.6926,-0.7164,0.0818,0.0127,-0.003,0.0,0.003,0.0,0.0,0.0,0.0,0.0,0.0,-0.0546493530273437,0.0009584426879882,0.036630630493164,0.0073261260986328,0.0036630630493164,0.0036630630493164,0.0,0.0,0.0,0.0
2025-11-06 18:34:09.364,63.575,0.122,-0.108,0.03,-0.308,-0.946,0.26,12.07,-7.07,-43.64,0.5905,-0.7807000000000001,-0.0312,-0.2018,0.011,0.01,-0.012,52.15,-0.012,0.01,-0.009,-0.084,-0.968,-0.187,31.21,-22.88,-75.27,0.5880000000000001,-0.5268,-0.3612,-0.4961,-0.006,-0.009,0.003,52.995,-0.026,-0.007,-0.005,-0.092,-0.993,0.036,69.21000000000001,-16.25,-67.78,0.6926,-0.7164,0.0818,0.0127,-0.003,0.0,0.003,0.0,0.0,0.0,0.0,0.0,0.0,-0.0546493530273437,0.0009584426879882,0.036630630493164,0.0073261260986328,0.0036630630493164,0.0036630630493164,0.0,0.0,0.0,0.0
2025-11-06 18:34:09.364,63.48,0.105,-0.088,0.021,-0.292,-0.94,0.227,11.66,-6.46,-44.43,0.5939,-0.7771,-0.0346,-0.2052,-0.003,0.0,0.009,52.15,-0.012,0.01,-0.009,-0.084,-0.968,-0.187,31.21,-22.88,-75.27,0.5880000000000001,-0.5268,-0.3612,-0.4961,-0.006,-0.009,0.003,52.995,-0.026,-0.007,-0.005,-0.092,-0.993,0.036,69.21000000000001,-16.25,-67.78,0.6926,-0.7164,0.0818,0.0127,-0.003,0.0,0.003,0.0,0.0,0.0,0.0,0.0,0.0,-0.0546493530273437,0.0009584426879882,0.036630630493164,0.0073261260986328,0.0036630630493164,0.0036630630493164,0.0,0.0,0.0,0.0
2025-11-06 18:34:09.364,63.585,0.128,-0.109,0.023,-0.312,-0.943,0.26,12.3,-6.78,-43.49,0.5899,-0.7812,-0.0309,-0.2014,0.015,0.006,-0.011,52.15,-0.012,0.01,-0.009,-0.084,-0.968,-0.187,31.21,-22.88,-75.27,0.5880000000000001,-0.5268,-0.3612,-0.4961,-0.006,-0.009,0.003,52.995,-0.026,-0.007,-0.005,-0.092,-0.993,0.036,69.21000000000001,-16.25,-67.78,0.6926,-0.7164,0.0818,0.0127,-0.003,0.0,0.003,0.0,0.0,0.0,0.0,0.0,0.0,-0.0546493530273437,0.0009584426879882,0.036630630493164,0.0073261260986328,0.0036630630493164,0.0036630630493164,0.0,0.0,0.0,0.0
2025-11-06 18:34:09.364,63.595,0.131,-0.097,0.02,-0.312,-0.935,0.259,12.3,-6.78,-43.49,0.5894,-0.7817000000000001,-0.0307,-0.201,0.016,0.0,-0.008,52.15,-0.012,0.01,-0.009,-0.084,-0.968,-0.187,31.21,-22.88,-75.27,0.5880000000000001,-0.5268,-0.3612,-0.4961,-0.006,-0.009,0.003,52.995,-0.026,-0.007,-0.005,-0.092,-0.993,0.036,69.21000000000001,-16.25,-67.78,0.6926,-0.7164,0.0818,0.0127,-0.003,0.0,0.003,0.0,0.0,0.0,0.0,0.0,0.0,-0.0546493530273437,0.0009584426879882,0.036630630493164,0.0073261260986328,0.0036630630493164,0.0036630630493164,0.0,0.0,0.0,0.0
2025-11-06 18:34:09.364,63.6,0.13,-0.094,0.021,-0.313,-0.931,0.256,11.75,-6.6000000000000005,-43.26,0.5891000000000001,-0.782,-0.0306,-0.2009,0.016,-0.003,-0.004,52.15,-0.012,0.01,-0.009,-0.084,-0.968,-0.187,31.21,-22.88,-75.27,0.5880000000000001,-0.5268,-0.3612,-0.4961,-0.006,-0.009,0.003,52.995,-0.026,-0.007,-0.005,-0.092,-0.993,0.036,69.21000000000001,-16.25,-67.78,0.6926,-0.7164,0.0818,0.0127,-0.003,0.0,0.003,0.0,0.0,0.0,0.0,0.0,0.0,-0.0546493530273437,0.0009584426879882,0.036630630493164,0.0073261260986328,0.0036630630493164,0.0036630630493164,0.0,0.0,0.0,0.0
2025-11-06 18:34:09.364,63.605,0.132,-0.091,0.021,-0.311,-0.927,0.257,11.75,-6.6000000000000005,-43.26,0.5888,-0.7822,-0.0305,-0.2007,0.014,-0.007,-0.005,52.15,-0.012,0.01,-0.009,-0.084,-0.968,-0.187,31.21,-22.88,-75.27,0.5880000000000001,-0.5268,-0.3612,-0.4961,-0.006,-0.009,0.003,52.995,-0.026,-0.007,-0.005,-0.092,-0.993,0.036,69.21000000000001,-16.25,-67.78,0.6926,-0.7164,0.0818,0.0127,-0.003,0.0,0.003,0.0,0.0,0.0,0.0,0.0,0.0,-0.0546493530273437,0.0009584426879882,0.036630630493164,0.0073261260986328,0.0036630630493164,0.0036630630493164,0.0,0.0,0.0,0.0
2025-11-06 18:34:09.364,63.645,0.158,-0.096,0.023,-0.3,-0.921,0.262,13.03,-7.19,-43.26,0.5866,-0.7843,-0.0296,-0.1994,0.003,-0.012,-0.003,52.15,-0.012,0.01,-0.009,-0.084,-0.968,-0.187,31.21,-22.88,-75.27,0.5880000000000001,-0.5268,-0.3612,-0.4961,-0.006,-0.009,0.003,52.995,-0.026,-0.007,-0.005,-0.092,-0.993,0.036,69.21000000000001,-16.25,-67.78,0.6926,-0.7164,0.0818,0.0127,-0.003,0.0,0.003,0.0,0.0,0.0,0.0,0.0,0.0,-0.0546493530273437,0.0009584426879882,0.036630630493164,0.0073261260986328,0.0036630630493164,0.0036630630493164,0.0,0.0,0.0,0.0
2025-11-06 18:34:09.364,63.615,0.127,-0.088,0.019,-0.309,-0.923,0.254,13.12,-6.72,-42.79,0.5883,-0.7827000000000001,-0.0303,-0.2004,0.012,-0.011,-0.001,52.15,-0.012,0.01,-0.009,-0.084,-0.968,-0.187,31.21,-22.88,-75.27,0.5880000000000001,-0.5268,-0.3612,-0.4961,-0.006,-0.009,0.003,52.995,-0.026,-0.007,-0.005,-0.092,-0.993,0.036,69.21000000000001,-16.25,-67.78,0.6926,-0.7164,0.0818,0.0127,-0.003,0.0,0.003,0.0,0.0,0.0,0.0,0.0,0.0,-0.0546493530273437,0.0009584426879882,0.036630630493164,0.0073261260986328,0.0036630630493164,0.0036630630493164,0.0,0.0,0.0,0.0
2025-11-06 18:34:09.364,63.62,0.129,-0.091,0.019,-0.306,-0.919,0.252,13.12,-6.72,-42.79,0.5881000000000001,-0.783,-0.0301,-0.2003,0.01,-0.015,0.001,52.15,-0.012,0.01,-0.009,-0.084,-0.968,-0.187,31.21,-22.88,-75.27,0.5880000000000001,-0.5268,-0.3612,-0.4961,-0.006,-0.009,0.003,52.995,-0.026,-0.007,-0.005,-0.092,-0.993,0.036,69.21000000000001,-16.25,-67.78,0.6926,-0.7164,0.0818,0.0127,-0.003,0.0,0.003,0.0,0.0,0.0,0.0,0.0,0.0,-0.0546493530273437,0.0009584426879882,0.036630630493164,0.0073261260986328,0.0036630630493164,0.0036630630493164,0.0,0.0,0.0,0.0
2025-11-06 18:34:09.364,63.625,0.132,-0.093,0.022,-0.304,-0.919,0.253,12.21,-7.86,-43.14,0.5878,-0.7832,-0.03,-0.2001,0.007,-0.015,0.001,52.15,-0.012,0.01,-0.009,-0.084,-0.968,-0.187,31.21,-22.88,-75.27,0.5880000000000001,-0.5268,-0.3612,-0.4961,-0.006,-0.009,0.003,52.995,-0.026,-0.007,-0.005,-0.092,-0.993,0.036,69.21000000000001,-16.25,-67.78,0.6926,-0.7164,0.0818,0.0127,-0.003,0.0,0.003,0.0,0.0,0.0,0.0,0.0,0.0,-0.0546493530273437,0.0009584426879882,0.036630630493164,0.0073261260986328,0.0036630630493164,0.0036630630493164,0.0,0.0,0.0,0.0
2025-11-06 18:34:09.364,63.63,0.138,-0.095,0.023,-0.302,-0.919,0.254,12.21,-7.86,-43.14,0.5875,-0.7835000000000001,-0.0299,-0.1999,0.006,-0.014,0.001,52.15,-0.012,0.01,-0.009,-0.084,-0.968,-0.187,31.21,-22.88,-75.27,0.5880000000000001,-0.5268,-0.3612,-0.4961,-0.006,-0.009,0.003,52.995,-0.026,-0.007,-0.005,-0.092,-0.993,0.036,69.21000000000001,-16.25,-67.78,0.6926,-0.7164,0.0818,0.0127,-0.003,0.0,0.003,0.0,0.0,0.0,0.0,0.0,0.0,-0.0546493530273437,0.0009584426879882,0.036630630493164,0.0073261260986328,0.0036630630493164,0.0036630630493164,0.0,0.0,0.0,0.0
2025-11-06 18:34:09.364,63.635,0.143,-0.099,0.023,-0.3,-0.919,0.257,12.21,-7.86,-43.14,0.5872,-0.7837000000000001,-0.0298,-0.1998,0.004,-0.014,0.0,52.15,-0.012,0.01,-0.009,-0.084,-0.968,-0.187,31.21,-22.88,-75.27,0.5880000000000001,-0.5268,-0.3612,-0.4961,-0.006,-0.009,0.003,52.995,-0.026,-0.007,-0.005,-0.092,-0.993,0.036,69.21000000000001,-16.25,-67.78,0.6926,-0.7164,0.0818,0.0127,-0.003,0.0,0.003,0.0,0.0,0.0,0.0,0.0,0.0,-0.0546493530273437,0.0009584426879882,0.036630630493164,0.0073261260986328,0.0036630630493164,0.0036630630493164,0.0,0.0,0.0,0.0
2025-11-06 18:34:09.364,63.64,0.153,-0.096,0.024,-0.3,-0.919,0.259,13.03,-7.19,-43.26,0.5869,-0.784,-0.0297,-0.1996,0.004,-0.014,-0.001,52.15,-0.012,0.01,-0.009,-0.084,-0.968,-0.187,31.21,-22.88,-75.27,0.5880000000000001,-0.5268,-0.3612,-0.4961,-0.006,-0.009,0.003,52.995,-0.026,-0.007,-0.005,-0.092,-0.993,0.036,69.21000000000001,-16.25,-67.78,0.6926,-0.7164,0.0818,0.0127,-0.003,0.0,0.003,0.0,0.0,0.0,0.0,0.0,0.0,-0.0546493530273437,0.0009584426879882,0.036630630493164,0.0073261260986328,0.0036630630493164,0.0036630630493164,0.0,0.0,0.0,0.0
2025-11-06 18:34:09.364,63.65,0.164,-0.093,0.024,-0.298,-0.926,0.266,11.98,-7.45,-43.37,0.5862,-0.7846000000000001,-0.0295,-0.1993,0.002,-0.006,-0.007,52.15,-0.012,0.01,-0.009,-0.084,-0.968,-0.187,31.21,-22.88,-75.27,0.5880000000000001,-0.5268,-0.3612,-0.4961,-0.006,-0.009,0.003,52.995,-0.026,-0.007,-0.005,-0.092,-0.993,0.036,69.21000000000001,-16.25,-67.78,0.6926,-0.7164,0.0818,0.0127,-0.003,0.0,0.003,0.0,0.0,0.0,0.0,0.0,0.0,-0.0546493530273437,0.0009584426879882,0.036630630493164,0.0073261260986328,0.0036630630493164,0.0036630630493164,0.0,0.0,0.0,0.0
2025-11-06 18:34:09.364,63.655,0.169,-0.09,0.021,-0.301,-0.929,0.269,11.98,-7.45,-43.37,0.5859,-0.7849,-0.0294,-0.1991,0.004,-0.004,-0.009,52.15,-0.012,0.01,-0.009,-0.084,-0.968,-0.187,31.21,-22.88,-75.27,0.5880000000000001,-0.5268,-0.3612,-0.4961,-0.006,-0.009,0.003,52.995,-0.026,-0.007,-0.005,-0.092,-0.993,0.036,69.21000000000001,-16.25,-67.78,0.6926,-0.7164,0.0818,0.0127,-0.003,0.0,0.003,0.0,0.0,0.0,0.0,0.0,0.0,-0.0546493530273437,0.0009584426879882,0.036630630493164,0.0073261260986328,0.0036630630493164,0.0036630630493164,0.0,0.0,0.0,0.0
2025-11-06 18:34:09.364,63.66,0.17,-0.083,0.018,-0.301,-0.931,0.269,11.98,-7.45,-43.37,0.5855,-0.7852,-0.0293,-0.199,0.005,-0.001,-0.008,52.15,-0.012,0.01,-0.009,-0.084,-0.968,-0.187,31.21,-22.88,-75.27,0.5880000000000001,-0.5268,-0.3612,-0.4961,-0.006,-0.009,0.003,52.995,-0.026,-0.007,-0.005,-0.092,-0.993,0.036,69.21000000000001,-16.25,-67.78,0.6926,-0.7164,0.0818,0.0127,-0.003,0.0,0.003,0.0,0.0,0.0,0.0,0.0,0.0,-0.0546493530273437,0.0009584426879882,0.036630630493164,0.0073261260986328,0.0036630630493164,0.0036630630493164,0.0,0.0,0.0,0.0
2025-11-06 18:34:09.364,63.665,0.172,-0.084,0.013,-0.302,-0.933,0.27,11.54,-6.51,-43.34,0.5852,-0.7855000000000001,-0.0293,-0.1988,0.005,0.0,-0.008,52.15,-0.012,0.01,-0.009,-0.084,-0.968,-0.187,31.21,-22.88,-75.27,0.5880000000000001,-0.5268,-0.3612,-0.4961,-0.006,-0.009,0.003,52.995,-0.026,-0.007,-0.005,-0.092,-0.993,0.036,69.21000000000001,-16.25,-67.78,0.6926,-0.7164,0.0818,0.0127,-0.003,0.0,0.003,0.0,0.0,0.0,0.0,0.0,0.0,-0.0546493530273437,0.0009584426879882,0.036630630493164,0.0073261260986328,0.0036630630493164,0.0036630630493164,0.0,0.0,0.0,0.0
2025-11-06 18:34:09.364,63.67,0.169,-0.087,0.01,-0.303,-0.934,0.272,11.54,-6.51,-43.34,0.5848,-0.7858,-0.0292,-0.1986,0.007,0.002,-0.008,52.15,-0.012,0.01,-0.009,-0.084,-0.968,-0.187,31.21,-22.88,-75.27,0.5880000000000001,-0.5268,-0.3612,-0.4961,-0.006,-0.009,0.003,52.995,-0.026,-0.007,-0.005,-0.092,-0.993,0.036,69.21000000000001,-16.25,-67.78,0.6926,-0.7164,0.0818,0.0127,-0.003,0.0,0.003,0.0,0.0,0.0,0.0,0.0,0.0,-0.0546493530273437,0.0009584426879882,0.036630630493164,0.0073261260986328,0.0036630630493164,0.0036630630493164,0.0,0.0,0.0,0.0
2025-11-06 18:34:09.364,63.61,0.128,-0.086,0.02,-0.31,-0.925,0.255,11.75,-6.6000000000000005,-43.26,0.5886,-0.7825000000000001,-0.0304,-0.2006,0.014,-0.01,-0.002,52.15,-0.012,0.01,-0.009,-0.084,-0.968,-0.187,31.21,-22.88,-75.27,0.5880000000000001,-0.5268,-0.3612,-0.4961,-0.006,-0.009,0.003,52.995,-0.026,-0.007,-0.005,-0.092,-0.993,0.036,69.21000000000001,-16.25,-67.78,0.6926,-0.7164,0.0818,0.0127,-0.003,0.0,0.003,0.0,0.0,0.0,0.0,0.0,0.0,-0.0546493530273437,0.0009584426879882,0.036630630493164,0.0073261260986328,0.0036630630493164,0.0036630630493164,0.0,0.0,0.0,0.0
2025-11-06 18:34:09.364,63.68,0.163,-0.087,0.001,-0.305,-0.934,0.271,11.25,-6.6000000000000005,-42.91,0.5842,-0.7864,-0.0291,-0.1983,0.009,0.002,-0.005,52.15,-0.012,0.01,-0.009,-0.084,-0.968,-0.187,31.21,-22.88,-75.27,0.5880000000000001,-0.5268,-0.3612,-0.4961,-0.006,-0.009,0.003,52.995,-0.026,-0.007,-0.005,-0.092,-0.993,0.036,69.21000000000001,-16.25,-67.78,0.6926,-0.7164,0.0818,0.0127,-0.003,0.0,0.003,0.0,0.0,0.0,0.0,0.0,0.0,-0.0546493530273437,0.0009584426879882,0.036630630493164,0.0073261260986328,0.0036630630493164,0.0036630630493164,0.0,0.0,0.0,0.0
2025-11-06 18:34:09.364,63.675,0.165,-0.09,0.008,-0.305,-0.935,0.272,11.25,-6.6000000000000005,-42.91,0.5845,-0.7861,-0.0291,-0.1984,0.009,0.003,-0.007,52.15,-0.012,0.01,-0.009,-0.084,-0.968,-0.187,31.21,-22.88,-75.27,0.5880000000000001,-0.5268,-0.3612,-0.4961,-0.006,-0.009,0.003,52.995,-0.026,-0.007,-0.005,-0.092,-0.993,0.036,69.21000000000001,-16.25,-67.78,0.6926,-0.7164,0.0818,0.0127,-0.003,0.0,0.003,0.0,0.0,0.0,0.0,0.0,0.0,-0.0546493530273437,0.0009584426879882,0.036630630493164,0.0073261260986328,0.0036630630493164,0.0036630630493164,0.0,0.0,0.0,0.0
2025-11-06 18:34:09.364,63.59,0.131,-0.102,0.021,-0.312,-0.939,0.259,12.3,-6.78,-43.49,0.5897,-0.7815000000000001,-0.0308,-0.2012,0.016,0.003,-0.009,52.15,-0.012,0.01,-0.009,-0.084,-0.968,-0.187,31.21,-22.88,-75.27,0.5880000000000001,-0.5268,-0.3612,-0.4961,-0.006,-0.009,0.003,52.995,-0.026,-0.007,-0.005,-0.092,-0.993,0.036,69.21000000000001,-16.25,-67.78,0.6926,-0.7164,0.0818,0.0127,-0.003,0.0,0.003,0.0,0.0,0.0,0.0,0.0,0.0,-0.0546493530273437,0.0009584426879882,0.036630630493164,0.0073261260986328,0.0036630630493164,0.0036630630493164,0.0,0.0,0.0,0.0
2025-11-06 18:34:09.364,63.735,0.241,-0.086,-0.005,-0.315,-0.913,0.277,11.4,-6.86,-42.35,0.5801000000000001,-0.79,-0.0288,-0.1959,0.02,-0.016,-0.001,52.15,-0.012,0.01,-0.009,-0.084,-0.968,-0.187,31.21,-22.88,-75.27,0.5880000000000001,-0.5268,-0.3612,-0.4961,-0.006,-0.009,0.003,52.995,-0.026,-0.007,-0.005,-0.092,-0.993,0.036,69.21000000000001,-16.25,-67.78,0.6926,-0.7164,0.0818,0.0127,-0.003,0.0,0.003,0.0,0.0,0.0,0.0,0.0,0.0,-0.0546493530273437,0.0009584426879882,0.036630630493164,0.0073261260986328,0.0036630630493164,0.0036630630493164,0.0,0.0,0.0,0.0
2025-11-06 18:34:09.364,63.73,0.23,-0.09,-0.006,-0.313,-0.916,0.275,11.4,-6.86,-42.35,0.5805,-0.7896000000000001,-0.0288,-0.1961,0.018,-0.013,0.0,52.15,-0.012,0.01,-0.009,-0.084,-0.968,-0.187,31.21,-22.88,-75.27,0.5880000000000001,-0.5268,-0.3612,-0.4961,-0.006,-0.009,0.003,52.995,-0.026,-0.007,-0.005,-0.092,-0.993,0.036,69.21000000000001,-16.25,-67.78,0.6926,-0.7164,0.0818,0.0127,-0.003,0.0,0.003,0.0,0.0,0.0,0.0,0.0,0.0,-0.0546493530273437,0.0009584426879882,0.036630630493164,0.0073261260986328,0.0036630630493164,0.0036630630493164,0.0,0.0,0.0,0.0
2025-11-06 18:34:09.364,63.725,0.219,-0.091,-0.008,-0.311,-0.92,0.273,11.4,-6.86,-42.35,0.5810000000000001,-0.7893,-0.0288,-0.1963,0.017,-0.01,0.0,52.15,-0.012,0.01,-0.009,-0.084,-0.968,-0.187,31.21,-22.88,-75.27,0.5880000000000001,-0.5268,-0.3612,-0.4961,-0.006,-0.009,0.003,52.995,-0.026,-0.007,-0.005,-0.092,-0.993,0.036,69.21000000000001,-16.25,-67.78,0.6926,-0.7164,0.0818,0.0127,-0.003,0.0,0.003,0.0,0.0,0.0,0.0,0.0,0.0,-0.0546493530273437,0.0009584426879882,0.036630630493164,0.0073261260986328,0.0036630630493164,0.0036630630493164,0.0,0.0,0.0,0.0
2025-11-06 18:34:09.364,63.72,0.208,-0.094,-0.01,-0.311,-0.922,0.273,11.78,-7.16,-42.41,0.5814,-0.7889,-0.0288,-0.1965,0.016,-0.007,0.0,52.15,-0.012,0.01,-0.009,-0.084,-0.968,-0.187,31.21,-22.88,-75.27,0.5880000000000001,-0.5268,-0.3612,-0.4961,-0.006,-0.009,0.003,52.995,-0.026,-0.007,-0.005,-0.092,-0.993,0.036,69.21000000000001,-16.25,-67.78,0.6926,-0.7164,0.0818,0.0127,-0.003,0.0,0.003,0.0,0.0,0.0,0.0,0.0,0.0,-0.0546493530273437,0.0009584426879882,0.036630630493164,0.0073261260986328,0.0036630630493164,0.0036630630493164,0.0,0.0,0.0,0.0
2025-11-06 18:34:09.364,63.715,0.199,-0.097,-0.011,-0.309,-0.926,0.275,11.78,-7.16,-42.41,0.5818,-0.7885000000000001,-0.0288,-0.1967,0.013,-0.003,-0.003,52.15,-0.012,0.01,-0.009,-0.084,-0.968,-0.187,31.21,-22.88,-75.27,0.5880000000000001,-0.5268,-0.3612,-0.4961,-0.006,-0.009,0.003,52.995,-0.026,-0.007,-0.005,-0.092,-0.993,0.036,69.21000000000001,-16.25,-67.78,0.6926,-0.7164,0.0818,0.0127,-0.003,0.0,0.003,0.0,0.0,0.0,0.0,0.0,0.0,-0.0546493530273437,0.0009584426879882,0.036630630493164,0.0073261260986328,0.0036630630493164,0.0036630630493164,0.0,0.0,0.0,0.0
2025-11-06 18:34:09.364,63.74,0.255,-0.081,-0.002,-0.317,-0.91,0.281,12.07,-6.69,-41.68,0.5795,-0.7905000000000001,-0.0288,-0.1957,0.022,-0.018,-0.003,52.15,-0.012,0.01,-0.009,-0.084,-0.968,-0.187,31.21,-22.88,-75.27,0.5880000000000001,-0.5268,-0.3612,-0.4961,-0.006,-0.009,0.003,52.995,-0.026,-0.007,-0.005,-0.092,-0.993,0.036,69.21000000000001,-16.25,-67.78,0.6926,-0.7164,0.0818,0.0127,-0.003,0.0,0.003,0.0,0.0,0.0,0.0,0.0,0.0,-0.0546493530273437,0.0009584426879882,0.036630630493164,0.0073261260986328,0.0036630630493164,0.0036630630493164,0.0,0.0,0.0,0.0
2025-11-06 18:34:09.364,63.705,0.169,-0.107,-0.01,-0.306,-0.933,0.276,12.04,-6.54,-42.58,0.5826,-0.7878000000000001,-0.0288,-0.1972,0.011,0.001,-0.006,52.15,-0.012,0.01,-0.009,-0.084,-0.968,-0.187,31.21,-22.88,-75.27,0.5880000000000001,-0.5268,-0.3612,-0.4961,-0.006,-0.009,0.003,52.995,-0.026,-0.007,-0.005,-0.092,-0.993,0.036,69.21000000000001,-16.25,-67.78,0.6926,-0.7164,0.0818,0.0127,-0.003,0.0,0.003,0.0,0.0,0.0,0.0,0.0,0.0,-0.0546493530273437,0.0009584426879882,0.036630630493164,0.0073261260986328,0.0036630630493164,0.0036630630493164,0.0,0.0,0.0,0.0
2025-11-06 18:34:09.364,63.7,0.163,-0.106,-0.008,-0.306,-0.933,0.274,12.04,-6.54,-42.58,0.5829,-0.7875000000000001,-0.0289,-0.1974,0.011,0.001,-0.005,52.15,-0.012,0.01,-0.009,-0.084,-0.968,-0.187,31.21,-22.88,-75.27,0.5880000000000001,-0.5268,-0.3612,-0.4961,-0.006,-0.009,0.003,52.995,-0.026,-0.007,-0.005,-0.092,-0.993,0.036,69.21000000000001,-16.25,-67.78,0.6926,-0.7164,0.0818,0.0127,-0.003,0.0,0.003,0.0,0.0,0.0,0.0,0.0,0.0,-0.0546493530273437,0.0009584426879882,0.036630630493164,0.0073261260986328,0.0036630630493164,0.0036630630493164,0.0,0.0,0.0,0.0
2025-11-06 18:34:09.364,63.695,0.158,-0.101,-0.007,-0.305,-0.934,0.272,11.83,-6.54,-42.73,0.5833,-0.7872,-0.0289,-0.1976,0.01,0.003,-0.004,52.15,-0.012,0.01,-0.009,-0.084,-0.968,-0.187,31.21,-22.88,-75.27,0.5880000000000001,-0.5268,-0.3612,-0.4961,-0.006,-0.009,0.003,52.995,-0.026,-0.007,-0.005,-0.092,-0.993,0.036,69.21000000000001,-16.25,-67.78,0.6926,-0.7164,0.0818,0.0127,-0.003,0.0,0.003,0.0,0.0,0.0,0.0,0.0,0.0,-0.0546493530273437,0.0009584426879882,0.036630630493164,0.0073261260986328,0.0036630630493164,0.0036630630493164,0.0,0.0,0.0,0.0
2025-11-06 18:34:09.364,63.69,0.155,-0.093,-0.004,-0.304,-0.936,0.27,11.83,-6.54,-42.73,0.5836,-0.787,-0.029,-0.1979,0.008,0.004,-0.003,52.15,-0.012,0.01,-0.009,-0.084,-0.968,-0.187,31.21,-22.88,-75.27,0.5880000000000001,-0.5268,-0.3612,-0.4961,-0.006,-0.009,0.003,52.995,-0.026,-0.007,-0.005,-0.092,-0.993,0.036,69.21000000000001,-16.25,-67.78,0.6926,-0.7164,0.0818,0.0127,-0.003,0.0,0.003,0.0,0.0,0.0,0.0,0.0,0.0,-0.0546493530273437,0.0009584426879882,0.036630630493164,0.0073261260986328,0.0036630630493164,0.0036630630493164,0.0,0.0,0.0,0.0
2025-11-06 18:34:09.364,63.71,0.186,-0.101,-0.011,-0.307,-0.93,0.274,12.04,-6.54,-42.58,0.5822,-0.7882,-0.0288,-0.1969,0.012,0.0,-0.003,52.15,-0.012,0.01,-0.009,-0.084,-0.968,-0.187,31.21,-22.88,-75.27,0.5880000000000001,-0.5268,-0.3612,-0.4961,-0.006,-0.009,0.003,52.995,-0.026,-0.007,-0.005,-0.092,-0.993,0.036,69.21000000000001,-16.25,-67.78,0.6926,-0.7164,0.0818,0.0127,-0.003,0.0,0.003,0.0,0.0,0.0,0.0,0.0,0.0,-0.0546493530273437,0.0009584426879882,0.036630630493164,0.0073261260986328,0.0036630630493164,0.0036630630493164,0.0,0.0,0.0,0.0
2025-11-06 18:34:09.364,63.685,0.159,-0.094,0.0,-0.305,-0.936,0.271,11.25,-6.6000000000000005,-42.91,0.5839,-0.7867000000000001,-0.029,-0.1981,0.009,0.004,-0.004,52.15,-0.012,0.01,-0.009,-0.084,-0.968,-0.187,31.21,-22.88,-75.27,0.5880000000000001,-0.5268,-0.3612,-0.4961,-0.006,-0.009,0.003,52.995,-0.026,-0.007,-0.005,-0.092,-0.993,0.036,69.21000000000001,-16.25,-67.78,0.6926,-0.7164,0.0818,0.0127,-0.003,0.0,0.003,0.0,0.0,0.0,0.0,0.0,0.0,-0.0546493530273437,0.0009584426879882,0.036630630493164,0.0073261260986328,0.0036630630493164,0.0036630630493164,0.0,0.0,0.0,0.0
2025-11-06 18:34:09.366,63.8,0.156,-0.022,-0.002,-0.322,-0.914,0.311,12.42,-7.48,-42.0,0.5738,-0.7949,-0.0292,-0.1946,0.028,-0.009,-0.02,52.15,-0.012,0.01,-0.009,-0.084,-0.968,-0.187,31.21,-22.88,-75.27,0.5880000000000001,-0.5268,-0.3612,-0.4961,-0.006,-0.009,0.003,52.995,-0.026,-0.007,-0.005,-0.092,-0.993,0.036,69.21000000000001,-16.25,-67.78,0.6926,-0.7164,0.0818,0.0127,-0.003,0.0,0.003,0.0,0.0,0.0,0.0,0.0,0.0,-0.0546493530273437,0.0009584426879882,0.036630630493164,0.0073261260986328,0.0036630630493164,0.0036630630493164,0.0,0.0,0.0,0.0
2025-11-06 18:34:09.366,63.795,0.168,-0.025,0.0,-0.323,-0.912,0.312,11.8,-7.71,-42.56,0.5741,-0.7947000000000001,-0.0292,-0.1947,0.028,-0.012,-0.021,52.15,-0.012,0.01,-0.009,-0.084,-0.968,-0.187,31.21,-22.88,-75.27,0.5880000000000001,-0.5268,-0.3612,-0.4961,-0.006,-0.009,0.003,52.995,-0.026,-0.007,-0.005,-0.092,-0.993,0.036,69.21000000000001,-16.25,-67.78,0.6926,-0.7164,0.0818,0.0127,-0.003,0.0,0.003,0.0,0.0,0.0,0.0,0.0,0.0,-0.0546493530273437,0.0009584426879882,0.036630630493164,0.0073261260986328,0.0036630630493164,0.0036630630493164,0.0,0.0,0.0,0.0
2025-11-06 18:34:09.366,63.79,0.185,-0.024,0.001,-0.325,-0.911,0.311,11.8,-7.71,-42.56,0.5745,-0.7944,-0.0292,-0.1947,0.03,-0.013,-0.021,52.15,-0.012,0.01,-0.009,-0.084,-0.968,-0.187,31.21,-22.88,-75.27,0.5880000000000001,-0.5268,-0.3612,-0.4961,-0.006,-0.009,0.003,52.995,-0.026,-0.007,-0.005,-0.092,-0.993,0.036,69.21000000000001,-16.25,-67.78,0.6926,-0.7164,0.0818,0.0127,-0.003,0.0,0.003,0.0,0.0,0.0,0.0,0.0,0.0,-0.0546493530273437,0.0009584426879882,0.036630630493164,0.0073261260986328,0.0036630630493164,0.0036630630493164,0.0,0.0,0.0,0.0
2025-11-06 18:34:09.366,63.785,0.203,-0.027,0.003,-0.327,-0.91,0.31,11.63,-6.19,-42.26,0.5749000000000001,-0.7941,-0.0291,-0.1948,0.032,-0.015,-0.021,52.15,-0.012,0.01,-0.009,-0.084,-0.968,-0.187,31.21,-22.88,-75.27,0.5880000000000001,-0.5268,-0.3612,-0.4961,-0.006,-0.009,0.003,52.995,-0.026,-0.007,-0.005,-0.092,-0.993,0.036,69.21000000000001,-16.25,-67.78,0.6926,-0.7164,0.0818,0.0127,-0.003,0.0,0.003,0.0,0.0,0.0,0.0,0.0,0.0,-0.0546493530273437,0.0009584426879882,0.036630630493164,0.0073261260986328,0.0036630630493164,0.0036630630493164,0.0,0.0,0.0,0.0
2025-11-06 18:34:09.366,63.77,0.257,-0.043,0.005,-0.322,-0.908,0.303,11.95,-6.43,-42.06,0.5763,-0.793,-0.029,-0.1949,0.028,-0.018,-0.017,52.15,-0.012,0.01,-0.009,-0.084,-0.968,-0.187,31.21,-22.88,-75.27,0.5880000000000001,-0.5268,-0.3612,-0.4961,-0.006,-0.009,0.003,52.995,-0.026,-0.007,-0.005,-0.092,-0.993,0.036,69.21000000000001,-16.25,-67.78,0.6926,-0.7164,0.0818,0.0127,-0.003,0.0,0.003,0.0,0.0,0.0,0.0,0.0,0.0,-0.0546493530273437,0.0009584426879882,0.036630630493164,0.0073261260986328,0.0036630630493164,0.0036630630493164,0.0,0.0,0.0,0.0
2025-11-06 18:34:09.366,63.775,0.238,-0.038,0.005,-0.327,-0.908,0.306,11.63,-6.19,-42.26,0.5758,-0.7934,-0.029,-0.1949,0.032,-0.017,-0.019,52.15,-0.012,0.01,-0.009,-0.084,-0.968,-0.187,31.21,-22.88,-75.27,0.5880000000000001,-0.5268,-0.3612,-0.4961,-0.006,-0.009,0.003,52.995,-0.026,-0.007,-0.005,-0.092,-0.993,0.036,69.21000000000001,-16.25,-67.78,0.6926,-0.7164,0.0818,0.0127,-0.003,0.0,0.003,0.0,0.0,0.0,0.0,0.0,0.0,-0.0546493530273437,0.0009584426879882,0.036630630493164,0.0073261260986328,0.0036630630493164,0.0036630630493164,0.0,0.0,0.0,0.0
2025-11-06 18:34:09.366,63.765,0.266,-0.049,0.006,-0.321,-0.907,0.301,11.95,-6.43,-42.06,0.5768,-0.7926000000000001,-0.0289,-0.195,0.027,-0.019,-0.016,52.15,-0.012,0.01,-0.009,-0.084,-0.968,-0.187,31.21,-22.88,-75.27,0.5880000000000001,-0.5268,-0.3612,-0.4961,-0.006,-0.009,0.003,52.995,-0.026,-0.007,-0.005,-0.092,-0.993,0.036,69.21000000000001,-16.25,-67.78,0.6926,-0.7164,0.0818,0.0127,-0.003,0.0,0.003,0.0,0.0,0.0,0.0,0.0,0.0,-0.0546493530273437,0.0009584426879882,0.036630630493164,0.0073261260986328,0.0036630630493164,0.0036630630493164,0.0,0.0,0.0,0.0
2025-11-06 18:34:09.366,63.76,0.272,-0.055,0.004,-0.321,-0.907,0.297,12.13,-6.25,-42.73,0.5774,-0.7922,-0.0289,-0.1951,0.026,-0.02,-0.014,52.15,-0.012,0.01,-0.009,-0.084,-0.968,-0.187,31.21,-22.88,-75.27,0.5880000000000001,-0.5268,-0.3612,-0.4961,-0.006,-0.009,0.003,52.995,-0.026,-0.007,-0.005,-0.092,-0.993,0.036,69.21000000000001,-16.25,-67.78,0.6926,-0.7164,0.0818,0.0127,-0.003,0.0,0.003,0.0,0.0,0.0,0.0,0.0,0.0,-0.0546493530273437,0.0009584426879882,0.036630630493164,0.0073261260986328,0.0036630630493164,0.0036630630493164,0.0,0.0,0.0,0.0
2025-11-06 18:34:09.366,63.805,0.141,-0.02,-0.003,-0.321,-0.92,0.312,12.42,-7.48,-42.0,0.5735,-0.7951,-0.0293,-0.1946,0.027,-0.003,-0.019,52.15,-0.012,0.01,-0.009,-0.084,-0.968,-0.187,31.21,-22.88,-75.27,0.5880000000000001,-0.5268,-0.3612,-0.4961,-0.006,-0.009,0.003,52.995,-0.026,-0.007,-0.005,-0.092,-0.993,0.036,69.21000000000001,-16.25,-67.78,0.6926,-0.7164,0.0818,0.0127,-0.003,0.0,0.003,0.0,0.0,0.0,0.0,0.0,0.0,-0.0546493530273437,0.0009584426879882,0.036630630493164,0.0073261260986328,0.0036630630493164,0.0036630630493164,0.0,0.0,0.0,0.0
2025-11-06 18:34:09.366,63.755,0.271,-0.062,0.002,-0.321,-0.908,0.294,12.13,-6.25,-42.73,0.5779000000000001,-0.7918000000000001,-0.0289,-0.1953,0.027,-0.019,-0.012,52.15,-0.012,0.01,-0.009,-0.084,-0.968,-0.187,31.21,-22.88,-75.27,0.5880000000000001,-0.5268,-0.3612,-0.4961,-0.006,-0.009,0.003,52.995,-0.026,-0.007,-0.005,-0.092,-0.993,0.036,69.21000000000001,-16.25,-67.78,0.6926,-0.7164,0.0818,0.0127,-0.003,0.0,0.003,0.0,0.0,0.0,0.0,0.0,0.0,-0.0546493530273437,0.0009584426879882,0.036630630493164,0.0073261260986328,0.0036630630493164,0.0036630630493164,0.0,0.0,0.0,0.0
2025-11-06 18:34:09.366,63.78,0.223,-0.03,0.004,-0.327,-0.909,0.307,11.63,-6.19,-42.26,0.5753,-0.7938000000000001,-0.0291,-0.1948,0.032,-0.016,-0.019,52.15,-0.012,0.01,-0.009,-0.084,-0.968,-0.187,31.21,-22.88,-75.27,0.5880000000000001,-0.5268,-0.3612,-0.4961,-0.006,-0.009,0.003,52.995,-0.026,-0.007,-0.005,-0.092,-0.993,0.036,69.21000000000001,-16.25,-67.78,0.6926,-0.7164,0.0818,0.0127,-0.003,0.0,0.003,0.0,0.0,0.0,0.0,0.0,0.0,-0.0546493530273437,0.0009584426879882,0.036630630493164,0.0073261260986328,0.0036630630493164,0.0036630630493164,0.0,0.0,0.0,0.0
2025-11-06 18:34:09.366,63.75,0.267,-0.072,0.001,-0.321,-0.905,0.29,12.13,-6.25,-42.73,0.5785,-0.7913,-0.0288,-0.1954,0.027,-0.022,-0.01,52.15,-0.012,0.01,-0.009,-0.084,-0.968,-0.187,31.21,-22.88,-75.27,0.5880000000000001,-0.5268,-0.3612,-0.4961,-0.006,-0.009,0.003,52.995,-0.026,-0.007,-0.005,-0.092,-0.993,0.036,69.21000000000001,-16.25,-67.78,0.6926,-0.7164,0.0818,0.0127,-0.003,0.0,0.003,0.0,0.0,0.0,0.0,0.0,0.0,-0.0546493530273437,0.0009584426879882,0.036630630493164,0.0073261260986328,0.0036630630493164,0.0036630630493164,0.0,0.0,0.0,0.0
2025-11-06 18:34:09.366,63.845,0.108,-0.068,-0.009,-0.312,-0.931,0.303,11.42,-6.63,-41.8,0.5714,-0.7968000000000001,-0.0293,-0.1937,0.018,0.008,-0.005,52.15,-0.012,0.01,-0.009,-0.084,-0.968,-0.187,31.21,-22.88,-75.27,0.5880000000000001,-0.5268,-0.3612,-0.4961,-0.006,-0.009,0.003,52.995,-0.026,-0.007,-0.005,-0.092,-0.993,0.036,69.21000000000001,-16.25,-67.78,0.6926,-0.7164,0.0818,0.0127,-0.003,0.0,0.003,0.0,0.0,0.0,0.0,0.0,0.0,-0.0546493530273437,0.0009584426879882,0.036630630493164,0.0073261260986328,0.0036630630493164,0.0036630630493164,0.0,0.0,0.0,0.0
2025-11-06 18:34:09.366,63.82,0.135,-0.032,-0.002,-0.316,-0.931,0.309,12.1,-6.51,-41.77,0.5726,-0.7958000000000001,-0.0294,-0.1944,0.022,0.007,-0.014,52.15,-0.012,0.01,-0.009,-0.084,-0.968,-0.187,31.21,-22.88,-75.27,0.5880000000000001,-0.5268,-0.3612,-0.4961,-0.006,-0.009,0.003,52.995,-0.026,-0.007,-0.005,-0.092,-0.993,0.036,69.21000000000001,-16.25,-67.78,0.6926,-0.7164,0.0818,0.0127,-0.003,0.0,0.003,0.0,0.0,0.0,0.0,0.0,0.0,-0.0546493530273437,0.0009584426879882,0.036630630493164,0.0073261260986328,0.0036630630493164,0.0036630630493164,0.0,0.0,0.0,0.0
2025-11-06 18:34:09.366,63.825,0.131,-0.038,0.0,-0.316,-0.936,0.307,11.6,-6.57,-41.88,0.5724,-0.796,-0.0294,-0.1943,0.022,0.012,-0.011,52.15,-0.012,0.01,-0.009,-0.084,-0.968,-0.187,31.21,-22.88,-75.27,0.5880000000000001,-0.5268,-0.3612,-0.4961,-0.006,-0.009,0.003,52.995,-0.026,-0.007,-0.005,-0.092,-0.993,0.036,69.21000000000001,-16.25,-67.78,0.6926,-0.7164,0.0818,0.0127,-0.003,0.0,0.003,0.0,0.0,0.0,0.0,0.0,0.0,-0.0546493530273437,0.0009584426879882,0.036630630493164,0.0073261260986328,0.0036630630493164,0.0036630630493164,0.0,0.0,0.0,0.0
2025-11-06 18:34:09.366,63.83,0.127,-0.056,-0.001,-0.315,-0.935,0.305,11.6,-6.57,-41.88,0.5721,-0.7962,-0.0294,-0.1942,0.021,0.011,-0.009,52.15,-0.012,0.01,-0.009,-0.084,-0.968,-0.187,31.21,-22.88,-75.27,0.5880000000000001,-0.5268,-0.3612,-0.4961,-0.006,-0.009,0.003,52.995,-0.026,-0.007,-0.005,-0.092,-0.993,0.036,69.21000000000001,-16.25,-67.78,0.6926,-0.7164,0.0818,0.0127,-0.003,0.0,0.003,0.0,0.0,0.0,0.0,0.0,0.0,-0.0546493530273437,0.0009584426879882,0.036630630493164,0.0073261260986328,0.0036630630493164,0.0036630630493164,0.0,0.0,0.0,0.0
2025-11-06 18:34:09.366,63.835,0.12,-0.061,-0.003,-0.314,-0.932,0.305,11.6,-6.57,-41.88,0.5719000000000001,-0.7964,-0.0293,-0.194,0.02,0.009,-0.008,52.15,-0.012,0.01,-0.009,-0.084,-0.968,-0.187,31.21,-22.88,-75.27,0.5880000000000001,-0.5268,-0.3612,-0.4961,-0.006,-0.009,0.003,52.995,-0.026,-0.007,-0.005,-0.092,-0.993,0.036,69.21000000000001,-16.25,-67.78,0.6926,-0.7164,0.0818,0.0127,-0.003,0.0,0.003,0.0,0.0,0.0,0.0,0.0,0.0,-0.0546493530273437,0.0009584426879882,0.036630630493164,0.0073261260986328,0.0036630630493164,0.0036630630493164,0.0,0.0,0.0,0.0
2025-11-06 18:34:09.366,63.84,0.114,-0.063,-0.007,-0.314,-0.931,0.304,11.42,-6.63,-41.8,0.5716,-0.7966000000000001,-0.0293,-0.1939,0.02,0.007,-0.006,52.15,-0.012,0.01,-0.009,-0.084,-0.968,-0.187,31.21,-22.88,-75.27,0.5880000000000001,-0.5268,-0.3612,-0.4961,-0.006,-0.009,0.003,52.995,-0.026,-0.007,-0.005,-0.092,-0.993,0.036,69.21000000000001,-16.25,-67.78,0.6926,-0.7164,0.0818,0.0127,-0.003,0.0,0.003,0.0,0.0,0.0,0.0,0.0,0.0,-0.0546493530273437,0.0009584426879882,0.036630630493164,0.0073261260986328,0.0036630630493164,0.0036630630493164,0.0,0.0,0.0,0.0
2025-11-06 18:34:09.366,63.85,0.101,-0.073,-0.016,-0.31,-0.928,0.3,11.42,-6.63,-41.8,0.5712,-0.797,-0.0293,-0.1936,0.017,0.005,-0.002,52.15,-0.012,0.01,-0.009,-0.084,-0.968,-0.187,31.21,-22.88,-75.27,0.5880000000000001,-0.5268,-0.3612,-0.4961,-0.006,-0.009,0.003,52.995,-0.026,-0.007,-0.005,-0.092,-0.993,0.036,69.21000000000001,-16.25,-67.78,0.6926,-0.7164,0.0818,0.0127,-0.003,0.0,0.003,0.0,0.0,0.0,0.0,0.0,0.0,-0.0546493530273437,0.0009584426879882,0.036630630493164,0.0073261260986328,0.0036630630493164,0.0036630630493164,0.0,0.0,0.0,0.0
2025-11-06 18:34:09.366,63.855,0.098,-0.082,-0.021,-0.306,-0.927,0.3,11.83,-6.25,-42.38,0.5710000000000001,-0.7972,-0.0292,-0.1934,0.013,0.004,-0.001,52.15,-0.012,0.01,-0.009,-0.084,-0.968,-0.187,31.21,-22.88,-75.27,0.5880000000000001,-0.5268,-0.3612,-0.4961,-0.006,-0.009,0.003,52.995,-0.026,-0.007,-0.005,-0.092,-0.993,0.036,69.21000000000001,-16.25,-67.78,0.6926,-0.7164,0.0818,0.0127,-0.003,0.0,0.003,0.0,0.0,0.0,0.0,0.0,0.0,-0.0546493530273437,0.0009584426879882,0.036630630493164,0.0073261260986328,0.0036630630493164,0.0036630630493164,0.0,0.0,0.0,0.0
2025-11-06 18:34:09.366,63.86,0.1,-0.092,-0.027,-0.304,-0.923,0.298,11.83,-6.25,-42.38,0.5709000000000001,-0.7974,-0.0292,-0.1931,0.011,0.0,0.001,52.15,-0.012,0.01,-0.009,-0.084,-0.968,-0.187,31.21,-22.88,-75.27,0.5880000000000001,-0.5268,-0.3612,-0.4961,-0.006,-0.009,0.003,52.995,-0.026,-0.007,-0.005,-0.092,-0.993,0.036,69.21000000000001,-16.25,-67.78,0.6926,-0.7164,0.0818,0.0127,-0.003,0.0,0.003,0.0,0.0,0.0,0.0,0.0,0.0,-0.0546493530273437,0.0009584426879882,0.036630630493164,0.0073261260986328,0.0036630630493164,0.0036630630493164,0.0,0.0,0.0,0.0
2025-11-06 18:34:09.366,63.865,0.095,-0.098,-0.032,-0.304,-0.923,0.297,12.13,-6.1000000000000005,-42.0,0.5707,-0.7976000000000001,-0.0292,-0.1929,0.011,0.0,0.002,52.15,-0.012,0.01,-0.009,-0.084,-0.968,-0.187,31.21,-22.88,-75.27,0.5880000000000001,-0.5268,-0.3612,-0.4961,-0.006,-0.009,0.003,52.995,-0.026,-0.007,-0.005,-0.092,-0.993,0.036,69.21000000000001,-16.25,-67.78,0.6926,-0.7164,0.0818,0.0127,-0.003,0.0,0.003,0.0,0.0,0.0,0.0,0.0,0.0,-0.0546493530273437,0.0009584426879882,0.036630630493164,0.0073261260986328,0.0036630630493164,0.0036630630493164,0.0,0.0,0.0,0.0
2025-11-06 18:34:09.366,63.81,0.136,-0.024,-0.002,-0.32,-0.925,0.31,12.42,-7.48,-42.0,0.5732,-0.7954,-0.0293,-0.1945,0.026,0.001,-0.017,52.15,-0.012,0.01,-0.009,-0.084,-0.968,-0.187,31.21,-22.88,-75.27,0.5880000000000001,-0.5268,-0.3612,-0.4961,-0.006,-0.009,0.003,52.995,-0.026,-0.007,-0.005,-0.092,-0.993,0.036,69.21000000000001,-16.25,-67.78,0.6926,-0.7164,0.0818,0.0127,-0.003,0.0,0.003,0.0,0.0,0.0,0.0,0.0,0.0,-0.0546493530273437,0.0009584426879882,0.036630630493164,0.0073261260986328,0.0036630630493164,0.0036630630493164,0.0,0.0,0.0,0.0
2025-11-06 18:34:09.366,63.745,0.263,-0.078,0.0,-0.318,-0.907,0.285,12.07,-6.69,-41.68,0.5790000000000001,-0.7909,-0.0288,-0.1956,0.024,-0.021,-0.007,52.15,-0.012,0.01,-0.009,-0.084,-0.968,-0.187,31.21,-22.88,-75.27,0.5880000000000001,-0.5268,-0.3612,-0.4961,-0.006,-0.009,0.003,52.995,-0.026,-0.007,-0.005,-0.092,-0.993,0.036,69.21000000000001,-16.25,-67.78,0.6926,-0.7164,0.0818,0.0127,-0.003,0.0,0.003,0.0,0.0,0.0,0.0,0.0,0.0,-0.0546493530273437,0.0009584426879882,0.036630630493164,0.0073261260986328,0.0036630630493164,0.0036630630493164,0.0,0.0,0.0,0.0
2025-11-06 18:34:09.366,63.815,0.138,-0.027,-0.001,-0.318,-0.929,0.311,12.1,-6.51,-41.77,0.5729000000000001,-0.7956000000000001,-0.0293,-0.1944,0.024,0.005,-0.016,52.15,-0.012,0.01,-0.009,-0.084,-0.968,-0.187,31.21,-22.88,-75.27,0.5880000000000001,-0.5268,-0.3612,-0.4961,-0.006,-0.009,0.003,52.995,-0.026,-0.007,-0.005,-0.092,-0.993,0.036,69.21000000000001,-16.25,-67.78,0.6926,-0.7164,0.0818,0.0127,-0.003,0.0,0.003,0.0,0.0,0.0,0.0,0.0,0.0,-0.0546493530273437,0.0009584426879882,0.036630630493164,0.0073261260986328,0.0036630630493164,0.0036630630493164,0.0,0.0,0.0,0.0
2025-11-06 18:34:09.366,63.87,0.094,-0.102,-0.036,-0.302,-0.922,0.297,12.13,-6.1000000000000005,-42.0,0.5705,-0.7977000000000001,-0.0292,-0.1926,0.01,0.0,0.003,52.15,-0.012,0.01,-0.009,-0.084,-0.968,-0.187,31.21,-22.88,-75.27,0.5880000000000001,-0.5268,-0.3612,-0.4961,-0.006,-0.009,0.003,52.995,-0.026,-0.007,-0.005,-0.092,-0.993,0.036,69.21000000000001,-16.25,-67.78,0.6926,-0.7164,0.0818,0.0127,-0.003,0.0,0.003,0.0,0.0,0.0,0.0,0.0,0.0,-0.0546493530273437,0.0009584426879882,0.036630630493164,0.0073261260986328,0.0036630630493164,0.0036630630493164,0.0,0.0,0.0,0.0
2025-11-06 18:34:09.366,63.875,0.095,-0.106,-0.039,-0.302,-0.924,0.295,12.13,-6.1000000000000005,-42.0,0.5704,-0.7979,-0.0291,-0.1924,0.01,0.001,0.005,52.15,-0.012,0.01,-0.009,-0.084,-0.968,-0.187,31.21,-22.88,-75.27,0.5880000000000001,-0.5268,-0.3612,-0.4961,-0.006,-0.009,0.003,52.995,-0.026,-0.007,-0.005,-0.092,-0.993,0.036,69.21000000000001,-16.25,-67.78,0.6926,-0.7164,0.0818,0.0127,-0.003,0.0,0.003,0.0,0.0,0.0,0.0,0.0,0.0,-0.0546493530273437,0.0009584426879882,0.036630630493164,0.0073261260986328,0.0036630630493164,0.0036630630493164,0.0,0.0,0.0,0.0
2025-11-06 18:34:09.366,63.88,0.094,-0.108,-0.045,-0.299,-0.922,0.294,11.72,-6.54,-42.18,0.5702,-0.7981,-0.0291,-0.1921,0.007,0.0,0.007,52.15,-0.012,0.01,-0.009,-0.084,-0.968,-0.187,31.21,-22.88,-75.27,0.5880000000000001,-0.5268,-0.3612,-0.4961,-0.006,-0.009,0.003,52.995,-0.026,-0.007,-0.005,-0.092,-0.993,0.036,69.21000000000001,-16.25,-67.78,0.6926,-0.7164,0.0818,0.0127,-0.003,0.0,0.003,0.0,0.0,0.0,0.0,0.0,0.0,-0.0546493530273437,0.0009584426879882,0.036630630493164,0.0073261260986328,0.0036630630493164,0.0036630630493164,0.0,0.0,0.0,0.0
2025-11-06 18:34:09.366,63.935,0.078,-0.217,-0.102,-0.268,-0.889,0.302,12.39,-6.34,-42.12,0.5687,-0.8002,-0.029,-0.1875,-0.017,-0.032,0.005,52.15,-0.012,0.01,-0.009,-0.084,-0.968,-0.187,31.21,-22.88,-75.27,0.5880000000000001,-0.5268,-0.3612,-0.4961,-0.006,-0.009,0.003,52.995,-0.026,-0.007,-0.005,-0.092,-0.993,0.036,69.21000000000001,-16.25,-67.78,0.6926,-0.7164,0.0818,0.0127,-0.003,0.0,0.003,0.0,0.0,0.0,0.0,0.0,0.0,-0.0546493530273437,0.0009584426879882,0.036630630493164,0.0073261260986328,0.0036630630493164,0.0036630630493164,0.0,0.0,0.0,0.0
2025-11-06 18:34:09.366,63.925,0.084,-0.176,-0.089,-0.274,-0.891,0.3,12.33,-6.13,-42.38,0.5689000000000001,-0.7998000000000001,-0.0291,-0.1887,-0.013,-0.03,0.006,52.15,-0.012,0.01,-0.009,-0.084,-0.968,-0.187,31.21,-22.88,-75.27,0.5880000000000001,-0.5268,-0.3612,-0.4961,-0.006,-0.009,0.003,52.995,-0.026,-0.007,-0.005,-0.092,-0.993,0.036,69.21000000000001,-16.25,-67.78,0.6926,-0.7164,0.0818,0.0127,-0.003,0.0,0.003,0.0,0.0,0.0,0.0,0.0,0.0,-0.0546493530273437,0.0009584426879882,0.036630630493164,0.0073261260986328,0.0036630630493164,0.0036630630493164,0.0,0.0,0.0,0.0
2025-11-06 18:34:09.366,63.92,0.087,-0.161,-0.082,-0.277,-0.891,0.302,12.33,-6.13,-42.38,0.5690000000000001,-0.7997000000000001,-0.0291,-0.1891,-0.01,-0.03,0.004,52.15,-0.012,0.01,-0.009,-0.084,-0.968,-0.187,31.21,-22.88,-75.27,0.5880000000000001,-0.5268,-0.3612,-0.4961,-0.006,-0.009,0.003,52.995,-0.026,-0.007,-0.005,-0.092,-0.993,0.036,69.21000000000001,-16.25,-67.78,0.6926,-0.7164,0.0818,0.0127,-0.003,0.0,0.003,0.0,0.0,0.0,0.0,0.0,0.0,-0.0546493530273437,0.0009584426879882,0.036630630493164,0.0073261260986328,0.0036630630493164,0.0036630630493164,0.0,0.0,0.0,0.0
2025-11-06 18:34:09.366,63.905,0.094,-0.135,-0.067,-0.287,-0.901,0.302,12.27,-6.28,-42.38,0.5694,-0.7991,-0.0291,-0.1904,-0.002,-0.02,0.002,52.15,-0.012,0.01,-0.009,-0.084,-0.968,-0.187,31.21,-22.88,-75.27,0.5880000000000001,-0.5268,-0.3612,-0.4961,-0.006,-0.009,0.003,52.995,-0.026,-0.007,-0.005,-0.092,-0.993,0.036,69.21000000000001,-16.25,-67.78,0.6926,-0.7164,0.0818,0.0127,-0.003,0.0,0.003,0.0,0.0,0.0,0.0,0.0,0.0,-0.0546493530273437,0.0009584426879882,0.036630630493164,0.0073261260986328,0.0036630630493164,0.0036630630493164,0.0,0.0,0.0,0.0
2025-11-06 18:34:09.366,63.91,0.093,-0.137,-0.072,-0.283,-0.897,0.303,12.27,-6.28,-42.38,0.5693,-0.7993,-0.0291,-0.19,-0.005,-0.024,0.001,52.15,-0.012,0.01,-0.009,-0.084,-0.968,-0.187,31.21,-22.88,-75.27,0.5880000000000001,-0.5268,-0.3612,-0.4961,-0.006,-0.009,0.003,52.995,-0.026,-0.007,-0.005,-0.092,-0.993,0.036,69.21000000000001,-16.25,-67.78,0.6926,-0.7164,0.0818,0.0127,-0.003,0.0,0.003,0.0,0.0,0.0,0.0,0.0,0.0,-0.0546493530273437,0.0009584426879882,0.036630630493164,0.0073261260986328,0.0036630630493164,0.0036630630493164,0.0,0.0,0.0,0.0
2025-11-06 18:34:09.366,63.9,0.095,-0.13,-0.063,-0.286,-0.906,0.302,11.75,-6.22,-41.97,0.5696,-0.7989,-0.0291,-0.1907,-0.003,-0.015,0.002,52.15,-0.012,0.01,-0.009,-0.084,-0.968,-0.187,31.21,-22.88,-75.27,0.5880000000000001,-0.5268,-0.3612,-0.4961,-0.006,-0.009,0.003,52.995,-0.026,-0.007,-0.005,-0.092,-0.993,0.036,69.21000000000001,-16.25,-67.78,0.6926,-0.7164,0.0818,0.0127,-0.003,0.0,0.003,0.0,0.0,0.0,0.0,0.0,0.0,-0.0546493530273437,0.0009584426879882,0.036630630493164,0.0073261260986328,0.0036630630493164,0.0036630630493164,0.0,0.0,0.0,0.0
2025-11-06 18:34:09.366,63.895,0.095,-0.128,-0.059,-0.289,-0.912,0.3,11.75,-6.22,-41.97,0.5697,-0.7987000000000001,-0.0291,-0.1911,-0.001,-0.009,0.003,52.15,-0.012,0.01,-0.009,-0.084,-0.968,-0.187,31.21,-22.88,-75.27,0.5880000000000001,-0.5268,-0.3612,-0.4961,-0.006,-0.009,0.003,52.995,-0.026,-0.007,-0.005,-0.092,-0.993,0.036,69.21000000000001,-16.25,-67.78,0.6926,-0.7164,0.0818,0.0127,-0.003,0.0,0.003,0.0,0.0,0.0,0.0,0.0,0.0,-0.0546493530273437,0.0009584426879882,0.036630630493164,0.0073261260986328,0.0036630630493164,0.0036630630493164,0.0,0.0,0.0,0.0
2025-11-06 18:34:09.366,63.94,0.085,-0.233,-0.107,-0.263,-0.892,0.307,12.3,-6.37,-41.56,0.5686,-0.8005,-0.0289,-0.1869,-0.021,-0.029,0.001,52.15,-0.012,0.01,-0.009,-0.084,-0.968,-0.187,31.21,-22.88,-75.27,0.5880000000000001,-0.5268,-0.3612,-0.4961,-0.006,-0.009,0.003,52.995,-0.026,-0.007,-0.005,-0.092,-0.993,0.036,69.21000000000001,-16.25,-67.78,0.6926,-0.7164,0.0818,0.0127,-0.003,0.0,0.003,0.0,0.0,0.0,0.0,0.0,0.0,-0.0546493530273437,0.0009584426879882,0.036630630493164,0.0073261260986328,0.0036630630493164,0.0036630630493164,0.0,0.0,0.0,0.0
2025-11-06 18:34:09.366,63.89,0.094,-0.121,-0.054,-0.293,-0.916,0.297,11.75,-6.22,-41.97,0.5699000000000001,-0.7985,-0.0291,-0.1915,0.002,-0.005,0.005,52.15,-0.012,0.01,-0.009,-0.084,-0.968,-0.187,31.21,-22.88,-75.27,0.5880000000000001,-0.5268,-0.3612,-0.4961,-0.006,-0.009,0.003,52.995,-0.026,-0.007,-0.005,-0.092,-0.993,0.036,69.21000000000001,-16.25,-67.78,0.6926,-0.7164,0.0818,0.0127,-0.003,0.0,0.003,0.0,0.0,0.0,0.0,0.0,0.0,-0.0546493530273437,0.0009584426879882,0.036630630493164,0.0073261260986328,0.0036630630493164,0.0036630630493164,0.0,0.0,0.0,0.0
2025-11-06 18:34:09.366,63.915,0.093,-0.144,-0.076,-0.279,-0.894,0.302,12.33,-6.13,-42.38,0.5691,-0.7995,-0.0291,-0.1896,-0.008,-0.027,0.002,52.15,-0.012,0.01,-0.009,-0.084,-0.968,-0.187,31.21,-22.88,-75.27,0.5880000000000001,-0.5268,-0.3612,-0.4961,-0.006,-0.009,0.003,52.995,-0.026,-0.007,-0.005,-0.092,-0.993,0.036,69.21000000000001,-16.25,-67.78,0.6926,-0.7164,0.0818,0.0127,-0.003,0.0,0.003,0.0,0.0,0.0,0.0,0.0,0.0,-0.0546493530273437,0.0009584426879882,0.036630630493164,0.0073261260986328,0.0036630630493164,0.0036630630493164,0.0,0.0,0.0,0.0
2025-11-06 18:34:09.366,63.945,0.091,-0.262,-0.118,-0.253,-0.898,0.311,12.3,-6.37,-41.56,0.5685,-0.8007000000000001,-0.0289,-0.1862,-0.03,-0.023,-0.001,52.15,-0.012,0.01,-0.009,-0.084,-0.968,-0.187,31.21,-22.88,-75.27,0.5880000000000001,-0.5268,-0.3612,-0.4961,-0.006,-0.009,0.003,52.995,-0.026,-0.007,-0.005,-0.092,-0.993,0.036,69.21000000000001,-16.25,-67.78,0.6926,-0.7164,0.0818,0.0127,-0.003,0.0,0.003,0.0,0.0,0.0,0.0,0.0,0.0,-0.0546493530273437,0.0009584426879882,0.036630630493164,0.0073261260986328,0.0036630630493164,0.0036630630493164,0.0,0.0,0.0,0.0
2025-11-06 18:34:09.366,63.98,0.115,-0.486,-0.163,-0.18,-0.954,0.373,12.59,-6.1000000000000005,-41.91,0.5677,-0.803,-0.0276,-0.1791,-0.093,0.034,-0.054,52.15,-0.012,0.01,-0.009,-0.084,-0.968,-0.187,31.21,-22.88,-75.27,0.5880000000000001,-0.5268,-0.3612,-0.4961,-0.006,-0.009,0.003,52.995,-0.026,-0.007,-0.005,-0.092,-0.993,0.036,69.21000000000001,-16.25,-67.78,0.6926,-0.7164,0.0818,0.0127,-0.003,0.0,0.003,0.0,0.0,0.0,0.0,0.0,0.0,-0.0546493530273437,0.0009584426879882,0.036630630493164,0.0073261260986328,0.0036630630493164,0.0036630630493164,0.0,0.0,0.0,0.0
2025-11-06 18:34:09.366,63.93,0.079,-0.191,-0.096,-0.271,-0.89,0.301,12.39,-6.34,-42.12,0.5688,-0.8,-0.029,-0.1881,-0.015,-0.031,0.005,52.15,-0.012,0.01,-0.009,-0.084,-0.968,-0.187,31.21,-22.88,-75.27,0.5880000000000001,-0.5268,-0.3612,-0.4961,-0.006,-0.009,0.003,52.995,-0.026,-0.007,-0.005,-0.092,-0.993,0.036,69.21000000000001,-16.25,-67.78,0.6926,-0.7164,0.0818,0.0127,-0.003,0.0,0.003,0.0,0.0,0.0,0.0,0.0,0.0,-0.0546493530273437,0.0009584426879882,0.036630630493164,0.0073261260986328,0.0036630630493164,0.0036630630493164,0.0,0.0,0.0,0.0
2025-11-06 18:34:09.366,63.96,0.104,-0.356,-0.142,-0.233,-0.922,0.333,12.62,-6.63,-41.97,0.5682,-0.8016000000000001,-0.0285,-0.1836,-0.047,0.0,-0.019,52.15,-0.012,0.01,-0.009,-0.084,-0.968,-0.187,31.21,-22.88,-75.27,0.5880000000000001,-0.5268,-0.3612,-0.4961,-0.006,-0.009,0.003,52.995,-0.026,-0.007,-0.005,-0.092,-0.993,0.036,69.21000000000001,-16.25,-67.78,0.6926,-0.7164,0.0818,0.0127,-0.003,0.0,0.003,0.0,0.0,0.0,0.0,0.0,0.0,-0.0546493530273437,0.0009584426879882,0.036630630493164,0.0073261260986328,0.0036630630493164,0.0036630630493164,0.0,0.0,0.0,0.0
2025-11-06 18:34:09.366,63.965,0.107,-0.396,-0.151,-0.221,-0.931,0.341,12.83,-6.86,-41.88,0.5680000000000001,-0.8019000000000001,-0.0283,-0.1826,-0.058,0.01,-0.027,52.15,-0.012,0.01,-0.009,-0.084,-0.968,-0.187,31.21,-22.88,-75.27,0.5880000000000001,-0.5268,-0.3612,-0.4961,-0.006,-0.009,0.003,52.995,-0.026,-0.007,-0.005,-0.092,-0.993,0.036,69.21000000000001,-16.25,-67.78,0.6926,-0.7164,0.0818,0.0127,-0.003,0.0,0.003,0.0,0.0,0.0,0.0,0.0,0.0,-0.0546493530273437,0.0009584426879882,0.036630630493164,0.0073261260986328,0.0036630630493164,0.0036630630493164,0.0,0.0,0.0,0.0
2025-11-06 18:34:09.366,63.97,0.112,-0.429,-0.155,-0.212,-0.939,0.356,12.83,-6.86,-41.88,0.5679000000000001,-0.8022,-0.0281,-0.1815,-0.065,0.019,-0.04,52.15,-0.012,0.01,-0.009,-0.084,-0.968,-0.187,31.21,-22.88,-75.27,0.5880000000000001,-0.5268,-0.3612,-0.4961,-0.006,-0.009,0.003,52.995,-0.026,-0.007,-0.005,-0.092,-0.993,0.036,69.21000000000001,-16.25,-67.78,0.6926,-0.7164,0.0818,0.0127,-0.003,0.0,0.003,0.0,0.0,0.0,0.0,0.0,0.0,-0.0546493530273437,0.0009584426879882,0.036630630493164,0.0073261260986328,0.0036630630493164,0.0036630630493164,0.0,0.0,0.0,0.0
2025-11-06 18:34:09.366,63.975,0.114,-0.468,-0.162,-0.194,-0.949,0.368,12.83,-6.86,-41.88,0.5678000000000001,-0.8026000000000001,-0.0278,-0.1803,-0.081,0.029,-0.051,52.15,-0.012,0.01,-0.009,-0.084,-0.968,-0.187,31.21,-22.88,-75.27,0.5880000000000001,-0.5268,-0.3612,-0.4961,-0.006,-0.009,0.003,52.995,-0.026,-0.007,-0.005,-0.092,-0.993,0.036,69.21000000000001,-16.25,-67.78,0.6926,-0.7164,0.0818,0.0127,-0.003,0.0,0.003,0.0,0.0,0.0,0.0,0.0,0.0,-0.0546493530273437,0.0009584426879882,0.036630630493164,0.0073261260986328,0.0036630630493164,0.0036630630493164,0.0,0.0,0.0,0.0
2025-11-06 18:34:09.366,63.985,0.117,-0.502,-0.163,-0.168,-0.955,0.375,12.59,-6.1000000000000005,-41.91,0.5675,-0.8033,-0.0273,-0.1779,-0.105,0.035,-0.055,52.15,-0.012,0.01,-0.009,-0.084,-0.968,-0.187,31.21,-22.88,-75.27,0.5880000000000001,-0.5268,-0.3612,-0.4961,-0.006,-0.009,0.003,52.995,-0.026,-0.007,-0.005,-0.092,-0.993,0.036,69.21000000000001,-16.25,-67.78,0.6926,-0.7164,0.0818,0.0127,-0.003,0.0,0.003,0.0,0.0,0.0,0.0,0.0,0.0,-0.0546493530273437,0.0009584426879882,0.036630630493164,0.0073261260986328,0.0036630630493164,0.0036630630493164,0.0,0.0,0.0,0.0
2025-11-06 18:34:09.366,63.99,0.121,-0.509,-0.159,-0.156,-0.954,0.377,12.45,-5.72,-42.2,0.5674,-0.8037000000000001,-0.027,-0.1766,-0.114,0.034,-0.056,52.15,-0.012,0.01,-0.009,-0.084,-0.968,-0.187,31.21,-22.88,-75.27,0.5880000000000001,-0.5268,-0.3612,-0.4961,-0.006,-0.009,0.003,52.995,-0.026,-0.007,-0.005,-0.092,-0.993,0.036,69.21000000000001,-16.25,-67.78,0.6926,-0.7164,0.0818,0.0127,-0.003,0.0,0.003,0.0,0.0,0.0,0.0,0.0,0.0,-0.0546493530273437,0.0009584426879882,0.036630630493164,0.0073261260986328,0.0036630630493164,0.0036630630493164,0.0,0.0,0.0,0.0
2025-11-06 18:34:09.366,63.995,0.128,-0.515,-0.155,-0.148,-0.949,0.376,12.45,-5.72,-42.2,0.5673,-0.8041,-0.0266,-0.1753,-0.122,0.029,-0.054,52.15,-0.012,0.01,-0.009,-0.084,-0.968,-0.187,31.21,-22.88,-75.27,0.5880000000000001,-0.5268,-0.3612,-0.4961,-0.006,-0.009,0.003,52.995,-0.026,-0.007,-0.005,-0.092,-0.993,0.036,69.21000000000001,-16.25,-67.78,0.6926,-0.7164,0.0818,0.0127,-0.003,0.0,0.003,0.0,0.0,0.0,0.0,0.0,0.0,-0.0546493530273437,0.0009584426879882,0.036630630493164,0.0073261260986328,0.0036630630493164,0.0036630630493164,0.0,0.0,0.0,0.0
2025-11-06 18:34:09.366,64.0,0.139,-0.518,-0.15,-0.143,-0.944,0.372,12.45,-5.72,-42.2,0.5671,-0.8045,-0.0263,-0.174,-0.125,0.024,-0.048,52.15,-0.012,0.01,-0.009,-0.084,-0.968,-0.187,31.21,-22.88,-75.27,0.5880000000000001,-0.5268,-0.3612,-0.4961,-0.006,-0.009,0.003,52.995,-0.026,-0.007,-0.005,-0.092,-0.993,0.036,69.21000000000001,-16.25,-67.78,0.6926,-0.7164,0.0818,0.0127,-0.003,0.0,0.003,0.0,0.0,0.0,0.0,0.0,0.0,-0.0546493530273437,0.0009584426879882,0.036630630493164,0.0073261260986328,0.0036630630493164,0.0036630630493164,0.0,0.0,0.0,0.0
2025-11-06 18:34:09.366,64.005,0.152,-0.531,-0.141,-0.142,-0.936,0.365,12.89,-6.16,-42.03,0.5669000000000001,-0.805,-0.026,-0.1727,-0.124,0.016,-0.04,52.15,-0.012,0.01,-0.009,-0.084,-0.968,-0.187,31.21,-22.88,-75.27,0.5880000000000001,-0.5268,-0.3612,-0.4961,-0.006,-0.009,0.003,52.995,-0.026,-0.007,-0.005,-0.092,-0.993,0.036,69.21000000000001,-16.25,-67.78,0.6926,-0.7164,0.0818,0.0127,-0.003,0.0,0.003,0.0,0.0,0.0,0.0,0.0,0.0,-0.0546493530273437,0.0009584426879882,0.036630630493164,0.0073261260986328,0.0036630630493164,0.0036630630493164,0.0,0.0,0.0,0.0
2025-11-06 18:34:09.366,63.885,0.096,-0.112,-0.049,-0.295,-0.919,0.296,11.72,-6.54,-42.18,0.5700000000000001,-0.7983,-0.0291,-0.1918,0.003,-0.003,0.006,52.15,-0.012,0.01,-0.009,-0.084,-0.968,-0.187,31.21,-22.88,-75.27,0.5880000000000001,-0.5268,-0.3612,-0.4961,-0.006,-0.009,0.003,52.995,-0.026,-0.007,-0.005,-0.092,-0.993,0.036,69.21000000000001,-16.25,-67.78,0.6926,-0.7164,0.0818,0.0127,-0.003,0.0,0.003,0.0,0.0,0.0,0.0,0.0,0.0,-0.0546493530273437,0.0009584426879882,0.036630630493164,0.0073261260986328,0.0036630630493164,0.0036630630493164,0.0,0.0,0.0,0.0
2025-11-06 18:34:09.366,63.95,0.096,-0.294,-0.126,-0.246,-0.905,0.316,12.3,-6.37,-41.56,0.5684,-0.801,-0.0288,-0.1854,-0.036,-0.016,-0.005,52.15,-0.012,0.01,-0.009,-0.084,-0.968,-0.187,31.21,-22.88,-75.27,0.5880000000000001,-0.5268,-0.3612,-0.4961,-0.006,-0.009,0.003,52.995,-0.026,-0.007,-0.005,-0.092,-0.993,0.036,69.21000000000001,-16.25,-67.78,0.6926,-0.7164,0.0818,0.0127,-0.003,0.0,0.003,0.0,0.0,0.0,0.0,0.0,0.0,-0.0546493530273437,0.0009584426879882,0.036630630493164,0.0073261260986328,0.0036630630493164,0.0036630630493164,0.0,0.0,0.0,0.0
2025-11-06 18:34:09.366,63.955,0.1,-0.324,-0.134,-0.24,-0.913,0.324,12.62,-6.63,-41.97,0.5683,-0.8013,-0.0286,-0.1846,-0.041,-0.007,-0.011,52.15,-0.012,0.01,-0.009,-0.084,-0.968,-0.187,31.21,-22.88,-75.27,0.5880000000000001,-0.5268,-0.3612,-0.4961,-0.006,-0.009,0.003,52.995,-0.026,-0.007,-0.005,-0.092,-0.993,0.036,69.21000000000001,-16.25,-67.78,0.6926,-0.7164,0.0818,0.0127,-0.003,0.0,0.003,0.0,0.0,0.0,0.0,0.0,0.0,-0.0546493530273437,0.0009584426879882,0.036630630493164,0.0073261260986328,0.0036630630493164,0.0036630630493164,0.0,0.0,0.0,0.0
2025-11-06 18:34:09.367,64.05,0.253,-0.389,-0.112,-0.214,-0.939,0.324,13.68,-6.19,-41.71,0.5639000000000001,-0.8094,-0.023,-0.1618,-0.039,0.019,0.013,52.15,-0.012,0.01,-0.009,-0.084,-0.968,-0.187,31.21,-22.88,-75.27,0.5880000000000001,-0.5268,-0.3612,-0.4961,-0.006,-0.009,0.003,52.995,-0.026,-0.007,-0.005,-0.092,-0.993,0.036,69.21000000000001,-16.25,-67.78,0.6926,-0.7164,0.0818,0.0127,-0.003,0.0,0.003,0.0,0.0,0.0,0.0,0.0,0.0,-0.0546493530273437,0.0009584426879882,0.036630630493164,0.0073261260986328,0.0036630630493164,0.0036630630493164,0.0,0.0,0.0,0.0
2025-11-06 18:34:09.367,64.045,0.239,-0.429,-0.117,-0.207,-0.935,0.322,13.68,-6.19,-41.71,0.5644,-0.8089000000000001,-0.0232,-0.1628,-0.047,0.015,0.013,52.15,-0.012,0.01,-0.009,-0.084,-0.968,-0.187,31.21,-22.88,-75.27,0.5880000000000001,-0.5268,-0.3612,-0.4961,-0.006,-0.009,0.003,52.995,-0.026,-0.007,-0.005,-0.092,-0.993,0.036,69.21000000000001,-16.25,-67.78,0.6926,-0.7164,0.0818,0.0127,-0.003,0.0,0.003,0.0,0.0,0.0,0.0,0.0,0.0,-0.0546493530273437,0.0009584426879882,0.036630630493164,0.0073261260986328,0.0036630630493164,0.0036630630493164,0.0,0.0,0.0,0.0
2025-11-06 18:34:09.367,64.04,0.228,-0.466,-0.119,-0.202,-0.933,0.32,13.68,-6.19,-41.71,0.5648000000000001,-0.8084,-0.0235,-0.1639,-0.054,0.012,0.014,52.15,-0.012,0.01,-0.009,-0.084,-0.968,-0.187,31.21,-22.88,-75.27,0.5880000000000001,-0.5268,-0.3612,-0.4961,-0.006,-0.009,0.003,52.995,-0.026,-0.007,-0.005,-0.092,-0.993,0.036,69.21000000000001,-16.25,-67.78,0.6926,-0.7164,0.0818,0.0127,-0.003,0.0,0.003,0.0,0.0,0.0,0.0,0.0,0.0,-0.0546493530273437,0.0009584426879882,0.036630630493164,0.0073261260986328,0.0036630630493164,0.0036630630493164,0.0,0.0,0.0,0.0
2025-11-06 18:34:09.367,64.015,0.175,-0.537,-0.137,-0.152,-0.932,0.35,14.03,-6.22,-42.29,0.5664,-0.8059000000000001,-0.0252,-0.1701,-0.111,0.011,-0.023,52.15,-0.012,0.01,-0.009,-0.084,-0.968,-0.187,31.21,-22.88,-75.27,0.5880000000000001,-0.5268,-0.3612,-0.4961,-0.006,-0.009,0.003,52.995,-0.026,-0.007,-0.005,-0.092,-0.993,0.036,69.21000000000001,-16.25,-67.78,0.6926,-0.7164,0.0818,0.0127,-0.003,0.0,0.003,0.0,0.0,0.0,0.0,0.0,0.0,-0.0546493530273437,0.0009584426879882,0.036630630493164,0.0073261260986328,0.0036630630493164,0.0036630630493164,0.0,0.0,0.0,0.0
2025-11-06 18:34:09.367,64.03,0.2,-0.528,-0.124,-0.179,-0.934,0.324,13.24,-6.43,-42.41,0.5655,-0.8074,-0.0241,-0.1662,-0.08,0.013,0.007,52.15,-0.012,0.01,-0.009,-0.084,-0.968,-0.187,31.21,-22.88,-75.27,0.5880000000000001,-0.5268,-0.3612,-0.4961,-0.006,-0.009,0.003,52.995,-0.026,-0.007,-0.005,-0.092,-0.993,0.036,69.21000000000001,-16.25,-67.78,0.6926,-0.7164,0.0818,0.0127,-0.003,0.0,0.003,0.0,0.0,0.0,0.0,0.0,0.0,-0.0546493530273437,0.0009584426879882,0.036630630493164,0.0073261260986328,0.0036630630493164,0.0036630630493164,0.0,0.0,0.0,0.0
2025-11-06 18:34:09.367,64.025,0.191,-0.54,-0.129,-0.169,-0.932,0.335,14.03,-6.22,-42.29,0.5658000000000001,-0.8069000000000001,-0.0245,-0.1675,-0.091,0.012,-0.005,52.15,-0.012,0.01,-0.009,-0.084,-0.968,-0.187,31.21,-22.88,-75.27,0.5880000000000001,-0.5268,-0.3612,-0.4961,-0.006,-0.009,0.003,52.995,-0.026,-0.007,-0.005,-0.092,-0.993,0.036,69.21000000000001,-16.25,-67.78,0.6926,-0.7164,0.0818,0.0127,-0.003,0.0,0.003,0.0,0.0,0.0,0.0,0.0,0.0,-0.0546493530273437,0.0009584426879882,0.036630630493164,0.0073261260986328,0.0036630630493164,0.0036630630493164,0.0,0.0,0.0,0.0
2025-11-06 18:34:09.367,64.125,0.253,0.22,-0.049,-0.213,-0.968,0.278,13.27,-5.5200000000000005,-40.95,0.5558000000000001,-0.8155,-0.0256,-0.1589,-0.035,0.053,0.08,52.15,-0.012,0.01,-0.009,-0.084,-0.968,-0.187,31.21,-22.88,-75.27,0.5880000000000001,-0.5268,-0.3612,-0.4961,-0.006,-0.009,0.003,52.995,-0.026,-0.007,-0.005,-0.092,-0.993,0.036,69.21000000000001,-16.25,-67.78,0.6926,-0.7164,0.0818,0.0127,-0.003,0.0,0.003,0.0,0.0,0.0,0.0,0.0,0.0,-0.0546493530273437,0.0009584426879882,0.036630630493164,0.0073261260986328,0.0036630630493164,0.0036630630493164,0.0,0.0,0.0,0.0
2025-11-06 18:34:09.367,64.055,0.264,-0.349,-0.106,-0.219,-0.944,0.33,13.85,-6.13,-41.15,0.5634,-0.8099000000000001,-0.0229,-0.161,-0.033,0.024,0.009,52.15,-0.012,0.01,-0.009,-0.084,-0.968,-0.187,31.21,-22.88,-75.27,0.5880000000000001,-0.5268,-0.3612,-0.4961,-0.006,-0.009,0.003,52.995,-0.026,-0.007,-0.005,-0.092,-0.993,0.036,69.21000000000001,-16.25,-67.78,0.6926,-0.7164,0.0818,0.0127,-0.003,0.0,0.003,0.0,0.0,0.0,0.0,0.0,0.0,-0.0546493530273437,0.0009584426879882,0.036630630493164,0.0073261260986328,0.0036630630493164,0.0036630630493164,0.0,0.0,0.0,0.0
2025-11-06 18:34:09.367,64.035,0.21,-0.509,-0.122,-0.19,-0.933,0.32,13.24,-6.43,-42.41,0.5651,-0.8079000000000001,-0.0238,-0.165,-0.068,0.012,0.012,52.15,-0.012,0.01,-0.009,-0.084,-0.968,-0.187,31.21,-22.88,-75.27,0.5880000000000001,-0.5268,-0.3612,-0.4961,-0.006,-0.009,0.003,52.995,-0.026,-0.007,-0.005,-0.092,-0.993,0.036,69.21000000000001,-16.25,-67.78,0.6926,-0.7164,0.0818,0.0127,-0.003,0.0,0.003,0.0,0.0,0.0,0.0,0.0,0.0,-0.0546493530273437,0.0009584426879882,0.036630630493164,0.0073261260986328,0.0036630630493164,0.0036630630493164,0.0,0.0,0.0,0.0
2025-11-06 18:34:09.367,64.06,0.277,-0.305,-0.099,-0.222,-0.952,0.336,13.85,-6.13,-41.15,0.5629000000000001,-0.8104,-0.0228,-0.1602,-0.029,0.032,0.005,52.15,-0.012,0.01,-0.009,-0.084,-0.968,-0.187,31.21,-22.88,-75.27,0.5880000000000001,-0.5268,-0.3612,-0.4961,-0.006,-0.009,0.003,52.995,-0.026,-0.007,-0.005,-0.092,-0.993,0.036,69.21000000000001,-16.25,-67.78,0.6926,-0.7164,0.0818,0.0127,-0.003,0.0,0.003,0.0,0.0,0.0,0.0,0.0,0.0,-0.0546493530273437,0.0009584426879882,0.036630630493164,0.0073261260986328,0.0036630630493164,0.0036630630493164,0.0,0.0,0.0,0.0
2025-11-06 18:34:09.367,64.095,0.282,0.005,-0.032,-0.222,-1.001,0.327,13.62,-6.890000000000001,-41.06,0.559,-0.8136,-0.0234,-0.1579,-0.025,0.084,0.026,52.15,-0.012,0.01,-0.009,-0.084,-0.968,-0.187,31.21,-22.88,-75.27,0.5880000000000001,-0.5268,-0.3612,-0.4961,-0.006,-0.009,0.003,52.995,-0.026,-0.007,-0.005,-0.092,-0.993,0.036,69.21000000000001,-16.25,-67.78,0.6926,-0.7164,0.0818,0.0127,-0.003,0.0,0.003,0.0,0.0,0.0,0.0,0.0,0.0,-0.0546493530273437,0.0009584426879882,0.036630630493164,0.0073261260986328,0.0036630630493164,0.0036630630493164,0.0,0.0,0.0,0.0
2025-11-06 18:34:09.367,64.07,0.29,-0.187,-0.078,-0.229,-0.969,0.345,13.41,-6.1000000000000005,-41.71,0.5618000000000001,-0.8114,-0.0228,-0.159,-0.02,0.05,0.0,52.15,-0.012,0.01,-0.009,-0.084,-0.968,-0.187,31.21,-22.88,-75.27,0.5880000000000001,-0.5268,-0.3612,-0.4961,-0.006,-0.009,0.003,52.995,-0.026,-0.007,-0.005,-0.092,-0.993,0.036,69.21000000000001,-16.25,-67.78,0.6926,-0.7164,0.0818,0.0127,-0.003,0.0,0.003,0.0,0.0,0.0,0.0,0.0,0.0,-0.0546493530273437,0.0009584426879882,0.036630630493164,0.0073261260986328,0.0036630630493164,0.0036630630493164,0.0,0.0,0.0,0.0
2025-11-06 18:34:09.367,64.065,0.283,-0.257,-0.091,-0.225,-0.959,0.342,13.41,-6.1000000000000005,-41.71,0.5624,-0.8109000000000001,-0.0228,-0.1595,-0.025,0.04,0.001,52.15,-0.012,0.01,-0.009,-0.084,-0.968,-0.187,31.21,-22.88,-75.27,0.5880000000000001,-0.5268,-0.3612,-0.4961,-0.006,-0.009,0.003,52.995,-0.026,-0.007,-0.005,-0.092,-0.993,0.036,69.21000000000001,-16.25,-67.78,0.6926,-0.7164,0.0818,0.0127,-0.003,0.0,0.003,0.0,0.0,0.0,0.0,0.0,0.0,-0.0546493530273437,0.0009584426879882,0.036630630493164,0.0073261260986328,0.0036630630493164,0.0036630630493164,0.0,0.0,0.0,0.0
2025-11-06 18:34:09.367,64.115,0.258,0.141,-0.038,-0.211,-0.992,0.305,15.05,-6.19,-41.62,0.5568000000000001,-0.8150000000000001,-0.0246,-0.1583,-0.036,0.076,0.051,52.15,-0.012,0.01,-0.009,-0.084,-0.968,-0.187,31.21,-22.88,-75.27,0.5880000000000001,-0.5268,-0.3612,-0.4961,-0.006,-0.009,0.003,52.995,-0.026,-0.007,-0.005,-0.092,-0.993,0.036,69.21000000000001,-16.25,-67.78,0.6926,-0.7164,0.0818,0.0127,-0.003,0.0,0.003,0.0,0.0,0.0,0.0,0.0,0.0,-0.0546493530273437,0.0009584426879882,0.036630630493164,0.0073261260986328,0.0036630630493164,0.0036630630493164,0.0,0.0,0.0,0.0
2025-11-06 18:34:09.367,64.1,0.276,0.029,-0.031,-0.219,-1.004,0.324,13.62,-6.890000000000001,-41.06,0.5584,-0.8140000000000001,-0.0237,-0.1578,-0.028,0.087,0.03,52.15,-0.012,0.01,-0.009,-0.084,-0.968,-0.187,31.21,-22.88,-75.27,0.5880000000000001,-0.5268,-0.3612,-0.4961,-0.006,-0.009,0.003,52.995,-0.026,-0.007,-0.005,-0.092,-0.993,0.036,69.21000000000001,-16.25,-67.78,0.6926,-0.7164,0.0818,0.0127,-0.003,0.0,0.003,0.0,0.0,0.0,0.0,0.0,0.0,-0.0546493530273437,0.0009584426879882,0.036630630493164,0.0073261260986328,0.0036630630493164,0.0036630630493164,0.0,0.0,0.0,0.0
2025-11-06 18:34:09.367,64.11,0.263,0.099,-0.034,-0.21,-0.999,0.315,15.05,-6.19,-41.62,0.5573,-0.8146,-0.0242,-0.158,-0.037,0.083,0.041,52.15,-0.012,0.01,-0.009,-0.084,-0.968,-0.187,31.21,-22.88,-75.27,0.5880000000000001,-0.5268,-0.3612,-0.4961,-0.006,-0.009,0.003,52.995,-0.026,-0.007,-0.005,-0.092,-0.993,0.036,69.21000000000001,-16.25,-67.78,0.6926,-0.7164,0.0818,0.0127,-0.003,0.0,0.003,0.0,0.0,0.0,0.0,0.0,0.0,-0.0546493530273437,0.0009584426879882,0.036630630493164,0.0073261260986328,0.0036630630493164,0.0036630630493164,0.0,0.0,0.0,0.0
2025-11-06 18:34:09.367,64.085,0.283,-0.063,-0.052,-0.231,-0.991,0.34,13.09,-7.07,-42.0,0.5601,-0.8128000000000001,-0.0231,-0.1581,-0.017,0.073,0.009,52.15,-0.012,0.01,-0.009,-0.084,-0.968,-0.187,31.21,-22.88,-75.27,0.5880000000000001,-0.5268,-0.3612,-0.4961,-0.006,-0.009,0.003,52.995,-0.026,-0.007,-0.005,-0.092,-0.993,0.036,69.21000000000001,-16.25,-67.78,0.6926,-0.7164,0.0818,0.0127,-0.003,0.0,0.003,0.0,0.0,0.0,0.0,0.0,0.0,-0.0546493530273437,0.0009584426879882,0.036630630493164,0.0073261260986328,0.0036630630493164,0.0036630630493164,0.0,0.0,0.0,0.0
2025-11-06 18:34:09.367,64.08,0.285,-0.099,-0.062,-0.231,-0.982,0.344,13.09,-7.07,-42.0,0.5607,-0.8123,-0.023,-0.1583,-0.017,0.064,0.004,52.15,-0.012,0.01,-0.009,-0.084,-0.968,-0.187,31.21,-22.88,-75.27,0.5880000000000001,-0.5268,-0.3612,-0.4961,-0.006,-0.009,0.003,52.995,-0.026,-0.007,-0.005,-0.092,-0.993,0.036,69.21000000000001,-16.25,-67.78,0.6926,-0.7164,0.0818,0.0127,-0.003,0.0,0.003,0.0,0.0,0.0,0.0,0.0,0.0,-0.0546493530273437,0.0009584426879882,0.036630630493164,0.0073261260986328,0.0036630630493164,0.0036630630493164,0.0,0.0,0.0,0.0
2025-11-06 18:34:09.367,64.075,0.289,-0.142,-0.069,-0.23,-0.975,0.347,13.41,-6.1000000000000005,-41.71,0.5613,-0.8119000000000001,-0.0229,-0.1586,-0.018,0.056,0.0,52.15,-0.012,0.01,-0.009,-0.084,-0.968,-0.187,31.21,-22.88,-75.27,0.5880000000000001,-0.5268,-0.3612,-0.4961,-0.006,-0.009,0.003,52.995,-0.026,-0.007,-0.005,-0.092,-0.993,0.036,69.21000000000001,-16.25,-67.78,0.6926,-0.7164,0.0818,0.0127,-0.003,0.0,0.003,0.0,0.0,0.0,0.0,0.0,0.0,-0.0546493530273437,0.0009584426879882,0.036630630493164,0.0073261260986328,0.0036630630493164,0.0036630630493164,0.0,0.0,0.0,0.0
2025-11-06 18:34:09.367,64.09,0.282,-0.035,-0.041,-0.228,-0.998,0.332,13.09,-7.07,-42.0,0.5596,-0.8132,-0.0233,-0.1579,-0.02,0.08,0.019,52.15,-0.012,0.01,-0.009,-0.084,-0.968,-0.187,31.21,-22.88,-75.27,0.5880000000000001,-0.5268,-0.3612,-0.4961,-0.006,-0.009,0.003,52.995,-0.026,-0.007,-0.005,-0.092,-0.993,0.036,69.21000000000001,-16.25,-67.78,0.6926,-0.7164,0.0818,0.0127,-0.003,0.0,0.003,0.0,0.0,0.0,0.0,0.0,0.0,-0.0546493530273437,0.0009584426879882,0.036630630493164,0.0073261260986328,0.0036630630493164,0.0036630630493164,0.0,0.0,0.0,0.0
2025-11-06 18:34:09.367,64.01,0.164,-0.532,-0.14,-0.146,-0.934,0.358,12.89,-6.16,-42.03,0.5666,-0.8054,-0.0256,-0.1714,-0.119,0.014,-0.032,52.15,-0.012,0.01,-0.009,-0.084,-0.968,-0.187,31.21,-22.88,-75.27,0.5880000000000001,-0.5268,-0.3612,-0.4961,-0.006,-0.009,0.003,52.995,-0.026,-0.007,-0.005,-0.092,-0.993,0.036,69.21000000000001,-16.25,-67.78,0.6926,-0.7164,0.0818,0.0127,-0.003,0.0,0.003,0.0,0.0,0.0,0.0,0.0,0.0,-0.0546493530273437,0.0009584426879882,0.036630630493164,0.0073261260986328,0.0036630630493164,0.0036630630493164,0.0,0.0,0.0,0.0
2025-11-06 18:34:09.367,64.02,0.183,-0.544,-0.132,-0.159,-0.932,0.343,14.03,-6.22,-42.29,0.5661,-0.8064,-0.0249,-0.1688,-0.103,0.012,-0.015,52.15,-0.012,0.01,-0.009,-0.084,-0.968,-0.187,31.21,-22.88,-75.27,0.5880000000000001,-0.5268,-0.3612,-0.4961,-0.006,-0.009,0.003,52.995,-0.026,-0.007,-0.005,-0.092,-0.993,0.036,69.21000000000001,-16.25,-67.78,0.6926,-0.7164,0.0818,0.0127,-0.003,0.0,0.003,0.0,0.0,0.0,0.0,0.0,0.0,-0.0546493530273437,0.0009584426879882,0.036630630493164,0.0073261260986328,0.0036630630493164,0.0036630630493164,0.0,0.0,0.0,0.0
2025-11-06 18:34:09.367,64.12,0.255,0.182,-0.045,-0.211,-0.98,0.287,13.27,-5.5200000000000005,-40.95,0.5563,-0.8152,-0.025,-0.1586,-0.037,0.065,0.071,52.15,-0.012,0.01,-0.009,-0.084,-0.968,-0.187,31.21,-22.88,-75.27,0.5880000000000001,-0.5268,-0.3612,-0.4961,-0.006,-0.009,0.003,52.995,-0.026,-0.007,-0.005,-0.092,-0.993,0.036,69.21000000000001,-16.25,-67.78,0.6926,-0.7164,0.0818,0.0127,-0.003,0.0,0.003,0.0,0.0,0.0,0.0,0.0,0.0,-0.0546493530273437,0.0009584426879882,0.036630630493164,0.0073261260986328,0.0036630630493164,0.0036630630493164,0.0,0.0,0.0,0.0
2025-11-06 18:34:09.367,64.24,0.36,0.632,0.173,-0.131,-1.048,0.436,12.56,-5.75,-38.81,0.5389,-0.8208000000000001,-0.0417,-0.1845,-0.142,0.151,-0.055,52.15,-0.012,0.01,-0.009,-0.084,-0.968,-0.187,31.21,-22.88,-75.27,0.5880000000000001,-0.5268,-0.3612,-0.4961,-0.006,-0.009,0.003,52.995,-0.026,-0.007,-0.005,-0.092,-0.993,0.036,69.21000000000001,-16.25,-67.78,0.6926,-0.7164,0.0818,0.0127,-0.003,0.0,0.003,0.0,0.0,0.0,0.0,0.0,0.0,-0.0546493530273437,0.0009584426879882,0.036630630493164,0.0073261260986328,0.0036630630493164,0.0036630630493164,0.0,0.0,0.0,0.0
2025-11-06 18:34:09.367,64.13,0.257,0.25,-0.053,-0.218,-0.956,0.27,13.97,-6.28,-40.66,0.5553,-0.8158000000000001,-0.0261,-0.1593,-0.03,0.041,0.089,52.15,-0.012,0.01,-0.009,-0.084,-0.968,-0.187,31.21,-22.88,-75.27,0.5880000000000001,-0.5268,-0.3612,-0.4961,-0.006,-0.009,0.003,52.995,-0.026,-0.007,-0.005,-0.092,-0.993,0.036,69.21000000000001,-16.25,-67.78,0.6926,-0.7164,0.0818,0.0127,-0.003,0.0,0.003,0.0,0.0,0.0,0.0,0.0,0.0,-0.0546493530273437,0.0009584426879882,0.036630630493164,0.0073261260986328,0.0036630630493164,0.0036630630493164,0.0,0.0,0.0,0.0
2025-11-06 18:34:09.367,64.175,0.294,0.501,0.016,-0.206,-0.837,0.33,13.12,-6.92,-40.77,0.5499,-0.8179000000000001,-0.0322,-0.1657,-0.048,-0.073,0.034,52.15,-0.012,0.01,-0.009,-0.084,-0.968,-0.187,31.21,-22.88,-75.27,0.5880000000000001,-0.5268,-0.3612,-0.4961,-0.006,-0.009,0.003,52.995,-0.026,-0.007,-0.005,-0.092,-0.993,0.036,69.21000000000001,-16.25,-67.78,0.6926,-0.7164,0.0818,0.0127,-0.003,0.0,0.003,0.0,0.0,0.0,0.0,0.0,0.0,-0.0546493530273437,0.0009584426879882,0.036630630493164,0.0073261260986328,0.0036630630493164,0.0036630630493164,0.0,0.0,0.0,0.0
2025-11-06 18:34:09.367,64.17,0.289,0.467,0.002,-0.21,-0.844,0.319,13.12,-6.92,-40.77,0.5506,-0.8177000000000001,-0.0314,-0.1647,-0.042,-0.066,0.044,52.15,-0.012,0.01,-0.009,-0.084,-0.968,-0.187,31.21,-22.88,-75.27,0.5880000000000001,-0.5268,-0.3612,-0.4961,-0.006,-0.009,0.003,52.995,-0.026,-0.007,-0.005,-0.092,-0.993,0.036,69.21000000000001,-16.25,-67.78,0.6926,-0.7164,0.0818,0.0127,-0.003,0.0,0.003,0.0,0.0,0.0,0.0,0.0,0.0,-0.0546493530273437,0.0009584426879882,0.036630630493164,0.0073261260986328,0.0036630630493164,0.0036630630493164,0.0,0.0,0.0,0.0
2025-11-06 18:34:09.367,64.105,0.269,0.062,-0.031,-0.214,-1.004,0.32,15.05,-6.19,-41.62,0.5579000000000001,-0.8143,-0.0239,-0.1579,-0.033,0.088,0.035,52.15,-0.012,0.01,-0.009,-0.084,-0.968,-0.187,31.21,-22.88,-75.27,0.5880000000000001,-0.5268,-0.3612,-0.4961,-0.006,-0.009,0.003,52.995,-0.026,-0.007,-0.005,-0.092,-0.993,0.036,69.21000000000001,-16.25,-67.78,0.6926,-0.7164,0.0818,0.0127,-0.003,0.0,0.003,0.0,0.0,0.0,0.0,0.0,0.0,-0.0546493530273437,0.0009584426879882,0.036630630493164,0.0073261260986328,0.0036630630493164,0.0036630630493164,0.0,0.0,0.0,0.0
2025-11-06 18:34:09.367,64.14,0.265,0.291,-0.051,-0.217,-0.931,0.264,13.97,-6.28,-40.66,0.5542,-0.8163,-0.0273,-0.1603,-0.032,0.016,0.096,52.15,-0.012,0.01,-0.009,-0.084,-0.968,-0.187,31.21,-22.88,-75.27,0.5880000000000001,-0.5268,-0.3612,-0.4961,-0.006,-0.009,0.003,52.995,-0.026,-0.007,-0.005,-0.092,-0.993,0.036,69.21000000000001,-16.25,-67.78,0.6926,-0.7164,0.0818,0.0127,-0.003,0.0,0.003,0.0,0.0,0.0,0.0,0.0,0.0,-0.0546493530273437,0.0009584426879882,0.036630630493164,0.0073261260986328,0.0036630630493164,0.0036630630493164,0.0,0.0,0.0,0.0
2025-11-06 18:34:09.367,64.155,0.271,0.369,-0.031,-0.215,-0.882,0.281,12.89,-5.9,-40.66,0.5525,-0.8170000000000001,-0.0293,-0.1622,-0.035,-0.03,0.081,52.15,-0.012,0.01,-0.009,-0.084,-0.968,-0.187,31.21,-22.88,-75.27,0.5880000000000001,-0.5268,-0.3612,-0.4961,-0.006,-0.009,0.003,52.995,-0.026,-0.007,-0.005,-0.092,-0.993,0.036,69.21000000000001,-16.25,-67.78,0.6926,-0.7164,0.0818,0.0127,-0.003,0.0,0.003,0.0,0.0,0.0,0.0,0.0,0.0,-0.0546493530273437,0.0009584426879882,0.036630630493164,0.0073261260986328,0.0036630630493164,0.0036630630493164,0.0,0.0,0.0,0.0
2025-11-06 18:34:09.367,64.15,0.268,0.346,-0.039,-0.22,-0.897,0.274,12.83,-5.84,-40.83,0.553,-0.8168000000000001,-0.0286,-0.1615,-0.03,-0.016,0.087,52.15,-0.012,0.01,-0.009,-0.084,-0.968,-0.187,31.21,-22.88,-75.27,0.5880000000000001,-0.5268,-0.3612,-0.4961,-0.006,-0.009,0.003,52.995,-0.026,-0.007,-0.005,-0.092,-0.993,0.036,69.21000000000001,-16.25,-67.78,0.6926,-0.7164,0.0818,0.0127,-0.003,0.0,0.003,0.0,0.0,0.0,0.0,0.0,0.0,-0.0546493530273437,0.0009584426879882,0.036630630493164,0.0073261260986328,0.0036630630493164,0.0036630630493164,0.0,0.0,0.0,0.0
2025-11-06 18:34:09.367,64.145,0.267,0.309,-0.047,-0.219,-0.919,0.267,12.83,-5.84,-40.83,0.5536,-0.8165,-0.028,-0.1609,-0.03,0.005,0.094,52.15,-0.012,0.01,-0.009,-0.084,-0.968,-0.187,31.21,-22.88,-75.27,0.5880000000000001,-0.5268,-0.3612,-0.4961,-0.006,-0.009,0.003,52.995,-0.026,-0.007,-0.005,-0.092,-0.993,0.036,69.21000000000001,-16.25,-67.78,0.6926,-0.7164,0.0818,0.0127,-0.003,0.0,0.003,0.0,0.0,0.0,0.0,0.0,0.0,-0.0546493530273437,0.0009584426879882,0.036630630493164,0.0073261260986328,0.0036630630493164,0.0036630630493164,0.0,0.0,0.0,0.0
2025-11-06 18:34:09.367,64.18,0.301,0.528,0.034,-0.2,-0.8310000000000001,0.346,13.0,-5.8100000000000005,-40.19,0.5492,-0.8181,-0.0329,-0.1668,-0.055,-0.077,0.019,52.15,-0.012,0.01,-0.009,-0.084,-0.968,-0.187,31.21,-22.88,-75.27,0.5880000000000001,-0.5268,-0.3612,-0.4961,-0.006,-0.009,0.003,52.995,-0.026,-0.007,-0.005,-0.092,-0.993,0.036,69.21000000000001,-16.25,-67.78,0.6926,-0.7164,0.0818,0.0127,-0.003,0.0,0.003,0.0,0.0,0.0,0.0,0.0,0.0,-0.0546493530273437,0.0009584426879882,0.036630630493164,0.0073261260986328,0.0036630630493164,0.0036630630493164,0.0,0.0,0.0,0.0
2025-11-06 18:34:09.367,64.16,0.272,0.398,-0.017,-0.214,-0.868,0.293,12.89,-5.9,-40.66,0.5519000000000001,-0.8172,-0.03,-0.1629,-0.037,-0.043,0.069,52.15,-0.012,0.01,-0.009,-0.084,-0.968,-0.187,31.21,-22.88,-75.27,0.5880000000000001,-0.5268,-0.3612,-0.4961,-0.006,-0.009,0.003,52.995,-0.026,-0.007,-0.005,-0.092,-0.993,0.036,69.21000000000001,-16.25,-67.78,0.6926,-0.7164,0.0818,0.0127,-0.003,0.0,0.003,0.0,0.0,0.0,0.0,0.0,0.0,-0.0546493530273437,0.0009584426879882,0.036630630493164,0.0073261260986328,0.0036630630493164,0.0036630630493164,0.0,0.0,0.0,0.0
2025-11-06 18:34:09.367,64.185,0.309,0.584,0.052,-0.197,-0.8280000000000001,0.359,13.0,-5.8100000000000005,-40.19,0.5485,-0.8183,-0.0337,-0.1681,-0.06,-0.079,0.006,52.15,-0.012,0.01,-0.009,-0.084,-0.968,-0.187,31.21,-22.88,-75.27,0.5880000000000001,-0.5268,-0.3612,-0.4961,-0.006,-0.009,0.003,52.995,-0.026,-0.007,-0.005,-0.092,-0.993,0.036,69.21000000000001,-16.25,-67.78,0.6926,-0.7164,0.0818,0.0127,-0.003,0.0,0.003,0.0,0.0,0.0,0.0,0.0,0.0,-0.0546493530273437,0.0009584426879882,0.036630630493164,0.0073261260986328,0.0036630630493164,0.0036630630493164,0.0,0.0,0.0,0.0
2025-11-06 18:34:09.367,64.215,0.354,0.678,0.154,-0.126,-0.903,0.41,12.68,-6.0200000000000005,-40.07,0.5435,-0.8195,-0.0384,-0.1769,-0.139,0.001,-0.038,52.15,-0.012,0.01,-0.009,-0.084,-0.968,-0.187,31.21,-22.88,-75.27,0.5880000000000001,-0.5268,-0.3612,-0.4961,-0.006,-0.009,0.003,52.995,-0.026,-0.007,-0.005,-0.092,-0.993,0.036,69.21000000000001,-16.25,-67.78,0.6926,-0.7164,0.0818,0.0127,-0.003,0.0,0.003,0.0,0.0,0.0,0.0,0.0,0.0,-0.0546493530273437,0.0009584426879882,0.036630630493164,0.0073261260986328,0.0036630630493164,0.0036630630493164,0.0,0.0,0.0,0.0
2025-11-06 18:34:09.367,64.165,0.279,0.43,-0.008,-0.212,-0.854,0.308,12.89,-5.9,-40.66,0.5512,-0.8174,-0.0307,-0.1638,-0.04,-0.057,0.055,52.15,-0.012,0.01,-0.009,-0.084,-0.968,-0.187,31.21,-22.88,-75.27,0.5880000000000001,-0.5268,-0.3612,-0.4961,-0.006,-0.009,0.003,52.995,-0.026,-0.007,-0.005,-0.092,-0.993,0.036,69.21000000000001,-16.25,-67.78,0.6926,-0.7164,0.0818,0.0127,-0.003,0.0,0.003,0.0,0.0,0.0,0.0,0.0,0.0,-0.0546493530273437,0.0009584426879882,0.036630630493164,0.0073261260986328,0.0036630630493164,0.0036630630493164,0.0,0.0,0.0,0.0
2025-11-06 18:34:09.367,64.2,0.328,0.663,0.103,-0.166,-0.844,0.39,13.09,-5.87,-40.04,0.5461,-0.8189000000000001,-0.0361,-0.1723,-0.094,-0.061,-0.021,52.15,-0.012,0.01,-0.009,-0.084,-0.968,-0.187,31.21,-22.88,-75.27,0.5880000000000001,-0.5268,-0.3612,-0.4961,-0.006,-0.009,0.003,52.995,-0.026,-0.007,-0.005,-0.092,-0.993,0.036,69.21000000000001,-16.25,-67.78,0.6926,-0.7164,0.0818,0.0127,-0.003,0.0,0.003,0.0,0.0,0.0,0.0,0.0,0.0,-0.0546493530273437,0.0009584426879882,0.036630630493164,0.0073261260986328,0.0036630630493164,0.0036630630493164,0.0,0.0,0.0,0.0
2025-11-06 18:34:09.367,64.195,0.322,0.644,0.087,-0.178,-0.835,0.381,13.09,-5.87,-40.04,0.5469,-0.8187000000000001,-0.0353,-0.1708,-0.081,-0.07,-0.013,52.15,-0.012,0.01,-0.009,-0.084,-0.968,-0.187,31.21,-22.88,-75.27,0.5880000000000001,-0.5268,-0.3612,-0.4961,-0.006,-0.009,0.003,52.995,-0.026,-0.007,-0.005,-0.092,-0.993,0.036,69.21000000000001,-16.25,-67.78,0.6926,-0.7164,0.0818,0.0127,-0.003,0.0,0.003,0.0,0.0,0.0,0.0,0.0,0.0,-0.0546493530273437,0.0009584426879882,0.036630630493164,0.0073261260986328,0.0036630630493164,0.0036630630493164,0.0,0.0,0.0,0.0
2025-11-06 18:34:09.367,64.19,0.316,0.614,0.07,-0.19,-0.8290000000000001,0.371,13.0,-5.8100000000000005,-40.19,0.5477000000000001,-0.8185,-0.0345,-0.1694,-0.068,-0.077,-0.003,52.15,-0.012,0.01,-0.009,-0.084,-0.968,-0.187,31.21,-22.88,-75.27,0.5880000000000001,-0.5268,-0.3612,-0.4961,-0.006,-0.009,0.003,52.995,-0.026,-0.007,-0.005,-0.092,-0.993,0.036,69.21000000000001,-16.25,-67.78,0.6926,-0.7164,0.0818,0.0127,-0.003,0.0,0.003,0.0,0.0,0.0,0.0,0.0,0.0,-0.0546493530273437,0.0009584426879882,0.036630630493164,0.0073261260986328,0.0036630630493164,0.0036630630493164,0.0,0.0,0.0,0.0
2025-11-06 18:34:09.367,64.235,0.37,0.649,0.177,-0.121,-1.011,0.434,12.56,-5.75,-38.81,0.5398000000000001,-0.8205,-0.0411,-0.183,-0.151,0.113,-0.056,52.15,-0.012,0.01,-0.009,-0.084,-0.968,-0.187,31.21,-22.88,-75.27,0.5880000000000001,-0.5268,-0.3612,-0.4961,-0.006,-0.009,0.003,52.995,-0.026,-0.007,-0.005,-0.092,-0.993,0.036,69.21000000000001,-16.25,-67.78,0.6926,-0.7164,0.0818,0.0127,-0.003,0.0,0.003,0.0,0.0,0.0,0.0,0.0,0.0,-0.0546493530273437,0.0009584426879882,0.036630630493164,0.0073261260986328,0.0036630630493164,0.0036630630493164,0.0,0.0,0.0,0.0
2025-11-06 18:34:09.367,64.23,0.37,0.661,0.175,-0.117,-0.983,0.43,12.56,-5.75,-38.81,0.5408000000000001,-0.8203,-0.0405,-0.1815,-0.153,0.084,-0.053,52.15,-0.012,0.01,-0.009,-0.084,-0.968,-0.187,31.21,-22.88,-75.27,0.5880000000000001,-0.5268,-0.3612,-0.4961,-0.006,-0.009,0.003,52.995,-0.026,-0.007,-0.005,-0.092,-0.993,0.036,69.21000000000001,-16.25,-67.78,0.6926,-0.7164,0.0818,0.0127,-0.003,0.0,0.003,0.0,0.0,0.0,0.0,0.0,0.0,-0.0546493530273437,0.0009584426879882,0.036630630493164,0.0073261260986328,0.0036630630493164,0.0036630630493164,0.0,0.0,0.0,0.0
2025-11-06 18:34:09.367,64.135,0.263,0.286,-0.06,-0.213,-0.947,0.261,13.97,-6.28,-40.66,0.5547000000000001,-0.8160000000000001,-0.0267,-0.1598,-0.035,0.032,0.098,52.15,-0.012,0.01,-0.009,-0.084,-0.968,-0.187,31.21,-22.88,-75.27,0.5880000000000001,-0.5268,-0.3612,-0.4961,-0.006,-0.009,0.003,52.995,-0.026,-0.007,-0.005,-0.092,-0.993,0.036,69.21000000000001,-16.25,-67.78,0.6926,-0.7164,0.0818,0.0127,-0.003,0.0,0.003,0.0,0.0,0.0,0.0,0.0,0.0,-0.0546493530273437,0.0009584426879882,0.036630630493164,0.0073261260986328,0.0036630630493164,0.0036630630493164,0.0,0.0,0.0,0.0
2025-11-06 18:34:09.367,64.22,0.359,0.674,0.164,-0.119,-0.929,0.418,12.83,-5.87,-39.54,0.5426,-0.8198000000000001,-0.0391,-0.1784,-0.148,0.027,-0.044,52.15,-0.012,0.01,-0.009,-0.084,-0.968,-0.187,31.21,-22.88,-75.27,0.5880000000000001,-0.5268,-0.3612,-0.4961,-0.006,-0.009,0.003,52.995,-0.026,-0.007,-0.005,-0.092,-0.993,0.036,69.21000000000001,-16.25,-67.78,0.6926,-0.7164,0.0818,0.0127,-0.003,0.0,0.003,0.0,0.0,0.0,0.0,0.0,0.0,-0.0546493530273437,0.0009584426879882,0.036630630493164,0.0073261260986328,0.0036630630493164,0.0036630630493164,0.0,0.0,0.0,0.0
2025-11-06 18:34:09.367,64.21,0.346,0.685,0.142,-0.134,-0.881,0.408,12.68,-6.0200000000000005,-40.07,0.5444,-0.8193,-0.0377,-0.1753,-0.129,-0.021,-0.036,52.15,-0.012,0.01,-0.009,-0.084,-0.968,-0.187,31.21,-22.88,-75.27,0.5880000000000001,-0.5268,-0.3612,-0.4961,-0.006,-0.009,0.003,52.995,-0.026,-0.007,-0.005,-0.092,-0.993,0.036,69.21000000000001,-16.25,-67.78,0.6926,-0.7164,0.0818,0.0127,-0.003,0.0,0.003,0.0,0.0,0.0,0.0,0.0,0.0,-0.0546493530273437,0.0009584426879882,0.036630630493164,0.0073261260986328,0.0036630630493164,0.0036630630493164,0.0,0.0,0.0,0.0
2025-11-06 18:34:09.367,64.205,0.334,0.674,0.12,-0.151,-0.856,0.398,12.68,-6.0200000000000005,-40.07,0.5453,-0.8191,-0.0369,-0.1738,-0.111,-0.048,-0.028,52.15,-0.012,0.01,-0.009,-0.084,-0.968,-0.187,31.21,-22.88,-75.27,0.5880000000000001,-0.5268,-0.3612,-0.4961,-0.006,-0.009,0.003,52.995,-0.026,-0.007,-0.005,-0.092,-0.993,0.036,69.21000000000001,-16.25,-67.78,0.6926,-0.7164,0.0818,0.0127,-0.003,0.0,0.003,0.0,0.0,0.0,0.0,0.0,0.0,-0.0546493530273437,0.0009584426879882,0.036630630493164,0.0073261260986328,0.0036630630493164,0.0036630630493164,0.0,0.0,0.0,0.0
2025-11-06 18:34:09.367,64.225,0.364,0.669,0.171,-0.117,-0.955,0.425,12.83,-5.87,-39.54,0.5417000000000001,-0.8200000000000001,-0.0398,-0.18,-0.152,0.055,-0.049,52.15,-0.012,0.01,-0.009,-0.084,-0.968,-0.187,31.21,-22.88,-75.27,0.5880000000000001,-0.5268,-0.3612,-0.4961,-0.006,-0.009,0.003,52.995,-0.026,-0.007,-0.005,-0.092,-0.993,0.036,69.21000000000001,-16.25,-67.78,0.6926,-0.7164,0.0818,0.0127,-0.003,0.0,0.003,0.0,0.0,0.0,0.0,0.0,0.0,-0.0546493530273437,0.0009584426879882,0.036630630493164,0.0073261260986328,0.0036630630493164,0.0036630630493164,0.0,0.0,0.0,0.0
2025-11-06 18:34:09.368,64.335,0.357,0.302,0.21,-0.245,-0.798,0.439,11.66,-6.75,-37.21,0.5247,-0.8241,-0.0505,-0.207,-0.061,-0.085,-0.052,52.15,-0.012,0.01,-0.009,-0.084,-0.968,-0.187,31.21,-22.88,-75.27,0.5880000000000001,-0.5268,-0.3612,-0.4961,-0.006,-0.009,0.003,53.045,-0.057,-0.056,-0.019,-0.095,-0.997,0.037,68.89,-16.16,-67.84,0.6922,-0.7167,0.0826,0.0136,0.0,0.003,0.004,0.0,0.0,0.0,0.0,0.0,0.0,-0.0546493530273437,0.0009584426879882,0.036630630493164,0.0073261260986328,0.0036630630493164,0.0036630630493164,0.0,0.0,0.0,0.0
2025-11-06 18:34:09.368,64.28,0.241,0.584,0.113,-0.262,-1.016,0.352,11.98,-5.78,-37.53,0.5329,-0.8219000000000001,-0.0469,-0.1956,-0.026,0.122,0.031,52.15,-0.012,0.01,-0.009,-0.084,-0.968,-0.187,31.21,-22.88,-75.27,0.5880000000000001,-0.5268,-0.3612,-0.4961,-0.006,-0.009,0.003,53.045,-0.057,-0.056,-0.019,-0.095,-0.997,0.037,68.89,-16.16,-67.84,0.6922,-0.7167,0.0826,0.0136,0.0,0.003,0.004,0.0,0.0,0.0,0.0,0.0,0.0,-0.0546493530273437,0.0009584426879882,0.036630630493164,0.0073261260986328,0.0036630630493164,0.0036630630493164,0.0,0.0,0.0,0.0
2025-11-06 18:34:09.368,64.25,0.33,0.614,0.157,-0.157,-1.082,0.431,12.13,-5.64,-39.63,0.5372,-0.8212,-0.043,-0.1874,-0.12,0.186,-0.048,52.15,-0.012,0.01,-0.009,-0.084,-0.968,-0.187,31.21,-22.88,-75.27,0.5880000000000001,-0.5268,-0.3612,-0.4961,-0.006,-0.009,0.003,53.045,-0.057,-0.056,-0.019,-0.095,-0.997,0.037,68.89,-16.16,-67.84,0.6922,-0.7167,0.0826,0.0136,0.0,0.003,0.004,0.0,0.0,0.0,0.0,0.0,0.0,-0.0546493530273437,0.0009584426879882,0.036630630493164,0.0073261260986328,0.0036630630493164,0.0036630630493164,0.0,0.0,0.0,0.0
2025-11-06 18:34:09.368,64.255,0.311,0.591,0.137,-0.166,-1.087,0.404,12.07,-5.5200000000000005,-38.55,0.5364,-0.8213,-0.0436,-0.1887,-0.113,0.192,-0.02,52.15,-0.012,0.01,-0.009,-0.084,-0.968,-0.187,31.21,-22.88,-75.27,0.5880000000000001,-0.5268,-0.3612,-0.4961,-0.006,-0.009,0.003,53.045,-0.057,-0.056,-0.019,-0.095,-0.997,0.037,68.89,-16.16,-67.84,0.6922,-0.7167,0.0826,0.0136,0.0,0.003,0.004,0.0,0.0,0.0,0.0,0.0,0.0,-0.0546493530273437,0.0009584426879882,0.036630630493164,0.0073261260986328,0.0036630630493164,0.0036630630493164,0.0,0.0,0.0,0.0
2025-11-06 18:34:09.368,64.265,0.286,0.619,0.125,-0.221,-1.083,0.399,12.07,-5.5200000000000005,-38.55,0.5349,-0.8216,-0.0449,-0.1915,-0.062,0.189,-0.015,52.15,-0.012,0.01,-0.009,-0.084,-0.968,-0.187,31.21,-22.88,-75.27,0.5880000000000001,-0.5268,-0.3612,-0.4961,-0.006,-0.009,0.003,53.045,-0.057,-0.056,-0.019,-0.095,-0.997,0.037,68.89,-16.16,-67.84,0.6922,-0.7167,0.0826,0.0136,0.0,0.003,0.004,0.0,0.0,0.0,0.0,0.0,0.0,-0.0546493530273437,0.0009584426879882,0.036630630493164,0.0073261260986328,0.0036630630493164,0.0036630630493164,0.0,0.0,0.0,0.0
2025-11-06 18:34:09.368,64.27,0.269,0.619,0.112,-0.238,-1.061,0.384,12.33,-5.75,-37.91,0.5342,-0.8217,-0.0456,-0.1929,-0.046,0.167,0.0,52.15,-0.012,0.01,-0.009,-0.084,-0.968,-0.187,31.21,-22.88,-75.27,0.5880000000000001,-0.5268,-0.3612,-0.4961,-0.006,-0.009,0.003,53.045,-0.057,-0.056,-0.019,-0.095,-0.997,0.037,68.89,-16.16,-67.84,0.6922,-0.7167,0.0826,0.0136,0.0,0.003,0.004,0.0,0.0,0.0,0.0,0.0,0.0,-0.0546493530273437,0.0009584426879882,0.036630630493164,0.0073261260986328,0.0036630630493164,0.0036630630493164,0.0,0.0,0.0,0.0
2025-11-06 18:34:09.368,64.275,0.255,0.606,0.109,-0.254,-1.042,0.366,12.33,-5.75,-37.91,0.5335,-0.8218000000000001,-0.0463,-0.1942,-0.032,0.148,0.018,52.15,-0.012,0.01,-0.009,-0.084,-0.968,-0.187,31.21,-22.88,-75.27,0.5880000000000001,-0.5268,-0.3612,-0.4961,-0.006,-0.009,0.003,53.045,-0.057,-0.056,-0.019,-0.095,-0.997,0.037,68.89,-16.16,-67.84,0.6922,-0.7167,0.0826,0.0136,0.0,0.003,0.004,0.0,0.0,0.0,0.0,0.0,0.0,-0.0546493530273437,0.0009584426879882,0.036630630493164,0.0073261260986328,0.0036630630493164,0.0036630630493164,0.0,0.0,0.0,0.0
2025-11-06 18:34:09.368,64.285,0.23,0.5750000000000001,0.111,-0.269,-0.987,0.339,11.98,-5.78,-37.53,0.5322,-0.8219000000000001,-0.0475,-0.1969,-0.021,0.094,0.044,52.15,-0.012,0.01,-0.009,-0.084,-0.968,-0.187,31.21,-22.88,-75.27,0.5880000000000001,-0.5268,-0.3612,-0.4961,-0.006,-0.009,0.003,53.045,-0.057,-0.056,-0.019,-0.095,-0.997,0.037,68.89,-16.16,-67.84,0.6922,-0.7167,0.0826,0.0136,0.0,0.003,0.004,0.0,0.0,0.0,0.0,0.0,0.0,-0.0546493530273437,0.0009584426879882,0.036630630493164,0.0073261260986328,0.0036630630493164,0.0036630630493164,0.0,0.0,0.0,0.0
2025-11-06 18:34:09.368,64.31,0.279,0.405,0.172,-0.247,-0.861,0.356,12.07,-5.7,-37.59,0.529,-0.8225,-0.0497,-0.2026,-0.051,-0.028,0.026,52.15,-0.012,0.01,-0.009,-0.084,-0.968,-0.187,31.21,-22.88,-75.27,0.5880000000000001,-0.5268,-0.3612,-0.4961,-0.006,-0.009,0.003,53.045,-0.057,-0.056,-0.019,-0.095,-0.997,0.037,68.89,-16.16,-67.84,0.6922,-0.7167,0.0826,0.0136,0.0,0.003,0.004,0.0,0.0,0.0,0.0,0.0,0.0,-0.0546493530273437,0.0009584426879882,0.036630630493164,0.0073261260986328,0.0036630630493164,0.0036630630493164,0.0,0.0,0.0,0.0
2025-11-06 18:34:09.368,64.295,0.223,0.517,0.134,-0.264,-0.923,0.331,12.01,-5.93,-37.73,0.531,-0.8221,-0.0486,-0.1993,-0.029,0.031,0.051,52.15,-0.012,0.01,-0.009,-0.084,-0.968,-0.187,31.21,-22.88,-75.27,0.5880000000000001,-0.5268,-0.3612,-0.4961,-0.006,-0.009,0.003,53.045,-0.057,-0.056,-0.019,-0.095,-0.997,0.037,68.89,-16.16,-67.84,0.6922,-0.7167,0.0826,0.0136,0.0,0.003,0.004,0.0,0.0,0.0,0.0,0.0,0.0,-0.0546493530273437,0.0009584426879882,0.036630630493164,0.0073261260986328,0.0036630630493164,0.0036630630493164,0.0,0.0,0.0,0.0
2025-11-06 18:34:09.368,64.3,0.233,0.49,0.141,-0.259,-0.902,0.332,12.01,-5.93,-37.73,0.5304,-0.8221,-0.049,-0.2005,-0.035,0.01,0.05,52.15,-0.012,0.01,-0.009,-0.084,-0.968,-0.187,31.21,-22.88,-75.27,0.5880000000000001,-0.5268,-0.3612,-0.4961,-0.006,-0.009,0.003,53.045,-0.057,-0.056,-0.019,-0.095,-0.997,0.037,68.89,-16.16,-67.84,0.6922,-0.7167,0.0826,0.0136,0.0,0.003,0.004,0.0,0.0,0.0,0.0,0.0,0.0,-0.0546493530273437,0.0009584426879882,0.036630630493164,0.0073261260986328,0.0036630630493164,0.0036630630493164,0.0,0.0,0.0,0.0
2025-11-06 18:34:09.368,64.305,0.258,0.446,0.156,-0.256,-0.877,0.343,12.07,-5.7,-37.59,0.5297000000000001,-0.8223,-0.0494,-0.2015,-0.04,-0.013,0.038,52.15,-0.012,0.01,-0.009,-0.084,-0.968,-0.187,31.21,-22.88,-75.27,0.5880000000000001,-0.5268,-0.3612,-0.4961,-0.006,-0.009,0.003,53.045,-0.057,-0.056,-0.019,-0.095,-0.997,0.037,68.89,-16.16,-67.84,0.6922,-0.7167,0.0826,0.0136,0.0,0.003,0.004,0.0,0.0,0.0,0.0,0.0,0.0,-0.0546493530273437,0.0009584426879882,0.036630630493164,0.0073261260986328,0.0036630630493164,0.0036630630493164,0.0,0.0,0.0,0.0
2025-11-06 18:34:09.368,64.315,0.299,0.365,0.184,-0.248,-0.848,0.372,12.07,-5.7,-37.59,0.5282,-0.8228000000000001,-0.0499,-0.2035,-0.052,-0.04,0.01,52.15,-0.012,0.01,-0.009,-0.084,-0.968,-0.187,31.21,-22.88,-75.27,0.5880000000000001,-0.5268,-0.3612,-0.4961,-0.006,-0.009,0.003,53.045,-0.057,-0.056,-0.019,-0.095,-0.997,0.037,68.89,-16.16,-67.84,0.6922,-0.7167,0.0826,0.0136,0.0,0.003,0.004,0.0,0.0,0.0,0.0,0.0,0.0,-0.0546493530273437,0.0009584426879882,0.036630630493164,0.0073261260986328,0.0036630630493164,0.0036630630493164,0.0,0.0,0.0,0.0
