Youthstudy/imurecv/data/merged/merged_20251106_183256.csv
System_Time,Timestamp_1,Gyro_X_1,Gyro_Y_1,Gyro_Z_1,Acc_X_1,Acc_Y_1,Acc_Z_1,Mag_X_1,Mag_Y_1,Mag_Z_1,Quat_W_1,Quat_X_1,Quat_Y_1,Quat_Z_1,Linear_Acc_X_1,Linear_Acc_Y_1,Linear_Acc_Z_1,Timestamp_2,Gyro_X_2,Gyro_Y_2,Gyro_Z_2,Acc_X_2,Acc_Y_2,Acc_Z_2,Mag_X_2,Mag_Y_2,Mag_Z_2,Quat_W_2,Quat_X_2,Quat_Y_2,Quat_Z_2,Linear_Acc_X_2,Linear_Acc_Y_2,Linear_Acc_Z_2,Timestamp_3,Gyro_X_3,Gyro_Y_3,Gyro_Z_3,Acc_X_3,Acc_Y_3,Acc_Z_3,Mag_X_3,Mag_Y_3,Mag_Z_3,Quat_W_3,Quat_X_3,Quat_Y_3,Quat_Z_3,Linear_Acc_X_3,Linear_Acc_Y_3,Linear_Acc_Z_3,kd_joint1,kd_joint2,kp_joint1,kp_joint2,p_des_joint1,p_des_joint2,ret0_joint1,ret0_joint2,ret1_joint1,ret1_joint2,ret2_joint1,ret2_joint2,t_ff_joint1,t_ff_joint2,v_des_joint1,v_des_joint2
32:56.2,55.1,0.016,0.03,0.035,-0.285,-0.962,-0.011,11.78,-4.64,-52.17,0.6919,-0.6839,-0.0286,-0.2295,-0.006,-0.004,-0.024,43.975,0,0.009,-0.004,-0.126,-0.968,-0.136,27.82,-22.33,-75.97,0.7398,-0.6525,-0.0456,-0.1571,-0.004,-0.012,-0.008,44.945,-0.041,0.003,0.014,-0.04,-0.985,0.049,69.45,-14,-69.48,0.6835,-0.718,0.1067,0.0759,0.003,-0.012,0.004,0,0,0,0,0,0,-0.006902695,-0.000575066,-0.058608055,-0.073260307,0,-0.014652252,0,0,0,0
32:56.2,55.18,0.004,0.014,0.03,-0.299,-0.982,-0.015,11.6,-5.17,-51.79,0.691,-0.6842,-0.0281,-0.2309,0.005,0.016,-0.018,43.975,0,0.009,-0.004,-0.126,-0.968,-0.136,27.82,-22.33,-75.97,0.7398,-0.6525,-0.0456,-0.1571,-0.004,-0.012,-0.008,44.945,-0.041,0.003,0.014,-0.04,-0.985,0.049,69.45,-14,-69.48,0.6835,-0.718,0.1067,0.0759,0.003,-0.012,0.004,0,0,0,0,0,0,-0.006902695,-0.000575066,-0.058608055,-0.073260307,0,-0.014652252,0,0,0,0
32:56.2,55.185,0.004,0.017,0.03,-0.299,-0.979,-0.015,11.6,-5.17,-51.79,0.691,-0.6842,-0.0281,-0.231,0.004,0.012,-0.018,43.975,0,0.009,-0.004,-0.126,-0.968,-0.136,27.82,-22.33,-75.97,0.7398,-0.6525,-0.0456,-0.1571,-0.004,-0.012,-0.008,44.945,-0.041,0.003,0.014,-0.04,-0.985,0.049,69.45,-14,-69.48,0.6835,-0.718,0.1067,0.0759,0.003,-0.012,0.004,0,0,0,0,0,0,-0.006902695,-0.000575066,-0.058608055,-0.073260307,0,-0.014652252,0,0,0,0
32:56.2,55.19,0.002,0.02,0.028,-0.297,-0.976,-0.014,11.69,-5.17,-51.76,0.691,-0.6842,-0.0281,-0.2311,0.003,0.01,-0.019,43.975,0,0.009,-0.004,-0.126,-0.968,-0.136,27.82,-22.33,-75.97,0.7398,-0.6525,-0.0456,-0.1571,-0.004,-0.012,-0.008,44.945,-0.041,0.003,0.014,-0.04,-0.985,0.049,69.45,-14,-69.48,0.6835,-0.718,0.1067,0.0759,0.003,-0.012,0.004,0,0,0,0,0,0,-0.006902695,-0.000575066,-0.058608055,-0.073260307,0,-0.014652252,0,0,0,0
32:56.2,55.22,-0.003,0.008,0.021,-0.292,-0.95,-0.009,11.25,-4.61,-52.26,0.6908,-0.6843,-0.0279,-0.2314,-0.003,-0.015,-0.024,43.975,0,0.009,-0.004,-0.126,-0.968,-0.136,27.82,-22.33,-75.97,0.7398,-0.6525,-0.0456,-0.1571,-0.004,-0.012,-0.008,44.945,-0.041,0.003,0.014,-0.04,-0.985,0.049,69.45,-14,-69.48,0.6835,-0.718,0.1067,0.0759,0.003,-0.012,0.004,0,0,0,0,0,0,-0.006902695,-0.000575066,-0.058608055,-0.073260307,0,-0.014652252,0,0,0,0
32:56.2,55.175,0.003,0.013,0.031,-0.297,-0.983,-0.018,11.6,-5.17,-51.79,0.6911,-0.6842,-0.0282,-0.2308,0.003,0.017,-0.015,43.975,0,0.009,-0.004,-0.126,-0.968,-0.136,27.82,-22.33,-75.97,0.7398,-0.6525,-0.0456,-0.1571,-0.004,-0.012,-0.008,44.945,-0.041,0.003,0.014,-0.04,-0.985,0.049,69.45,-14,-69.48,0.6835,-0.718,0.1067,0.0759,0.003,-0.012,0.004,0,0,0,0,0,0,-0.006902695,-0.000575066,-0.058608055,-0.073260307,0,-0.014652252,0,0,0,0
32:56.2,55.21,-0.006,0.014,0.025,-0.293,-0.955,-0.011,11.28,-5.02,-52.11,0.6909,-0.6843,-0.028,-0.2313,-0.001,-0.01,-0.022,43.975,0,0.009,-0.004,-0.126,-0.968,-0.136,27.82,-22.33,-75.97,0.7398,-0.6525,-0.0456,-0.1571,-0.004,-0.012,-0.008,44.945,-0.041,0.003,0.014,-0.04,-0.985,0.049,69.45,-14,-69.48,0.6835,-0.718,0.1067,0.0759,0.003,-0.012,0.004,0,0,0,0,0,0,-0.006902695,-0.000575066,-0.058608055,-0.073260307,0,-0.014652252,0,0,0,0
32:56.2,55.215,-0.004,0.005,0.022,-0.293,-0.951,-0.01,11.25,-4.61,-52.26,0.6909,-0.6843,-0.028,-0.2314,-0.001,-0.014,-0.023,43.975,0,0.009,-0.004,-0.126,-0.968,-0.136,27.82,-22.33,-75.97,0.7398,-0.6525,-0.0456,-0.1571,-0.004,-0.012,-0.008,44.945,-0.041,0.003,0.014,-0.04,-0.985,0.049,69.45,-14,-69.48,0.6835,-0.718,0.1067,0.0759,0.003,-0.012,0.004,0,0,0,0,0,0,-0.006902695,-0.000575066,-0.058608055,-0.073260307,0,-0.014652252,0,0,0,0
32:56.2,55.225,-0.003,0.007,0.018,-0.291,-0.95,-0.008,11.95,-6.16,-51.94,0.6908,-0.6843,-0.0279,-0.2315,-0.004,-0.015,-0.025,43.975,0,0.009,-0.004,-0.126,-0.968,-0.136,27.82,-22.33,-75.97,0.7398,-0.6525,-0.0456,-0.1571,-0.004,-0.012,-0.008,44.945,-0.041,0.003,0.014,-0.04,-0.985,0.049,69.45,-14,-69.48,0.6835,-0.718,0.1067,0.0759,0.003,-0.012,0.004,0,0,0,0,0,0,-0.006902695,-0.000575066,-0.058608055,-0.073260307,0,-0.014652252,0,0,0,0
32:56.2,55.23,-0.001,0.011,0.017,-0.292,-0.951,-0.012,11.95,-6.16,-51.94,0.6908,-0.6843,-0.0279,-0.2315,-0.003,-0.014,-0.022,43.975,0,0.009,-0.004,-0.126,-0.968,-0.136,27.82,-22.33,-75.97,0.7398,-0.6525,-0.0456,-0.1571,-0.004,-0.012,-0.008,44.945,-0.041,0.003,0.014,-0.04,-0.985,0.049,69.45,-14,-69.48,0.6835,-0.718,0.1067,0.0759,0.003,-0.012,0.004,0,0,0,0,0,0,-0.006902695,-0.000575066,-0.058608055,-0.073260307,0,-0.014652252,0,0,0,0
32:56.2,55.16,-0.001,0.015,0.035,-0.295,-0.984,-0.016,11.07,-5.17,-52.26,0.6912,-0.6842,-0.0283,-0.2306,0.001,0.018,-0.017,43.975,0,0.009,-0.004,-0.126,-0.968,-0.136,27.82,-22.33,-75.97,0.7398,-0.6525,-0.0456,-0.1571,-0.004,-0.012,-0.008,44.945,-0.041,0.003,0.014,-0.04,-0.985,0.049,69.45,-14,-69.48,0.6835,-0.718,0.1067,0.0759,0.003,-0.012,0.004,0,0,0,0,0,0,-0.006902695,-0.000575066,-0.058608055,-0.073260307,0,-0.014652252,0,0,0,0
32:56.2,55.2,-0.005,0.019,0.028,-0.294,-0.964,-0.013,11.28,-5.02,-52.11,0.6909,-0.6843,-0.028,-0.2312,0,-0.001,-0.02,43.975,0,0.009,-0.004,-0.126,-0.968,-0.136,27.82,-22.33,-75.97,0.7398,-0.6525,-0.0456,-0.1571,-0.004,-0.012,-0.008,44.945,-0.041,0.003,0.014,-0.04,-0.985,0.049,69.45,-14,-69.48,0.6835,-0.718,0.1067,0.0759,0.003,-0.012,0.004,0,0,0,0,0,0,-0.006902695,-0.000575066,-0.058608055,-0.073260307,0,-0.014652252,0,0,0,0
32:56.2,55.205,-0.007,0.016,0.026,-0.294,-0.959,-0.012,11.28,-5.02,-52.11,0.6909,-0.6843,-0.028,-0.2313,0,-0.006,-0.021,43.975,0,0.009,-0.004,-0.126,-0.968,-0.136,27.82,-22.33,-75.97,0.7398,-0.6525,-0.0456,-0.1571,-0.004,-0.012,-0.008,44.945,-0.041,0.003,0.014,-0.04,-0.985,0.049,69.45,-14,-69.48,0.6835,-0.718,0.1067,0.0759,0.003,-0.012,0.004,0,0,0,0,0,0,-0.006902695,-0.000575066,-0.058608055,-0.073260307,0,-0.014652252,0,0,0,0
32:56.3,55.235,-0.004,0.013,0.015,-0.293,-0.953,-0.013,11.95,-6.16,-51.94,0.6908,-0.6843,-0.0279,-0.2315,-0.001,-0.012,-0.02,44.165,-0.03,-0.023,-0.007,-0.124,-0.971,-0.149,28.06,-22.94,-74.97,0.743,-0.6494,-0.0473,-0.154,0.001,-0.008,-0.003,44.985,-0.01,0.014,0.011,-0.047,-0.989,0.069,69.36,-13.68,-69.89,0.6809,-0.7203,0.1081,0.0749,0.008,-0.007,-0.008,0,0,0,0,0,0,-0.007094383,-0.000191689,-0.007326126,0.007326126,0.010989189,0.010989189,0,0,0,0
32:56.3,55.24,-0.001,0.017,0.015,-0.293,-0.959,-0.013,11.83,-4.85,-52.09,0.6908,-0.6843,-0.0279,-0.2316,-0.002,-0.006,-0.02,44.165,-0.03,-0.023,-0.007,-0.124,-0.971,-0.149,28.06,-22.94,-74.97,0.743,-0.6494,-0.0473,-0.154,0.001,-0.008,-0.003,44.985,-0.01,0.014,0.011,-0.047,-0.989,0.069,69.36,-13.68,-69.89,0.6809,-0.7203,0.1081,0.0749,0.008,-0.007,-0.008,0,0,0,0,0,0,-0.007094383,-0.000191689,-0.007326126,0.007326126,0.010989189,0.010989189,0,0,0,0
32:56.3,55.245,0.001,0.018,0.013,-0.293,-0.962,-0.014,11.83,-4.85,-52.09,0.6907,-0.6843,-0.0279,-0.2316,-0.002,-0.003,-0.019,44.165,-0.03,-0.023,-0.007,-0.124,-0.971,-0.149,28.06,-22.94,-74.97,0.743,-0.6494,-0.0473,-0.154,0.001,-0.008,-0.003,44.985,-0.01,0.014,0.011,-0.047,-0.989,0.069,69.36,-13.68,-69.89,0.6809,-0.7203,0.1081,0.0749,0.008,-0.007,-0.008,0,0,0,0,0,0,-0.007094383,-0.000191689,-0.007326126,0.007326126,0.010989189,0.010989189,0,0,0,0
32:56.3,55.265,-0.008,0.003,0.008,-0.292,-0.98,-0.015,11.69,-6.05,-52.9,0.6906,-0.6844,-0.0279,-0.2317,-0.002,0.014,-0.017,44.165,-0.03,-0.023,-0.007,-0.124,-0.971,-0.149,28.06,-22.94,-74.97,0.743,-0.6494,-0.0473,-0.154,0.001,-0.008,-0.003,44.985,-0.01,0.014,0.011,-0.047,-0.989,0.069,69.36,-13.68,-69.89,0.6809,-0.7203,0.1081,0.0749,0.008,-0.007,-0.008,0,0,0,0,0,0,-0.007094383,-0.000191689,-0.007326126,0.007326126,0.010989189,0.010989189,0,0,0,0
32:56.3,55.27,-0.011,-0.003,0.009,-0.292,-0.982,-0.015,11.69,-6.05,-52.9,0.6907,-0.6844,-0.0278,-0.2317,-0.003,0.016,-0.017,44.165,-0.03,-0.023,-0.007,-0.124,-0.971,-0.149,28.06,-22.94,-74.97,0.743,-0.6494,-0.0473,-0.154,0.001,-0.008,-0.003,44.985,-0.01,0.014,0.011,-0.047,-0.989,0.069,69.36,-13.68,-69.89,0.6809,-0.7203,0.1081,0.0749,0.008,-0.007,-0.008,0,0,0,0,0,0,-0.007094383,-0.000191689,-0.007326126,0.007326126,0.010989189,0.010989189,0,0,0,0
32:56.3,55.25,-0.001,0.02,0.012,-0.293,-0.967,-0.014,11.66,-4.79,-52.23,0.6907,-0.6844,-0.0279,-0.2316,-0.002,0.001,-0.019,44.165,-0.03,-0.023,-0.007,-0.124,-0.971,-0.149,28.06,-22.94,-74.97,0.743,-0.6494,-0.0473,-0.154,0.001,-0.008,-0.003,44.985,-0.01,0.014,0.011,-0.047,-0.989,0.069,69.36,-13.68,-69.89,0.6809,-0.7203,0.1081,0.0749,0.008,-0.007,-0.008,0,0,0,0,0,0,-0.007094383,-0.000191689,-0.007326126,0.007326126,0.010989189,0.010989189,0,0,0,0
32:56.3,55.255,-0.004,0.019,0.012,-0.293,-0.971,-0.014,11.66,-4.79,-52.23,0.6907,-0.6844,-0.0279,-0.2316,-0.002,0.005,-0.019,44.165,-0.03,-0.023,-0.007,-0.124,-0.971,-0.149,28.06,-22.94,-74.97,0.743,-0.6494,-0.0473,-0.154,0.001,-0.008,-0.003,44.985,-0.01,0.014,0.011,-0.047,-0.989,0.069,69.36,-13.68,-69.89,0.6809,-0.7203,0.1081,0.0749,0.008,-0.007,-0.008,0,0,0,0,0,0,-0.007094383,-0.000191689,-0.007326126,0.007326126,0.010989189,0.010989189,0,0,0,0
32:56.3,55.26,-0.004,0.011,0.01,-0.293,-0.977,-0.014,11.66,-4.79,-52.23,0.6906,-0.6844,-0.0279,-0.2317,-0.002,0.012,-0.019,44.165,-0.03,-0.023,-0.007,-0.124,-0.971,-0.149,28.06,-22.94,-74.97,0.743,-0.6494,-0.0473,-0.154,0.001,-0.008,-0.003,44.985,-0.01,0.014,0.011,-0.047,-0.989,0.069,69.36,-13.68,-69.89,0.6809,-0.7203,0.1081,0.0749,0.008,-0.007,-0.008,0,0,0,0,0,0,-0.007094383,-0.000191689,-0.007326126,0.007326126,0.010989189,0.010989189,0,0,0,0
32:56.3,55.275,-0.01,-0.01,0.01,-0.289,-0.983,-0.017,11.8,-5.64,-52.49,0.6907,-0.6844,-0.0278,-0.2317,-0.005,0.017,-0.016,44.205,-0.011,-0.013,-0.004,-0.13,-0.966,-0.15,27.59,-22.68,-74.97,0.7424,-0.6501,-0.0448,-0.1553,0.002,-0.013,0,45.025,-0.015,-0.004,0.006,-0.049,-0.994,0.051,69.1,-13.47,-69.92,0.6825,-0.7189,0.1098,0.072,0.003,-0.002,0.006,0,0,0,0,0,0,-0.007862091,-0.000575066,-0.227106094,-0.109889984,-0.010989189,-0.018315315,0,0,0,0
32:56.3,55.28,-0.011,-0.011,0.01,-0.288,-0.985,-0.017,11.8,-5.64,-52.49,0.6907,-0.6844,-0.0278,-0.2317,-0.007,0.02,-0.015,44.31,-0.015,-0.003,0,-0.128,-0.966,-0.152,27.94,-22.5,-75.5,0.7439,-0.6482,-0.0429,-0.1566,-0.003,-0.011,-0.004,45.05,-0.028,-0.004,0.007,-0.043,-0.997,0.053,69.3,-13.5,-69.95,0.6835,-0.718,0.1097,0.0718,-0.003,0,0.001,0,0,0,0,0,0,-0.009778976,-0.000319481,-0.007326126,0.012209574,-0.020757357,0.010989189,0,0,0,0
32:56.3,55.3,0,-0.046,0.005,-0.286,-0.983,-0.022,11.34,-4.96,-52.41,0.6907,-0.6844,-0.0275,-0.2314,-0.009,0.017,-0.01,44.31,-0.015,-0.003,0,-0.128,-0.966,-0.152,27.94,-22.5,-75.5,0.7439,-0.6482,-0.0429,-0.1566,-0.003,-0.011,-0.004,45.05,-0.028,-0.004,0.007,-0.043,-0.997,0.053,69.3,-13.5,-69.95,0.6835,-0.718,0.1097,0.0718,-0.003,0,0.001,0,0,0,0,0,0,-0.009778976,-0.000319481,-0.007326126,0.012209574,-0.020757357,0.010989189,0,0,0,0
32:56.3,55.285,-0.012,-0.021,0.008,-0.287,-0.986,-0.02,11.8,-5.64,-52.49,0.6907,-0.6844,-0.0277,-0.2316,-0.008,0.02,-0.012,44.31,-0.015,-0.003,0,-0.128,-0.966,-0.152,27.94,-22.5,-75.5,0.7439,-0.6482,-0.0429,-0.1566,-0.003,-0.011,-0.004,45.05,-0.028,-0.004,0.007,-0.043,-0.997,0.053,69.3,-13.5,-69.95,0.6835,-0.718,0.1097,0.0718,-0.003,0,0.001,0,0,0,0,0,0,-0.009778976,-0.000319481,-0.007326126,0.012209574,-0.020757357,0.010989189,0,0,0,0
32:56.3,55.295,-0.001,-0.038,0.007,-0.285,-0.985,-0.023,11.16,-4.99,-53.05,0.6907,-0.6844,-0.0276,-0.2315,-0.009,0.019,-0.009,44.31,-0.015,-0.003,0,-0.128,-0.966,-0.152,27.94,-22.5,-75.5,0.7439,-0.6482,-0.0429,-0.1566,-0.003,-0.011,-0.004,45.05,-0.028,-0.004,0.007,-0.043,-0.997,0.053,69.3,-13.5,-69.95,0.6835,-0.718,0.1097,0.0718,-0.003,0,0.001,0,0,0,0,0,0,-0.009778976,-0.000319481,-0.007326126,0.012209574,-0.020757357,0.010989189,0,0,0,0
32:56.3,55.29,-0.005,-0.031,0.007,-0.287,-0.985,-0.022,11.16,-4.99,-53.05,0.6907,-0.6844,-0.0276,-0.2316,-0.008,0.019,-0.011,44.31,-0.015,-0.003,0,-0.128,-0.966,-0.152,27.94,-22.5,-75.5,0.7439,-0.6482,-0.0429,-0.1566,-0.003,-0.011,-0.004,45.05,-0.028,-0.004,0.007,-0.043,-0.997,0.053,69.3,-13.5,-69.95,0.6835,-0.718,0.1097,0.0718,-0.003,0,0.001,0,0,0,0,0,0,-0.009778976,-0.000319481,-0.007326126,0.012209574,-0.020757357,0.010989189,0,0,0,0
32:56.3,55.305,0.001,-0.042,0.007,-0.285,-0.981,-0.021,11.34,-4.96,-52.41,0.6907,-0.6845,-0.0274,-0.2314,-0.01,0.015,-0.011,44.315,-0.014,-0.002,0,-0.128,-0.967,-0.149,27.94,-22.5,-75.5,0.7438,-0.6483,-0.043,-0.1565,-0.003,-0.011,-0.006,45.055,-0.027,-0.001,0.01,-0.042,-0.998,0.053,68.66,-13.73,-69.01,0.6836,-0.7179,0.1095,0.072,-0.004,0.001,0.001,0,0,0,0,0,0,-0.010162354,-0.000575066,0,-0.029304504,-0.007326126,-0.003663063,0,0,0,0
32:56.3,55.31,0.002,-0.039,0.008,-0.285,-0.979,-0.022,11.34,-4.96,-52.41,0.6907,-0.6845,-0.0273,-0.2313,-0.01,0.013,-0.01,44.315,-0.014,-0.002,0,-0.128,-0.967,-0.149,27.94,-22.5,-75.5,0.7438,-0.6483,-0.043,-0.1565,-0.003,-0.011,-0.006,45.055,-0.027,-0.001,0.01,-0.042,-0.998,0.053,68.66,-13.73,-69.01,0.6836,-0.7179,0.1095,0.072,-0.004,0.001,0.001,0,0,0,0,0,0,-0.010162354,-0.000575066,0,-0.029304504,-0.007326126,-0.003663063,0,0,0,0
32:56.3,55.315,0.001,-0.039,0.007,-0.287,-0.974,-0.02,10.99,-4.76,-52.44,0.6907,-0.6845,-0.0272,-0.2312,-0.008,0.008,-0.012,44.315,-0.014,-0.002,0,-0.128,-0.967,-0.149,27.94,-22.5,-75.5,0.7438,-0.6483,-0.043,-0.1565,-0.003,-0.011,-0.006,45.055,-0.027,-0.001,0.01,-0.042,-0.998,0.053,68.66,-13.73,-69.01,0.6836,-0.7179,0.1095,0.072,-0.004,0.001,0.001,0,0,0,0,0,0,-0.010162354,-0.000575066,0,-0.029304504,-0.007326126,-0.003663063,0,0,0,0
32:56.3,55.32,-0.006,-0.036,0.006,-0.288,-0.969,-0.018,10.99,-4.76,-52.44,0.6907,-0.6846,-0.0272,-0.2311,-0.007,0.003,-0.014,44.315,-0.014,-0.002,0,-0.128,-0.967,-0.149,27.94,-22.5,-75.5,0.7438,-0.6483,-0.043,-0.1565,-0.003,-0.011,-0.006,45.055,-0.027,-0.001,0.01,-0.042,-0.998,0.053,68.66,-13.73,-69.01,0.6836,-0.7179,0.1095,0.072,-0.004,0.001,0.001,0,0,0,0,0,0,-0.010162354,-0.000575066,0,-0.029304504,-0.007326126,-0.003663063,0,0,0,0
32:56.3,55.325,-0.011,-0.035,0.005,-0.29,-0.965,-0.016,11.28,-4.67,-52.38,0.6907,-0.6846,-0.0271,-0.231,-0.005,0,-0.016,44.315,-0.014,-0.002,0,-0.128,-0.967,-0.149,27.94,-22.5,-75.5,0.7438,-0.6483,-0.043,-0.1565,-0.003,-0.011,-0.006,45.055,-0.027,-0.001,0.01,-0.042,-0.998,0.053,68.66,-13.73,-69.01,0.6836,-0.7179,0.1095,0.072,-0.004,0.001,0.001,0,0,0,0,0,0,-0.010162354,-0.000575066,0,-0.029304504,-0.007326126,-0.003663063,0,0,0,0
32:56.3,55.33,-0.014,-0.037,0.004,-0.293,-0.962,-0.015,11.28,-4.67,-52.38,0.6907,-0.6847,-0.027,-0.2309,-0.002,-0.002,-0.017,44.315,-0.014,-0.002,0,-0.128,-0.967,-0.149,27.94,-22.5,-75.5,0.7438,-0.6483,-0.043,-0.1565,-0.003,-0.011,-0.006,45.055,-0.027,-0.001,0.01,-0.042,-0.998,0.053,68.66,-13.73,-69.01,0.6836,-0.7179,0.1095,0.072,-0.004,0.001,0.001,0,0,0,0,0,0,-0.010162354,-0.000575066,0,-0.029304504,-0.007326126,-0.003663063,0,0,0,0
32:56.3,55.335,-0.015,-0.038,0.001,-0.295,-0.958,-0.015,11.28,-4.67,-52.38,0.6907,-0.6847,-0.0269,-0.2309,-0.001,-0.007,-0.018,44.315,-0.014,-0.002,0,-0.128,-0.967,-0.149,27.94,-22.5,-75.5,0.7438,-0.6483,-0.043,-0.1565,-0.003,-0.011,-0.006,45.055,-0.027,-0.001,0.01,-0.042,-0.998,0.053,68.66,-13.73,-69.01,0.6836,-0.7179,0.1095,0.072,-0.004,0.001,0.001,0,0,0,0,0,0,-0.010162354,-0.000575066,0,-0.029304504,-0.007326126,-0.003663063,0,0,0,0
32:56.3,55.34,-0.015,-0.038,0.001,-0.297,-0.956,-0.015,11.72,-4.99,-52.2,0.6907,-0.6847,-0.0269,-0.2308,0,-0.009,-0.018,44.315,-0.014,-0.002,0,-0.128,-0.967,-0.149,27.94,-22.5,-75.5,0.7438,-0.6483,-0.043,-0.1565,-0.003,-0.011,-0.006,45.055,-0.027,-0.001,0.01,-0.042,-0.998,0.053,68.66,-13.73,-69.01,0.6836,-0.7179,0.1095,0.072,-0.004,0.001,0.001,0,0,0,0,0,0,-0.010162354,-0.000575066,0,-0.029304504,-0.007326126,-0.003663063,0,0,0,0
32:56.3,55.36,-0.008,-0.047,-0.002,-0.306,-0.953,-0.018,11.19,-4.99,-52.67,0.6907,-0.6847,-0.0265,-0.2305,0.01,-0.012,-0.015,44.325,-0.005,0.003,0.003,-0.131,-0.969,-0.15,27.85,-22.8,-75.62,0.7436,-0.6485,-0.043,-0.1564,0,-0.009,-0.004,45.07,-0.027,0.01,0.013,-0.042,-0.998,0.052,69.16,-13.62,-70,0.6837,-0.7178,0.1092,0.0722,-0.002,0,0.002,0,0,0,0,0,0,-0.009970665,-0.000287533,0.029304504,0.043955803,0.001831532,-0.003663063,0,0,0,0
32:56.3,55.35,-0.008,-0.038,0.001,-0.302,-0.953,-0.015,11.19,-4.99,-52.67,0.6907,-0.6847,-0.0267,-0.2307,0.006,-0.011,-0.017,44.325,-0.005,0.003,0.003,-0.131,-0.969,-0.15,27.85,-22.8,-75.62,0.7436,-0.6485,-0.043,-0.1564,0,-0.009,-0.004,45.07,-0.027,0.01,0.013,-0.042,-0.998,0.052,69.16,-13.62,-70,0.6837,-0.7178,0.1092,0.0722,-0.002,0,0.002,0,0,0,0,0,0,-0.009970665,-0.000287533,0.029304504,0.043955803,0.001831532,-0.003663063,0,0,0,0
32:56.3,55.355,-0.008,-0.046,0,-0.306,-0.953,-0.016,11.19,-4.99,-52.67,0.6907,-0.6847,-0.0266,-0.2306,0.009,-0.012,-0.016,44.325,-0.005,0.003,0.003,-0.131,-0.969,-0.15,27.85,-22.8,-75.62,0.7436,-0.6485,-0.043,-0.1564,0,-0.009,-0.004,45.07,-0.027,0.01,0.013,-0.042,-0.998,0.052,69.16,-13.62,-70,0.6837,-0.7178,0.1092,0.0722,-0.002,0,0.002,0,0,0,0,0,0,-0.009970665,-0.000287533,0.029304504,0.043955803,0.001831532,-0.003663063,0,0,0,0
32:56.3,55.345,-0.01,-0.036,0.001,-0.3,-0.954,-0.015,11.72,-4.99,-52.2,0.6907,-0.6847,-0.0268,-0.2307,0.004,-0.011,-0.018,44.325,-0.005,0.003,0.003,-0.131,-0.969,-0.15,27.85,-22.8,-75.62,0.7436,-0.6485,-0.043,-0.1564,0,-0.009,-0.004,45.07,-0.027,0.01,0.013,-0.042,-0.998,0.052,69.16,-13.62,-70,0.6837,-0.7178,0.1092,0.0722,-0.002,0,0.002,0,0,0,0,0,0,-0.009970665,-0.000287533,0.029304504,0.043955803,0.001831532,-0.003663063,0,0,0,0
32:56.3,55.38,0.002,-0.061,0.001,-0.303,-0.965,-0.022,11.69,-5.26,-53.02,0.6907,-0.6849,-0.0261,-0.2302,0.007,0,-0.01,44.325,-0.005,0.003,0.003,-0.131,-0.969,-0.15,27.85,-22.8,-75.62,0.7436,-0.6485,-0.043,-0.1564,0,-0.009,-0.004,45.07,-0.027,0.01,0.013,-0.042,-0.998,0.052,69.16,-13.62,-70,0.6837,-0.7178,0.1092,0.0722,-0.002,0,0.002,0,0,0,0,0,0,-0.009970665,-0.000287533,0.029304504,0.043955803,0.001831532,-0.003663063,0,0,0,0
32:56.3,55.37,-0.008,-0.055,0,-0.305,-0.958,-0.019,11.6,-5.08,-53.25,0.6908,-0.6848,-0.0263,-0.2303,0.009,-0.007,-0.013,44.325,-0.005,0.003,0.003,-0.131,-0.969,-0.15,27.85,-22.8,-75.62,0.7436,-0.6485,-0.043,-0.1564,0,-0.009,-0.004,45.07,-0.027,0.01,0.013,-0.042,-0.998,0.052,69.16,-13.62,-70,0.6837,-0.7178,0.1092,0.0722,-0.002,0,0.002,0,0,0,0,0,0,-0.009970665,-0.000287533,0.029304504,0.043955803,0.001831532,-0.003663063,0,0,0,0
32:56.3,55.375,-0.001,-0.06,0.001,-0.304,-0.961,-0.021,11.69,-5.26,-53.02,0.6907,-0.6848,-0.0262,-0.2302,0.008,-0.003,-0.011,44.325,-0.005,0.003,0.003,-0.131,-0.969,-0.15,27.85,-22.8,-75.62,0.7436,-0.6485,-0.043,-0.1564,0,-0.009,-0.004,45.07,-0.027,0.01,0.013,-0.042,-0.998,0.052,69.16,-13.62,-70,0.6837,-0.7178,0.1092,0.0722,-0.002,0,0.002,0,0,0,0,0,0,-0.009970665,-0.000287533,0.029304504,0.043955803,0.001831532,-0.003663063,0,0,0,0
32:56.3,55.365,-0.008,-0.052,-0.002,-0.305,-0.956,-0.018,11.6,-5.08,-53.25,0.6908,-0.6848,-0.0264,-0.2304,0.009,-0.009,-0.015,44.325,-0.005,0.003,0.003,-0.131,-0.969,-0.15,27.85,-22.8,-75.62,0.7436,-0.6485,-0.043,-0.1564,0,-0.009,-0.004,45.07,-0.027,0.01,0.013,-0.042,-0.998,0.052,69.16,-13.62,-70,0.6837,-0.7178,0.1092,0.0722,-0.002,0,0.002,0,0,0,0,0,0,-0.009970665,-0.000287533,0.029304504,0.043955803,0.001831532,-0.003663063,0,0,0,0
32:56.4,55.39,0.006,-0.066,0.004,-0.302,-0.972,-0.019,11.69,-5.52,-52.44,0.6907,-0.685,-0.0258,-0.2299,0.006,0.006,-0.012,44.34,-0.009,0.002,0,-0.135,-0.973,-0.156,27.3,-24.87,-75.88,0.7435,-0.6486,-0.0427,-0.1567,0.003,-0.004,0,45.095,-0.032,0.028,0.013,-0.048,-1.002,0.054,69.57,-14.14,-69.57,0.6847,-0.7169,0.1088,0.072,0.002,0.004,-0.003,0,0,0,0,0,0,-0.010162354,-0.000575066,0.08058548,-0.095237732,-0.025641441,-0.032966614,0,0,0,0
32:56.4,55.385,0.005,-0.064,0.004,-0.303,-0.969,-0.021,11.69,-5.26,-53.02,0.6907,-0.685,-0.026,-0.23,0.006,0.003,-0.011,44.34,-0.009,0.002,0,-0.135,-0.973,-0.156,27.3,-24.87,-75.88,0.7435,-0.6486,-0.0427,-0.1567,0.003,-0.004,0,45.095,-0.032,0.028,0.013,-0.048,-1.002,0.054,69.57,-14.14,-69.57,0.6847,-0.7169,0.1088,0.072,0.002,0.004,-0.003,0,0,0,0,0,0,-0.010162354,-0.000575066,0.08058548,-0.095237732,-0.025641441,-0.032966614,0,0,0,0
32:56.4,55.395,0.009,-0.07,0.004,-0.301,-0.974,-0.018,11.69,-5.52,-52.44,0.6907,-0.6851,-0.0257,-0.2298,0.004,0.009,-0.013,44.34,-0.009,0.002,0,-0.135,-0.973,-0.156,27.3,-24.87,-75.88,0.7435,-0.6486,-0.0427,-0.1567,0.003,-0.004,0,45.095,-0.032,0.028,0.013,-0.048,-1.002,0.054,69.57,-14.14,-69.57,0.6847,-0.7169,0.1088,0.072,0.002,0.004,-0.003,0,0,0,0,0,0,-0.010162354,-0.000575066,0.08058548,-0.095237732,-0.025641441,-0.032966614,0,0,0,0
32:56.4,55.4,0.012,-0.072,0.004,-0.301,-0.977,-0.02,11.69,-5.52,-52.44,0.6906,-0.6852,-0.0256,-0.2297,0.004,0.011,-0.01,44.34,-0.009,0.002,0,-0.135,-0.973,-0.156,27.3,-24.87,-75.88,0.7435,-0.6486,-0.0427,-0.1567,0.003,-0.004,0,45.095,-0.032,0.028,0.013,-0.048,-1.002,0.054,69.57,-14.14,-69.57,0.6847,-0.7169,0.1088,0.072,0.002,0.004,-0.003,0,0,0,0,0,0,-0.010162354,-0.000575066,0.08058548,-0.095237732,-0.025641441,-0.032966614,0,0,0,0
32:56.4,55.405,0.013,-0.074,0.002,-0.301,-0.978,-0.023,11.57,-5.26,-52.2,0.6906,-0.6852,-0.0255,-0.2296,0.005,0.012,-0.007,44.34,-0.009,0.002,0,-0.135,-0.973,-0.156,27.3,-24.87,-75.88,0.7435,-0.6486,-0.0427,-0.1567,0.003,-0.004,0,45.095,-0.032,0.028,0.013,-0.048,-1.002,0.054,69.57,-14.14,-69.57,0.6847,-0.7169,0.1088,0.072,0.002,0.004,-0.003,0,0,0,0,0,0,-0.010162354,-0.000575066,0.08058548,-0.095237732,-0.025641441,-0.032966614,0,0,0,0
32:56.4,55.415,0.015,-0.077,0.004,-0.299,-0.978,-0.031,11.66,-5.14,-52.47,0.6906,-0.6854,-0.0252,-0.2293,0.002,0.012,0,44.34,-0.009,0.002,0,-0.135,-0.973,-0.156,27.3,-24.87,-75.88,0.7435,-0.6486,-0.0427,-0.1567,0.003,-0.004,0,45.095,-0.032,0.028,0.013,-0.048,-1.002,0.054,69.57,-14.14,-69.57,0.6847,-0.7169,0.1088,0.072,0.002,0.004,-0.003,0,0,0,0,0,0,-0.010162354,-0.000575066,0.08058548,-0.095237732,-0.025641441,-0.032966614,0,0,0,0
32:56.4,55.41,0.017,-0.071,0.003,-0.3,-0.978,-0.028,11.57,-5.26,-52.2,0.6906,-0.6853,-0.0254,-0.2295,0.003,0.012,-0.002,44.34,-0.009,0.002,0,-0.135,-0.973,-0.156,27.3,-24.87,-75.88,0.7435,-0.6486,-0.0427,-0.1567,0.003,-0.004,0,45.095,-0.032,0.028,0.013,-0.048,-1.002,0.054,69.57,-14.14,-69.57,0.6847,-0.7169,0.1088,0.072,0.002,0.004,-0.003,0,0,0,0,0,0,-0.010162354,-0.000575066,0.08058548,-0.095237732,-0.025641441,-0.032966614,0,0,0,0
32:56.4,55.42,0.014,-0.085,0.005,-0.299,-0.977,-0.034,11.66,-5.14,-52.47,0.6905,-0.6854,-0.0251,-0.2292,0.002,0.011,0.003,44.34,-0.009,0.002,0,-0.135,-0.973,-0.156,27.3,-24.87,-75.88,0.7435,-0.6486,-0.0427,-0.1567,0.003,-0.004,0,45.095,-0.032,0.028,0.013,-0.048,-1.002,0.054,69.57,-14.14,-69.57,0.6847,-0.7169,0.1088,0.072,0.002,0.004,-0.003,0,0,0,0,0,0,-0.010162354,-0.000575066,0.08058548,-0.095237732,-0.025641441,-0.032966614,0,0,0,0
32:56.4,55.425,0.017,-0.094,0.005,-0.3,-0.975,-0.036,11.66,-5.14,-52.47,0.6905,-0.6855,-0.0249,-0.229,0.004,0.009,0.005,44.34,-0.009,0.002,0,-0.135,-0.973,-0.156,27.3,-24.87,-75.88,0.7435,-0.6486,-0.0427,-0.1567,0.003,-0.004,0,45.11,-0.039,0.024,0.015,-0.049,-0.996,0.052,69.27,-13.88,-69.65,0.6847,-0.7169,0.1091,0.0715,0.003,-0.001,0,0,0,0,0,0,0,-0.010162354,-0.000575066,0.08058548,-0.051282883,0.010989189,-0.003663063,0,0,0,0
32:56.4,55.43,0.02,-0.097,0.007,-0.3,-0.973,-0.035,11.63,-4.94,-52.49,0.6905,-0.6856,-0.0248,-0.2289,0.003,0.007,0.005,44.34,-0.009,0.002,0,-0.135,-0.973,-0.156,27.3,-24.87,-75.88,0.7435,-0.6486,-0.0427,-0.1567,0.003,-0.004,0,45.11,-0.039,0.024,0.015,-0.049,-0.996,0.052,69.27,-13.88,-69.65,0.6847,-0.7169,0.1091,0.0715,0.003,-0.001,0,0,0,0,0,0,0,-0.010162354,-0.000575066,0.08058548,-0.051282883,0.010989189,-0.003663063,0,0,0,0
32:56.4,55.435,0.03,-0.105,0.009,-0.3,-0.966,-0.034,11.63,-4.94,-52.49,0.6904,-0.6857,-0.0246,-0.2287,0.003,0,0.003,44.34,-0.009,0.002,0,-0.135,-0.973,-0.156,27.3,-24.87,-75.88,0.7435,-0.6486,-0.0427,-0.1567,0.003,-0.004,0,45.11,-0.039,0.024,0.015,-0.049,-0.996,0.052,69.27,-13.88,-69.65,0.6847,-0.7169,0.1091,0.0715,0.003,-0.001,0,0,0,0,0,0,0,-0.010162354,-0.000575066,0.08058548,-0.051282883,0.010989189,-0.003663063,0,0,0,0
32:56.4,55.44,0.039,-0.113,0.011,-0.299,-0.962,-0.031,11.6,-5.11,-52.96,0.6904,-0.6859,-0.0244,-0.2285,0.002,-0.003,0.001,44.34,-0.009,0.002,0,-0.135,-0.973,-0.156,27.3,-24.87,-75.88,0.7435,-0.6486,-0.0427,-0.1567,0.003,-0.004,0,45.11,-0.039,0.024,0.015,-0.049,-0.996,0.052,69.27,-13.88,-69.65,0.6847,-0.7169,0.1091,0.0715,0.003,-0.001,0,0,0,0,0,0,0,-0.010162354,-0.000575066,0.08058548,-0.051282883,0.010989189,-0.003663063,0,0,0,0
32:56.4,55.445,0.048,-0.118,0.013,-0.3,-0.959,-0.029,11.6,-5.11,-52.96,0.6903,-0.686,-0.0242,-0.2284,0.002,-0.006,0,44.34,-0.009,0.002,0,-0.135,-0.973,-0.156,27.3,-24.87,-75.88,0.7435,-0.6486,-0.0427,-0.1567,0.003,-0.004,0,45.11,-0.039,0.024,0.015,-0.049,-0.996,0.052,69.27,-13.88,-69.65,0.6847,-0.7169,0.1091,0.0715,0.003,-0.001,0,0,0,0,0,0,0,-0.010162354,-0.000575066,0.08058548,-0.051282883,0.010989189,-0.003663063,0,0,0,0
32:56.4,55.45,0.059,-0.118,0.014,-0.301,-0.955,-0.025,11.6,-5.11,-52.96,0.6902,-0.6862,-0.024,-0.2282,0.003,-0.01,-0.004,44.365,-0.018,-0.002,-0.006,-0.135,-0.97,-0.165,27.59,-23.15,-76.38,0.7444,-0.6474,-0.0421,-0.1574,0.001,-0.007,0.007,45.115,-0.037,0.016,0.016,-0.049,-0.988,0.052,69.3,-14.08,-69.8,0.6848,-0.7169,0.1092,0.0714,0.002,-0.008,-0.001,0,0,0,0,0,0,-0.010162354,-0.000191689,0.051282883,-0.051282883,-0.025641441,-0.032966614,0,0,0,0
32:56.4,55.455,0.07,-0.121,0.018,-0.3,-0.952,-0.022,12.07,-5.26,-52.9,0.6901,-0.6864,-0.0238,-0.228,0.003,-0.013,-0.006,44.365,-0.018,-0.002,-0.006,-0.135,-0.97,-0.165,27.59,-23.15,-76.38,0.7444,-0.6474,-0.0421,-0.1574,0.001,-0.007,0.007,45.115,-0.037,0.016,0.016,-0.049,-0.988,0.052,69.3,-14.08,-69.8,0.6848,-0.7169,0.1092,0.0714,0.002,-0.008,-0.001,0,0,0,0,0,0,-0.010162354,-0.000191689,0.051282883,-0.051282883,-0.025641441,-0.032966614,0,0,0,0
32:56.4,55.47,0.095,-0.109,0.023,-0.303,-0.945,-0.013,11.72,-5.17,-52.85,0.6896,-0.687,-0.0233,-0.2275,0.005,-0.019,-0.014,44.385,-0.019,0,-0.009,-0.133,-0.966,-0.159,27.36,-24.75,-75.88,0.7451,-0.6466,-0.042,-0.1576,0,-0.011,-0.001,45.155,-0.027,0.01,0.002,-0.047,-0.996,0.05,69.27,-14.08,-69.42,0.685,-0.7167,0.109,0.0716,0,0,0,0,0,0,0,0,0,-0.010162354,-0.000575066,0.007326126,-0.065933228,0.003663063,0.025641441,0,0,0,0
32:56.4,55.46,0.079,-0.121,0.02,-0.301,-0.947,-0.019,12.07,-5.26,-52.9,0.6899,-0.6866,-0.0236,-0.2278,0.003,-0.018,-0.008,44.385,-0.019,0,-0.009,-0.133,-0.966,-0.159,27.36,-24.75,-75.88,0.7451,-0.6466,-0.042,-0.1576,0,-0.011,-0.001,45.155,-0.027,0.01,0.002,-0.047,-0.996,0.05,69.27,-14.08,-69.42,0.685,-0.7167,0.109,0.0716,0,0,0,0,0,0,0,0,0,-0.010162354,-0.000575066,0.007326126,-0.065933228,0.003663063,0.025641441,0,0,0,0
32:56.4,55.465,0.087,-0.113,0.019,-0.302,-0.946,-0.017,11.72,-5.17,-52.85,0.6898,-0.6868,-0.0234,-0.2276,0.005,-0.019,-0.01,44.385,-0.019,0,-0.009,-0.133,-0.966,-0.159,27.36,-24.75,-75.88,0.7451,-0.6466,-0.042,-0.1576,0,-0.011,-0.001,45.155,-0.027,0.01,0.002,-0.047,-0.996,0.05,69.27,-14.08,-69.42,0.685,-0.7167,0.109,0.0716,0,0,0,0,0,0,0,0,0,-0.010162354,-0.000575066,0.007326126,-0.065933228,0.003663063,0.025641441,0,0,0,0
32:56.4,55.475,0.101,-0.102,0.023,-0.304,-0.946,-0.011,11.72,-5.17,-52.85,0.6894,-0.6873,-0.0231,-0.2273,0.005,-0.019,-0.015,44.385,-0.019,0,-0.009,-0.133,-0.966,-0.159,27.36,-24.75,-75.88,0.7451,-0.6466,-0.042,-0.1576,0,-0.011,-0.001,45.155,-0.027,0.01,0.002,-0.047,-0.996,0.05,69.27,-14.08,-69.42,0.685,-0.7167,0.109,0.0716,0,0,0,0,0,0,0,0,0,-0.010162354,-0.000575066,0.007326126,-0.065933228,0.003663063,0.025641441,0,0,0,0
32:56.4,55.48,0.105,-0.094,0.024,-0.304,-0.948,-0.009,11.98,-5.23,-53.14,0.6892,-0.6875,-0.023,-0.2272,0.006,-0.016,-0.016,44.385,-0.019,0,-0.009,-0.133,-0.966,-0.159,27.36,-24.75,-75.88,0.7451,-0.6466,-0.042,-0.1576,0,-0.011,-0.001,45.155,-0.027,0.01,0.002,-0.047,-0.996,0.05,69.27,-14.08,-69.42,0.685,-0.7167,0.109,0.0716,0,0,0,0,0,0,0,0,0,-0.010162354,-0.000575066,0.007326126,-0.065933228,0.003663063,0.025641441,0,0,0,0
32:56.4,55.49,0.111,-0.085,0.024,-0.304,-0.954,-0.006,11.45,-5.34,-52.11,0.6888,-0.688,-0.0227,-0.227,0.006,-0.01,-0.018,44.385,-0.019,0,-0.009,-0.133,-0.966,-0.159,27.36,-24.75,-75.88,0.7451,-0.6466,-0.042,-0.1576,0,-0.011,-0.001,45.155,-0.027,0.01,0.002,-0.047,-0.996,0.05,69.27,-14.08,-69.42,0.685,-0.7167,0.109,0.0716,0,0,0,0,0,0,0,0,0,-0.010162354,-0.000575066,0.007326126,-0.065933228,0.003663063,0.025641441,0,0,0,0
32:56.4,55.495,0.112,-0.074,0.027,-0.305,-0.962,-0.004,11.45,-5.34,-52.11,0.6886,-0.6883,-0.0226,-0.2269,0.007,-0.002,-0.019,44.385,-0.019,0,-0.009,-0.133,-0.966,-0.159,27.36,-24.75,-75.88,0.7451,-0.6466,-0.042,-0.1576,0,-0.011,-0.001,45.155,-0.027,0.01,0.002,-0.047,-0.996,0.05,69.27,-14.08,-69.42,0.685,-0.7167,0.109,0.0716,0,0,0,0,0,0,0,0,0,-0.010162354,-0.000575066,0.007326126,-0.065933228,0.003663063,0.025641441,0,0,0,0
32:56.4,55.485,0.109,-0.091,0.025,-0.304,-0.952,-0.007,11.98,-5.23,-53.14,0.689,-0.6878,-0.0228,-0.2271,0.005,-0.012,-0.018,44.385,-0.019,0,-0.009,-0.133,-0.966,-0.159,27.36,-24.75,-75.88,0.7451,-0.6466,-0.042,-0.1576,0,-0.011,-0.001,45.155,-0.027,0.01,0.002,-0.047,-0.996,0.05,69.27,-14.08,-69.42,0.685,-0.7167,0.109,0.0716,0,0,0,0,0,0,0,0,0,-0.010162354,-0.000575066,0.007326126,-0.065933228,0.003663063,0.025641441,0,0,0,0
32:56.5,55.5,0.112,-0.074,0.025,-0.305,-0.963,-0.004,11.45,-5.34,-52.11,0.6883,-0.6885,-0.0225,-0.2268,0.007,-0.002,-0.018,44.385,-0.019,0,-0.009,-0.133,-0.966,-0.159,27.36,-24.75,-75.88,0.7451,-0.6466,-0.042,-0.1576,0,-0.011,-0.001,45.16,-0.024,0.013,0.001,-0.054,-0.992,0.054,69.48,-14.08,-69.68,0.6849,-0.7167,0.1093,0.0713,0.007,-0.004,-0.003,0,0,0,0,0,0,-0.010162354,-0.000191689,0.065934181,0.073260307,0,-0.018315315,0,0,0,0
32:56.5,55.505,0.112,-0.059,0.029,-0.306,-0.967,-0.005,11.6,-4.99,-52.2,0.6881,-0.6888,-0.0224,-0.2267,0.007,0.001,-0.017,44.385,-0.019,0,-0.009,-0.133,-0.966,-0.159,27.36,-24.75,-75.88,0.7451,-0.6466,-0.042,-0.1576,0,-0.011,-0.001,45.16,-0.024,0.013,0.001,-0.054,-0.992,0.054,69.48,-14.08,-69.68,0.6849,-0.7167,0.1093,0.0713,0.007,-0.004,-0.003,0,0,0,0,0,0,-0.010162354,-0.000191689,0.065934181,0.073260307,0,-0.018315315,0,0,0,0
32:56.5,55.51,0.114,-0.053,0.028,-0.307,-0.97,-0.005,11.6,-4.99,-52.2,0.6879,-0.689,-0.0223,-0.2267,0.008,0.004,-0.016,44.385,-0.019,0,-0.009,-0.133,-0.966,-0.159,27.36,-24.75,-75.88,0.7451,-0.6466,-0.042,-0.1576,0,-0.011,-0.001,45.16,-0.024,0.013,0.001,-0.054,-0.992,0.054,69.48,-14.08,-69.68,0.6849,-0.7167,0.1093,0.0713,0.007,-0.004,-0.003,0,0,0,0,0,0,-0.010162354,-0.000191689,0.065934181,0.073260307,0,-0.018315315,0,0,0,0
32:56.5,55.515,0.112,-0.049,0.029,-0.308,-0.971,-0.004,10.87,-5.58,-52.58,0.6877,-0.6893,-0.0222,-0.2266,0.009,0.005,-0.016,44.385,-0.019,0,-0.009,-0.133,-0.966,-0.159,27.36,-24.75,-75.88,0.7451,-0.6466,-0.042,-0.1576,0,-0.011,-0.001,45.16,-0.024,0.013,0.001,-0.054,-0.992,0.054,69.48,-14.08,-69.68,0.6849,-0.7167,0.1093,0.0713,0.007,-0.004,-0.003,0,0,0,0,0,0,-0.010162354,-0.000191689,0.065934181,0.073260307,0,-0.018315315,0,0,0,0
32:56.5,55.52,0.111,-0.047,0.028,-0.307,-0.971,-0.003,10.87,-5.58,-52.58,0.6875,-0.6895,-0.0222,-0.2266,0.008,0.006,-0.016,44.385,-0.019,0,-0.009,-0.133,-0.966,-0.159,27.36,-24.75,-75.88,0.7451,-0.6466,-0.042,-0.1576,0,-0.011,-0.001,45.16,-0.024,0.013,0.001,-0.054,-0.992,0.054,69.48,-14.08,-69.68,0.6849,-0.7167,0.1093,0.0713,0.007,-0.004,-0.003,0,0,0,0,0,0,-0.010162354,-0.000191689,0.065934181,0.073260307,0,-0.018315315,0,0,0,0
32:56.5,55.525,0.108,-0.049,0.032,-0.308,-0.973,-0.003,10.87,-5.58,-52.58,0.6872,-0.6897,-0.0221,-0.2265,0.009,0.008,-0.016,44.385,-0.019,0,-0.009,-0.133,-0.966,-0.159,27.36,-24.75,-75.88,0.7451,-0.6466,-0.042,-0.1576,0,-0.011,-0.001,45.16,-0.024,0.013,0.001,-0.054,-0.992,0.054,69.48,-14.08,-69.68,0.6849,-0.7167,0.1093,0.0713,0.007,-0.004,-0.003,0,0,0,0,0,0,-0.010162354,-0.000191689,0.065934181,0.073260307,0,-0.018315315,0,0,0,0
32:56.5,55.53,0.107,-0.046,0.03,-0.309,-0.974,-0.001,11.54,-5.43,-51.68,0.687,-0.69,-0.022,-0.2265,0.01,0.009,-0.017,44.385,-0.019,0,-0.009,-0.133,-0.966,-0.159,27.36,-24.75,-75.88,0.7451,-0.6466,-0.042,-0.1576,0,-0.011,-0.001,45.16,-0.024,0.013,0.001,-0.054,-0.992,0.054,69.48,-14.08,-69.68,0.6849,-0.7167,0.1093,0.0713,0.007,-0.004,-0.003,0,0,0,0,0,0,-0.010162354,-0.000191689,0.065934181,0.073260307,0,-0.018315315,0,0,0,0
32:56.5,55.535,0.104,-0.04,0.03,-0.311,-0.972,0,11.54,-5.43,-51.68,0.6868,-0.6902,-0.0219,-0.2265,0.011,0.007,-0.017,44.385,-0.019,0,-0.009,-0.133,-0.966,-0.159,27.36,-24.75,-75.88,0.7451,-0.6466,-0.042,-0.1576,0,-0.011,-0.001,45.16,-0.024,0.013,0.001,-0.054,-0.992,0.054,69.48,-14.08,-69.68,0.6849,-0.7167,0.1093,0.0713,0.007,-0.004,-0.003,0,0,0,0,0,0,-0.010162354,-0.000191689,0.065934181,0.073260307,0,-0.018315315,0,0,0,0
32:56.5,55.55,0.107,-0.032,0.03,-0.315,-0.967,0,10.99,-5.78,-52.09,0.6862,-0.6908,-0.0218,-0.2264,0.015,0.002,-0.017,44.405,-0.025,0,-0.007,-0.133,-0.969,-0.153,27.47,-25.43,-76.2,0.7449,-0.6469,-0.042,-0.1574,0,-0.007,-0.006,45.2,-0.019,0.007,-0.002,-0.044,-0.994,0.079,69.33,-13.73,-69.65,0.6819,-0.7195,0.1107,0.0706,-0.005,-0.002,-0.019,0,0,0,0,0,0,-0.010545731,-0.000191689,0.03663063,0.051282883,0.003663063,-0.032966614,0,0,0,0
32:56.5,55.545,0.105,-0.035,0.033,-0.313,-0.97,0.001,10.99,-5.78,-52.09,0.6864,-0.6906,-0.0218,-0.2265,0.013,0.004,-0.019,44.405,-0.025,0,-0.007,-0.133,-0.969,-0.153,27.47,-25.43,-76.2,0.7449,-0.6469,-0.042,-0.1574,0,-0.007,-0.006,45.2,-0.019,0.007,-0.002,-0.044,-0.994,0.079,69.33,-13.73,-69.65,0.6819,-0.7195,0.1107,0.0706,-0.005,-0.002,-0.019,0,0,0,0,0,0,-0.010545731,-0.000191689,0.03663063,0.051282883,0.003663063,-0.032966614,0,0,0,0
32:56.5,55.56,0.106,-0.039,0.027,-0.32,-0.964,0,11.34,-5.2,-52.11,0.6857,-0.6913,-0.0216,-0.2264,0.019,0,-0.016,44.405,-0.025,0,-0.007,-0.133,-0.969,-0.153,27.47,-25.43,-76.2,0.7449,-0.6469,-0.042,-0.1574,0,-0.007,-0.006,45.2,-0.019,0.007,-0.002,-0.044,-0.994,0.079,69.33,-13.73,-69.65,0.6819,-0.7195,0.1107,0.0706,-0.005,-0.002,-0.019,0,0,0,0,0,0,-0.010545731,-0.000191689,0.03663063,0.051282883,0.003663063,-0.032966614,0,0,0,0
32:56.5,55.555,0.107,-0.033,0.029,-0.318,-0.966,0,11.34,-5.2,-52.11,0.686,-0.6911,-0.0217,-0.2264,0.018,0,-0.017,44.405,-0.025,0,-0.007,-0.133,-0.969,-0.153,27.47,-25.43,-76.2,0.7449,-0.6469,-0.042,-0.1574,0,-0.007,-0.006,45.2,-0.019,0.007,-0.002,-0.044,-0.994,0.079,69.33,-13.73,-69.65,0.6819,-0.7195,0.1107,0.0706,-0.005,-0.002,-0.019,0,0,0,0,0,0,-0.010545731,-0.000191689,0.03663063,0.051282883,0.003663063,-0.032966614,0,0,0,0
32:56.5,55.54,0.106,-0.038,0.032,-0.312,-0.97,0,10.99,-5.78,-52.09,0.6866,-0.6904,-0.0219,-0.2265,0.012,0.005,-0.018,44.405,-0.025,0,-0.007,-0.133,-0.969,-0.153,27.47,-25.43,-76.2,0.7449,-0.6469,-0.042,-0.1574,0,-0.007,-0.006,45.2,-0.019,0.007,-0.002,-0.044,-0.994,0.079,69.33,-13.73,-69.65,0.6819,-0.7195,0.1107,0.0706,-0.005,-0.002,-0.019,0,0,0,0,0,0,-0.010545731,-0.000191689,0.03663063,0.051282883,0.003663063,-0.032966614,0,0,0,0
32:56.5,55.58,0.111,-0.032,0.017,-0.324,-0.963,0,11.78,-5.14,-51.76,0.6849,-0.6922,-0.0215,-0.2263,0.023,-0.001,-0.013,44.41,-0.026,0.002,-0.006,-0.136,-0.969,-0.151,27.47,-25.43,-76.2,0.7447,-0.6471,-0.0419,-0.1574,0.002,-0.007,-0.007,45.195,-0.022,0.002,-0.005,-0.047,-0.995,0.076,69.33,-13.73,-69.65,0.6825,-0.7189,0.1107,0.0704,-0.002,-0.002,-0.019,0,0,0,0,0,0,-0.010545731,-0.000575066,0.014652252,-0.036629677,-0.007326126,-0.003663063,0,0,0,0
32:56.5,55.585,0.109,-0.031,0.015,-0.324,-0.963,0,11.78,-5.14,-51.76,0.6847,-0.6924,-0.0214,-0.2263,0.023,-0.002,-0.012,44.41,-0.026,0.002,-0.006,-0.136,-0.969,-0.151,27.47,-25.43,-76.2,0.7447,-0.6471,-0.0419,-0.1574,0.002,-0.007,-0.007,45.195,-0.022,0.002,-0.005,-0.047,-0.995,0.076,69.33,-13.73,-69.65,0.6825,-0.7189,0.1107,0.0704,-0.002,-0.002,-0.019,0,0,0,0,0,0,-0.010545731,-0.000575066,0.014652252,-0.036629677,-0.007326126,-0.003663063,0,0,0,0
32:56.5,55.59,0.106,-0.033,0.013,-0.325,-0.961,0.001,11.86,-5.02,-52.09,0.6845,-0.6926,-0.0214,-0.2263,0.023,-0.003,-0.013,44.41,-0.026,0.002,-0.006,-0.136,-0.969,-0.151,27.47,-25.43,-76.2,0.7447,-0.6471,-0.0419,-0.1574,0.002,-0.007,-0.007,45.195,-0.022,0.002,-0.005,-0.047,-0.995,0.076,69.33,-13.73,-69.65,0.6825,-0.7189,0.1107,0.0704,-0.002,-0.002,-0.019,0,0,0,0,0,0,-0.010545731,-0.000575066,0.014652252,-0.036629677,-0.007326126,-0.003663063,0,0,0,0
32:56.5,55.595,0.108,-0.038,0.013,-0.324,-0.961,0.002,11.86,-5.02,-52.09,0.6842,-0.6928,-0.0214,-0.2263,0.023,-0.003,-0.014,44.44,-0.03,-0.018,-0.007,-0.14,-0.961,-0.158,27.65,-23.03,-76.64,0.7447,-0.647,-0.0404,-0.1584,0.003,-0.015,-0.001,45.205,-0.024,0.012,-0.006,-0.046,-0.999,0.071,69.33,-13.73,-69.65,0.6815,-0.7198,0.1107,0.0707,-0.002,0.002,-0.01,0,0,0,0,0,0,-0.010930061,-0.000575066,0.007326126,0.007326126,-0.018315315,-0.003663063,0,0,0,0
32:56.5,55.6,0.109,-0.036,0.012,-0.323,-0.961,0.004,11.86,-5.02,-52.09,0.684,-0.6931,-0.0213,-0.2262,0.021,-0.003,-0.015,44.44,-0.03,-0.018,-0.007,-0.14,-0.961,-0.158,27.65,-23.03,-76.64,0.7447,-0.647,-0.0404,-0.1584,0.003,-0.015,-0.001,45.205,-0.024,0.012,-0.006,-0.046,-0.999,0.071,69.33,-13.73,-69.65,0.6815,-0.7198,0.1107,0.0707,-0.002,0.002,-0.01,0,0,0,0,0,0,-0.010930061,-0.000575066,0.007326126,0.007326126,-0.018315315,-0.003663063,0,0,0,0
32:56.5,55.63,0.087,-0.042,0.007,-0.323,-0.959,0.014,10.99,-4.96,-51.27,0.6828,-0.6943,-0.0211,-0.226,0.02,-0.005,-0.022,44.44,-0.03,-0.018,-0.007,-0.14,-0.961,-0.158,27.65,-23.03,-76.64,0.7447,-0.647,-0.0404,-0.1584,0.003,-0.015,-0.001,45.205,-0.024,0.012,-0.006,-0.046,-0.999,0.071,69.33,-13.73,-69.65,0.6815,-0.7198,0.1107,0.0707,-0.002,0.002,-0.01,0,0,0,0,0,0,-0.010930061,-0.000575066,0.007326126,0.007326126,-0.018315315,-0.003663063,0,0,0,0
32:56.5,55.625,0.093,-0.038,0.008,-0.323,-0.959,0.014,11.4,-4.64,-52.14,0.683,-0.6941,-0.0211,-0.2261,0.021,-0.005,-0.022,44.44,-0.03,-0.018,-0.007,-0.14,-0.961,-0.158,27.65,-23.03,-76.64,0.7447,-0.647,-0.0404,-0.1584,0.003,-0.015,-0.001,45.205,-0.024,0.012,-0.006,-0.046,-0.999,0.071,69.33,-13.73,-69.65,0.6815,-0.7198,0.1107,0.0707,-0.002,0.002,-0.01,0,0,0,0,0,0,-0.010930061,-0.000575066,0.007326126,0.007326126,-0.018315315,-0.003663063,0,0,0,0
32:56.5,55.615,0.105,-0.034,0.01,-0.324,-0.959,0.01,11.4,-4.64,-52.14,0.6834,-0.6937,-0.0212,-0.2261,0.022,-0.005,-0.019,44.44,-0.03,-0.018,-0.007,-0.14,-0.961,-0.158,27.65,-23.03,-76.64,0.7447,-0.647,-0.0404,-0.1584,0.003,-0.015,-0.001,45.205,-0.024,0.012,-0.006,-0.046,-0.999,0.071,69.33,-13.73,-69.65,0.6815,-0.7198,0.1107,0.0707,-0.002,0.002,-0.01,0,0,0,0,0,0,-0.010930061,-0.000575066,0.007326126,0.007326126,-0.018315315,-0.003663063,0,0,0,0
32:56.5,55.62,0.099,-0.036,0.009,-0.324,-0.958,0.012,11.4,-4.64,-52.14,0.6832,-0.6939,-0.0212,-0.2261,0.021,-0.006,-0.02,44.44,-0.03,-0.018,-0.007,-0.14,-0.961,-0.158,27.65,-23.03,-76.64,0.7447,-0.647,-0.0404,-0.1584,0.003,-0.015,-0.001,45.205,-0.024,0.012,-0.006,-0.046,-0.999,0.071,69.33,-13.73,-69.65,0.6815,-0.7198,0.1107,0.0707,-0.002,0.002,-0.01,0,0,0,0,0,0,-0.010930061,-0.000575066,0.007326126,0.007326126,-0.018315315,-0.003663063,0,0,0,0
32:56.5,55.61,0.106,-0.033,0.01,-0.324,-0.961,0.008,11.4,-5.26,-52.29,0.6836,-0.6935,-0.0213,-0.2262,0.022,-0.003,-0.018,44.44,-0.03,-0.018,-0.007,-0.14,-0.961,-0.158,27.65,-23.03,-76.64,0.7447,-0.647,-0.0404,-0.1584,0.003,-0.015,-0.001,45.205,-0.024,0.012,-0.006,-0.046,-0.999,0.071,69.33,-13.73,-69.65,0.6815,-0.7198,0.1107,0.0707,-0.002,0.002,-0.01,0,0,0,0,0,0,-0.010930061,-0.000575066,0.007326126,0.007326126,-0.018315315,-0.003663063,0,0,0,0
32:56.5,55.605,0.106,-0.033,0.01,-0.324,-0.96,0.005,11.4,-5.26,-52.29,0.6838,-0.6933,-0.0213,-0.2262,0.023,-0.004,-0.016,44.44,-0.03,-0.018,-0.007,-0.14,-0.961,-0.158,27.65,-23.03,-76.64,0.7447,-0.647,-0.0404,-0.1584,0.003,-0.015,-0.001,45.205,-0.024,0.012,-0.006,-0.046,-0.999,0.071,69.33,-13.73,-69.65,0.6815,-0.7198,0.1107,0.0707,-0.002,0.002,-0.01,0,0,0,0,0,0,-0.010930061,-0.000575066,0.007326126,0.007326126,-0.018315315,-0.003663063,0,0,0,0
32:56.5,55.635,0.082,-0.042,0.007,-0.322,-0.958,0.015,10.99,-4.96,-51.27,0.6826,-0.6945,-0.021,-0.2259,0.02,-0.006,-0.022,44.415,-0.029,-0.001,-0.006,-0.137,-0.97,-0.153,28.35,-23.94,-75.79,0.7446,-0.6472,-0.0418,-0.1575,0.002,-0.007,-0.005,45.245,-0.013,0.036,0.007,-0.053,-0.989,0.052,69.13,-13.94,-69.54,0.6828,-0.7188,0.1106,0.0695,0.002,-0.007,0.005,0,0,0,0,0,0,-0.010930061,-0.000575066,-0.051282883,0.095237732,0.003663063,-0.018315315,0,0,0,0
32:56.5,55.64,0.077,-0.042,0.008,-0.321,-0.959,0.014,10.99,-4.96,-51.27,0.6825,-0.6947,-0.021,-0.2259,0.018,-0.005,-0.02,44.415,-0.029,-0.001,-0.006,-0.137,-0.97,-0.153,28.35,-23.94,-75.79,0.7446,-0.6472,-0.0418,-0.1575,0.002,-0.007,-0.005,45.245,-0.013,0.036,0.007,-0.053,-0.989,0.052,69.13,-13.94,-69.54,0.6828,-0.7188,0.1106,0.0695,0.002,-0.007,0.005,0,0,0,0,0,0,-0.010930061,-0.000575066,-0.051282883,0.095237732,0.003663063,-0.018315315,0,0,0,0
32:56.5,55.645,0.07,-0.051,0.007,-0.318,-0.96,0.013,11.02,-4.96,-51.79,0.6823,-0.6949,-0.0209,-0.2258,0.015,-0.004,-0.019,44.415,-0.029,-0.001,-0.006,-0.137,-0.97,-0.153,28.35,-23.94,-75.79,0.7446,-0.6472,-0.0418,-0.1575,0.002,-0.007,-0.005,45.245,-0.013,0.036,0.007,-0.053,-0.989,0.052,69.13,-13.94,-69.54,0.6828,-0.7188,0.1106,0.0695,0.002,-0.007,0.005,0,0,0,0,0,0,-0.010930061,-0.000575066,-0.051282883,0.095237732,0.003663063,-0.018315315,0,0,0,0
32:56.5,55.65,0.063,-0.058,0.01,-0.315,-0.96,0.013,11.02,-4.96,-51.79,0.6822,-0.6951,-0.0208,-0.2257,0.012,-0.003,-0.019,44.415,-0.029,-0.001,-0.006,-0.137,-0.97,-0.153,28.35,-23.94,-75.79,0.7446,-0.6472,-0.0418,-0.1575,0.002,-0.007,-0.005,45.245,-0.013,0.036,0.007,-0.053,-0.989,0.052,69.13,-13.94,-69.54,0.6828,-0.7188,0.1106,0.0695,0.002,-0.007,0.005,0,0,0,0,0,0,-0.010930061,-0.000575066,-0.051282883,0.095237732,0.003663063,-0.018315315,0,0,0,0
32:56.5,55.655,0.063,-0.064,0.012,-0.314,-0.963,0.014,11.25,-4.91,-51.47,0.682,-0.6952,-0.0207,-0.2256,0.011,-0.001,-0.018,44.415,-0.029,-0.001,-0.006,-0.137,-0.97,-0.153,28.35,-23.94,-75.79,0.7446,-0.6472,-0.0418,-0.1575,0.002,-0.007,-0.005,45.245,-0.013,0.036,0.007,-0.053,-0.989,0.052,69.13,-13.94,-69.54,0.6828,-0.7188,0.1106,0.0695,0.002,-0.007,0.005,0,0,0,0,0,0,-0.010930061,-0.000575066,-0.051282883,0.095237732,0.003663063,-0.018315315,0,0,0,0
32:56.5,55.66,0.064,-0.063,0.012,-0.313,-0.964,0.013,11.25,-4.91,-51.47,0.6819,-0.6954,-0.0206,-0.2256,0.01,0,-0.017,44.415,-0.029,-0.001,-0.006,-0.137,-0.97,-0.153,28.35,-23.94,-75.79,0.7446,-0.6472,-0.0418,-0.1575,0.002,-0.007,-0.005,45.245,-0.013,0.036,0.007,-0.053,-0.989,0.052,69.13,-13.94,-69.54,0.6828,-0.7188,0.1106,0.0695,0.002,-0.007,0.005,0,0,0,0,0,0,-0.010930061,-0.000575066,-0.051282883,0.095237732,0.003663063,-0.018315315,0,0,0,0
32:56.5,55.665,0.065,-0.072,0.013,-0.314,-0.965,0.011,11.25,-4.91,-51.47,0.6818,-0.6956,-0.0205,-0.2254,0.011,0,-0.015,44.415,-0.029,-0.001,-0.006,-0.137,-0.97,-0.153,28.35,-23.94,-75.79,0.7446,-0.6472,-0.0418,-0.1575,0.002,-0.007,-0.005,45.245,-0.013,0.036,0.007,-0.053,-0.989,0.052,69.13,-13.94,-69.54,0.6828,-0.7188,0.1106,0.0695,0.002,-0.007,0.005,0,0,0,0,0,0,-0.010930061,-0.000575066,-0.051282883,0.095237732,0.003663063,-0.018315315,0,0,0,0
32:56.5,55.67,0.07,-0.076,0.015,-0.309,-0.967,0.013,11.31,-5.05,-51.44,0.6816,-0.6957,-0.0204,-0.2253,0.006,0.002,-0.016,44.415,-0.029,-0.001,-0.006,-0.137,-0.97,-0.153,28.35,-23.94,-75.79,0.7446,-0.6472,-0.0418,-0.1575,0.002,-0.007,-0.005,45.245,-0.013,0.036,0.007,-0.053,-0.989,0.052,69.13,-13.94,-69.54,0.6828,-0.7188,0.1106,0.0695,0.002,-0.007,0.005,0,0,0,0,0,0,-0.010930061,-0.000575066,-0.051282883,0.095237732,0.003663063,-0.018315315,0,0,0,0
32:56.6,55.675,0.075,-0.083,0.016,-0.31,-0.967,0.012,11.31,-5.05,-51.44,0.6815,-0.6959,-0.0202,-0.2252,0.007,0.002,-0.015,44.495,-0.019,-0.012,-0.002,-0.139,-0.971,-0.157,27.71,-22.85,-75.7,0.7439,-0.6481,-0.0398,-0.1577,0.001,-0.006,0,45.25,-0.018,0.031,0.005,-0.055,-0.996,0.054,69.13,-13.94,-69.54,0.6829,-0.7186,0.1106,0.0693,0.004,0,0.003,0,0,0,0,0,0,-0.013230324,-0.000191689,-0.095237732,-0.051282883,-0.010989189,-0.018315315,0,0,0,0
32:56.6,55.68,0.077,-0.082,0.019,-0.311,-0.966,0.012,11.25,-4.58,-51.94,0.6813,-0.6961,-0.0201,-0.2251,0.007,0.002,-0.014,44.495,-0.019,-0.012,-0.002,-0.139,-0.971,-0.157,27.71,-22.85,-75.7,0.7439,-0.6481,-0.0398,-0.1577,0.001,-0.006,0,45.25,-0.018,0.031,0.005,-0.055,-0.996,0.054,69.13,-13.94,-69.54,0.6829,-0.7186,0.1106,0.0693,0.004,0,0.003,0,0,0,0,0,0,-0.013230324,-0.000191689,-0.095237732,-0.051282883,-0.010989189,-0.018315315,0,0,0,0
32:56.6,55.685,0.081,-0.082,0.019,-0.311,-0.967,0.014,11.25,-4.58,-51.94,0.6812,-0.6963,-0.02,-0.225,0.008,0.002,-0.016,44.495,-0.019,-0.012,-0.002,-0.139,-0.971,-0.157,27.71,-22.85,-75.7,0.7439,-0.6481,-0.0398,-0.1577,0.001,-0.006,0,45.25,-0.018,0.031,0.005,-0.055,-0.996,0.054,69.13,-13.94,-69.54,0.6829,-0.7186,0.1106,0.0693,0.004,0,0.003,0,0,0,0,0,0,-0.013230324,-0.000191689,-0.095237732,-0.051282883,-0.010989189,-0.018315315,0,0,0,0
32:56.6,55.69,0.078,-0.088,0.019,-0.312,-0.966,0.014,11.25,-4.58,-51.94,0.681,-0.6965,-0.0198,-0.2249,0.009,0.001,-0.015,44.495,-0.019,-0.012,-0.002,-0.139,-0.971,-0.157,27.71,-22.85,-75.7,0.7439,-0.6481,-0.0398,-0.1577,0.001,-0.006,0,45.25,-0.018,0.031,0.005,-0.055,-0.996,0.054,69.13,-13.94,-69.54,0.6829,-0.7186,0.1106,0.0693,0.004,0,0.003,0,0,0,0,0,0,-0.013230324,-0.000191689,-0.095237732,-0.051282883,-0.010989189,-0.018315315,0,0,0,0
32:56.6,55.695,0.075,-0.085,0.018,-0.314,-0.965,0.013,11.02,-4.64,-51.44,0.6808,-0.6967,-0.0197,-0.2247,0.01,0.001,-0.014,44.495,-0.019,-0.012,-0.002,-0.139,-0.971,-0.157,27.71,-22.85,-75.7,0.7439,-0.6481,-0.0398,-0.1577,0.001,-0.006,0,45.25,-0.018,0.031,0.005,-0.055,-0.996,0.054,69.13,-13.94,-69.54,0.6829,-0.7186,0.1106,0.0693,0.004,0,0.003,0,0,0,0,0,0,-0.013230324,-0.000191689,-0.095237732,-0.051282883,-0.010989189,-0.018315315,0,0,0,0
32:56.6,55.7,0.073,-0.086,0.017,-0.315,-0.965,0.013,11.02,-4.64,-51.44,0.6807,-0.6969,-0.0196,-0.2246,0.012,0,-0.013,44.5,-0.021,-0.01,-0.004,-0.142,-0.968,-0.16,28.38,-23.15,-76.2,0.744,-0.6479,-0.0396,-0.1578,0.003,-0.008,0.002,45.255,-0.014,0.028,0.004,-0.06,-0.994,0.059,69.57,-14,-70.12,0.6829,-0.7186,0.1108,0.0689,0.008,-0.002,-0.002,0,0,0,0,0,0,-0.014764786,-0.000575066,-0.109889984,-0.021978378,-0.003663063,-0.003663063,0,0,0,0
32:56.6,55.705,0.072,-0.088,0.015,-0.317,-0.965,0.014,11.98,-5.43,-51.73,0.6806,-0.6971,-0.0194,-0.2245,0.013,0,-0.014,44.5,-0.021,-0.01,-0.004,-0.142,-0.968,-0.16,28.38,-23.15,-76.2,0.744,-0.6479,-0.0396,-0.1578,0.003,-0.008,0.002,45.255,-0.014,0.028,0.004,-0.06,-0.994,0.059,69.57,-14,-70.12,0.6829,-0.7186,0.1108,0.0689,0.008,-0.002,-0.002,0,0,0,0,0,0,-0.014764786,-0.000575066,-0.109889984,-0.021978378,-0.003663063,-0.003663063,0,0,0,0
32:56.6,55.71,0.068,-0.09,0.013,-0.318,-0.964,0.014,11.98,-5.43,-51.73,0.6804,-0.6973,-0.0193,-0.2243,0.014,0,-0.014,44.5,-0.021,-0.01,-0.004,-0.142,-0.968,-0.16,28.38,-23.15,-76.2,0.744,-0.6479,-0.0396,-0.1578,0.003,-0.008,0.002,45.255,-0.014,0.028,0.004,-0.06,-0.994,0.059,69.57,-14,-70.12,0.6829,-0.7186,0.1108,0.0689,0.008,-0.002,-0.002,0,0,0,0,0,0,-0.014764786,-0.000575066,-0.109889984,-0.021978378,-0.003663063,-0.003663063,0,0,0,0
32:56.6,55.715,0.07,-0.089,0.012,-0.318,-0.965,0.013,11.98,-5.43,-51.73,0.6803,-0.6974,-0.0191,-0.2242,0.014,0,-0.012,44.5,-0.021,-0.01,-0.004,-0.142,-0.968,-0.16,28.38,-23.15,-76.2,0.744,-0.6479,-0.0396,-0.1578,0.003,-0.008,0.002,45.255,-0.014,0.028,0.004,-0.06,-0.994,0.059,69.57,-14,-70.12,0.6829,-0.7186,0.1108,0.0689,0.008,-0.002,-0.002,0,0,0,0,0,0,-0.014764786,-0.000575066,-0.109889984,-0.021978378,-0.003663063,-0.003663063,0,0,0,0
32:56.6,55.72,0.07,-0.088,0.011,-0.318,-0.963,0.013,11.72,-6.46,-51.71,0.6801,-0.6976,-0.019,-0.2241,0.013,-0.001,-0.011,44.5,-0.021,-0.01,-0.004,-0.142,-0.968,-0.16,28.38,-23.15,-76.2,0.744,-0.6479,-0.0396,-0.1578,0.003,-0.008,0.002,45.255,-0.014,0.028,0.004,-0.06,-0.994,0.059,69.57,-14,-70.12,0.6829,-0.7186,0.1108,0.0689,0.008,-0.002,-0.002,0,0,0,0,0,0,-0.014764786,-0.000575066,-0.109889984,-0.021978378,-0.003663063,-0.003663063,0,0,0,0
32:56.6,55.725,0.073,-0.09,0.011,-0.319,-0.964,0.012,11.72,-6.46,-51.71,0.68,-0.6978,-0.0189,-0.2239,0.015,0,-0.01,44.5,-0.021,-0.01,-0.004,-0.142,-0.968,-0.16,28.38,-23.15,-76.2,0.744,-0.6479,-0.0396,-0.1578,0.003,-0.008,0.002,45.255,-0.014,0.028,0.004,-0.06,-0.994,0.059,69.57,-14,-70.12,0.6829,-0.7186,0.1108,0.0689,0.008,-0.002,-0.002,0,0,0,0,0,0,-0.014764786,-0.000575066,-0.109889984,-0.021978378,-0.003663063,-0.003663063,0,0,0,0
32:56.6,55.73,0.078,-0.094,0.012,-0.322,-0.963,0.014,10.99,-5.26,-51.91,0.6799,-0.698,-0.0187,-0.2238,0.018,-0.001,-0.011,44.5,-0.021,-0.01,-0.004,-0.142,-0.968,-0.16,28.38,-23.15,-76.2,0.744,-0.6479,-0.0396,-0.1578,0.003,-0.008,0.002,45.255,-0.014,0.028,0.004,-0.06,-0.994,0.059,69.57,-14,-70.12,0.6829,-0.7186,0.1108,0.0689,0.008,-0.002,-0.002,0,0,0,0,0,0,-0.014764786,-0.000575066,-0.109889984,-0.021978378,-0.003663063,-0.003663063,0,0,0,0
32:56.6,55.735,0.09,-0.085,0.013,-0.32,-0.962,0.017,10.99,-5.26,-51.91,0.6797,-0.6982,-0.0186,-0.2237,0.016,-0.002,-0.014,44.5,-0.021,-0.01,-0.004,-0.142,-0.968,-0.16,28.38,-23.15,-76.2,0.744,-0.6479,-0.0396,-0.1578,0.003,-0.008,0.002,45.275,-0.01,0,0.002,-0.054,-0.999,0.054,69.07,-13.44,-69.97,0.6832,-0.7183,0.111,0.0684,0.001,0.002,0.001,0,0,0,0,0,0,-0.01553154,-0.000575066,-0.021978378,-0.007326126,-0.010989189,0.010989189,0,0,0,0
32:56.6,55.74,0.092,-0.081,0.013,-0.321,-0.961,0.02,10.99,-5.26,-51.91,0.6795,-0.6984,-0.0185,-0.2236,0.017,-0.002,-0.016,44.525,-0.009,0.011,-0.006,-0.139,-0.964,-0.163,28.2,-22.65,-75.62,0.7447,-0.647,-0.0392,-0.1585,0,-0.012,0.003,45.3,-0.021,-0.002,0.006,-0.05,-0.991,0.035,70.68,-13.65,-69.86,0.6851,-0.7167,0.1108,0.0682,-0.003,-0.005,0.016,0,0,0,0,0,0,-0.017066002,-0.000191689,-0.139194489,0.124542236,-0.003663063,0.025641441,0,0,0,0
32:56.6,55.745,0.094,-0.079,0.015,-0.32,-0.96,0.022,11.02,-5.55,-51.56,0.6793,-0.6987,-0.0184,-0.2234,0.015,-0.003,-0.018,44.525,-0.009,0.011,-0.006,-0.139,-0.964,-0.163,28.2,-22.65,-75.62,0.7447,-0.647,-0.0392,-0.1585,0,-0.012,0.003,45.3,-0.021,-0.002,0.006,-0.05,-0.991,0.035,70.68,-13.65,-69.86,0.6851,-0.7167,0.1108,0.0682,-0.003,-0.005,0.016,0,0,0,0,0,0,-0.017066002,-0.000191689,-0.139194489,0.124542236,-0.003663063,0.025641441,0,0,0,0
32:56.6,55.75,0.091,-0.074,0.015,-0.321,-0.958,0.022,11.02,-5.55,-51.56,0.6791,-0.6989,-0.0183,-0.2233,0.016,-0.005,-0.017,44.525,-0.009,0.011,-0.006,-0.139,-0.964,-0.163,28.2,-22.65,-75.62,0.7447,-0.647,-0.0392,-0.1585,0,-0.012,0.003,45.3,-0.021,-0.002,0.006,-0.05,-0.991,0.035,70.68,-13.65,-69.86,0.6851,-0.7167,0.1108,0.0682,-0.003,-0.005,0.016,0,0,0,0,0,0,-0.017066002,-0.000191689,-0.139194489,0.124542236,-0.003663063,0.025641441,0,0,0,0
32:56.6,55.755,0.09,-0.074,0.015,-0.322,-0.96,0.022,11.45,-5.55,-51.85,0.6789,-0.6991,-0.0181,-0.2232,0.017,-0.004,-0.017,44.525,-0.009,0.011,-0.006,-0.139,-0.964,-0.163,28.2,-22.65,-75.62,0.7447,-0.647,-0.0392,-0.1585,0,-0.012,0.003,45.315,-0.008,0.003,0.005,-0.048,-0.988,0.052,69.13,-13.18,-69.57,0.6855,-0.7163,0.1101,0.0687,-0.004,-0.008,-0.002,0,0,0,0,0,0,-0.017066002,-0.000191689,0.03663063,0.03663063,-0.003663063,-0.018315315,0,0,0,0
32:56.6,55.79,0.07,-0.063,0.017,-0.317,-0.957,0.026,11.31,-4.94,-51.91,0.6778,-0.7004,-0.0174,-0.2227,0.011,-0.006,-0.016,44.555,-0.003,0.006,-0.003,-0.133,-0.967,-0.154,27.76,-25.4,-76.67,0.7447,-0.647,-0.0396,-0.1583,-0.005,-0.009,-0.005,45.345,-0.022,0.037,0.001,-0.054,-1,0.045,69.04,-13.41,-70.44,0.6852,-0.7167,0.1095,0.0688,0.003,0.003,0.005,0,0,0,0,0,0,-0.017832756,-0.000575066,-0.051282883,-0.007326126,-0.025641441,0.018315315,0,0,0,0
32:56.6,55.795,0.067,-0.061,0.015,-0.317,-0.957,0.024,10.87,-5.34,-51.76,0.6776,-0.7006,-0.0173,-0.2226,0.011,-0.006,-0.015,44.555,-0.003,0.006,-0.003,-0.133,-0.967,-0.154,27.76,-25.4,-76.67,0.7447,-0.647,-0.0396,-0.1583,-0.005,-0.009,-0.005,45.345,-0.022,0.037,0.001,-0.054,-1,0.045,69.04,-13.41,-70.44,0.6852,-0.7167,0.1095,0.0688,0.003,0.003,0.005,0,0,0,0,0,0,-0.017832756,-0.000575066,-0.051282883,-0.007326126,-0.025641441,0.018315315,0,0,0,0
32:56.6,55.76,0.089,-0.066,0.018,-0.32,-0.959,0.022,11.45,-5.55,-51.85,0.6788,-0.6993,-0.018,-0.2232,0.015,-0.004,-0.016,44.555,-0.003,0.006,-0.003,-0.133,-0.967,-0.154,27.76,-25.4,-76.67,0.7447,-0.647,-0.0396,-0.1583,-0.005,-0.009,-0.005,45.345,-0.022,0.037,0.001,-0.054,-1,0.045,69.04,-13.41,-70.44,0.6852,-0.7167,0.1095,0.0688,0.003,0.003,0.005,0,0,0,0,0,0,-0.017832756,-0.000575066,-0.051282883,-0.007326126,-0.025641441,0.018315315,0,0,0,0
32:56.6,55.765,0.087,-0.062,0.016,-0.319,-0.96,0.023,11.45,-5.55,-51.85,0.6786,-0.6995,-0.0179,-0.2231,0.014,-0.004,-0.016,44.555,-0.003,0.006,-0.003,-0.133,-0.967,-0.154,27.76,-25.4,-76.67,0.7447,-0.647,-0.0396,-0.1583,-0.005,-0.009,-0.005,45.345,-0.022,0.037,0.001,-0.054,-1,0.045,69.04,-13.41,-70.44,0.6852,-0.7167,0.1095,0.0688,0.003,0.003,0.005,0,0,0,0,0,0,-0.017832756,-0.000575066,-0.051282883,-0.007326126,-0.025641441,0.018315315,0,0,0,0
32:56.6,55.77,0.084,-0.061,0.018,-0.32,-0.959,0.025,11.4,-5.55,-51.88,0.6784,-0.6997,-0.0178,-0.223,0.014,-0.005,-0.017,44.555,-0.003,0.006,-0.003,-0.133,-0.967,-0.154,27.76,-25.4,-76.67,0.7447,-0.647,-0.0396,-0.1583,-0.005,-0.009,-0.005,45.345,-0.022,0.037,0.001,-0.054,-1,0.045,69.04,-13.41,-70.44,0.6852,-0.7167,0.1095,0.0688,0.003,0.003,0.005,0,0,0,0,0,0,-0.017832756,-0.000575066,-0.051282883,-0.007326126,-0.025641441,0.018315315,0,0,0,0
32:56.6,55.775,0.083,-0.066,0.019,-0.319,-0.958,0.025,11.4,-5.55,-51.88,0.6782,-0.6999,-0.0177,-0.2229,0.013,-0.005,-0.018,44.555,-0.003,0.006,-0.003,-0.133,-0.967,-0.154,27.76,-25.4,-76.67,0.7447,-0.647,-0.0396,-0.1583,-0.005,-0.009,-0.005,45.345,-0.022,0.037,0.001,-0.054,-1,0.045,69.04,-13.41,-70.44,0.6852,-0.7167,0.1095,0.0688,0.003,0.003,0.005,0,0,0,0,0,0,-0.017832756,-0.000575066,-0.051282883,-0.007326126,-0.025641441,0.018315315,0,0,0,0
32:56.6,55.78,0.079,-0.067,0.021,-0.318,-0.959,0.026,11.31,-4.94,-51.91,0.6781,-0.7001,-0.0176,-0.2228,0.013,-0.004,-0.017,44.555,-0.003,0.006,-0.003,-0.133,-0.967,-0.154,27.76,-25.4,-76.67,0.7447,-0.647,-0.0396,-0.1583,-0.005,-0.009,-0.005,45.345,-0.022,0.037,0.001,-0.054,-1,0.045,69.04,-13.41,-70.44,0.6852,-0.7167,0.1095,0.0688,0.003,0.003,0.005,0,0,0,0,0,0,-0.017832756,-0.000575066,-0.051282883,-0.007326126,-0.025641441,0.018315315,0,0,0,0
32:56.6,55.785,0.076,-0.069,0.016,-0.316,-0.957,0.026,11.31,-4.94,-51.91,0.6779,-0.7003,-0.0175,-0.2228,0.011,-0.006,-0.017,44.555,-0.003,0.006,-0.003,-0.133,-0.967,-0.154,27.76,-25.4,-76.67,0.7447,-0.647,-0.0396,-0.1583,-0.005,-0.009,-0.005,45.345,-0.022,0.037,0.001,-0.054,-1,0.045,69.04,-13.41,-70.44,0.6852,-0.7167,0.1095,0.0688,0.003,0.003,0.005,0,0,0,0,0,0,-0.017832756,-0.000575066,-0.051282883,-0.007326126,-0.025641441,0.018315315,0,0,0,0
32:56.6,55.8,0.064,-0.064,0.015,-0.32,-0.959,0.023,10.87,-5.34,-51.76,0.6775,-0.7008,-0.0172,-0.2225,0.014,-0.004,-0.012,44.555,-0.003,0.006,-0.003,-0.133,-0.967,-0.154,27.76,-25.4,-76.67,0.7447,-0.647,-0.0396,-0.1583,-0.005,-0.009,-0.005,45.38,-0.027,0.035,0.001,-0.06,-0.99,0.03,69.62,-13.79,-69.8,0.6888,-0.7133,0.1097,0.0677,0.006,-0.007,0.011,0,0,0,0,0,0,-0.018216133,-0.000575066,-0.109889984,-0.051282883,-0.032966614,0.003663063,0,0,0,0
32:56.6,55.805,0.056,-0.066,0.015,-0.32,-0.959,0.024,11.25,-5.17,-51.44,0.6774,-0.7009,-0.0171,-0.2224,0.014,-0.004,-0.013,44.555,-0.003,0.006,-0.003,-0.133,-0.967,-0.154,27.76,-25.4,-76.67,0.7447,-0.647,-0.0396,-0.1583,-0.005,-0.009,-0.005,45.38,-0.027,0.035,0.001,-0.06,-0.99,0.03,69.62,-13.79,-69.8,0.6888,-0.7133,0.1097,0.0677,0.006,-0.007,0.011,0,0,0,0,0,0,-0.018216133,-0.000575066,-0.109889984,-0.051282883,-0.032966614,0.003663063,0,0,0,0
32:56.7,55.81,0.051,-0.077,0.012,-0.321,-0.959,0.023,11.25,-5.17,-51.44,0.6772,-0.701,-0.0169,-0.2223,0.014,-0.004,-0.012,44.58,-0.008,-0.002,-0.002,-0.135,-0.967,-0.165,28,-22.97,-75.88,0.745,-0.6467,-0.0401,-0.1579,-0.002,-0.009,0.005,45.4,-0.037,-0.006,-0.001,-0.051,-0.994,0.058,69.21,-13.27,-70.21,0.6881,-0.714,0.1098,0.0677,-0.002,-0.003,-0.014,0,0,0,0,0,0,-0.017832756,-0.000191689,-0.095237732,0.03663063,-0.010989189,-0.010989189,0,0,0,0
32:56.7,55.815,0.047,-0.077,0.01,-0.32,-0.962,0.025,11.25,-5.17,-51.44,0.6771,-0.7012,-0.0168,-0.2222,0.014,-0.001,-0.014,44.58,-0.008,-0.002,-0.002,-0.135,-0.967,-0.165,28,-22.97,-75.88,0.745,-0.6467,-0.0401,-0.1579,-0.002,-0.009,0.005,45.4,-0.037,-0.006,-0.001,-0.051,-0.994,0.058,69.21,-13.27,-70.21,0.6881,-0.714,0.1098,0.0677,-0.002,-0.003,-0.014,0,0,0,0,0,0,-0.017832756,-0.000191689,-0.095237732,0.03663063,-0.010989189,-0.010989189,0,0,0,0
32:56.7,55.82,0.044,-0.074,0.011,-0.322,-0.962,0.024,10.93,-5.23,-51.65,0.677,-0.7013,-0.0167,-0.2221,0.015,-0.001,-0.012,44.58,-0.008,-0.002,-0.002,-0.135,-0.967,-0.165,28,-22.97,-75.88,0.745,-0.6467,-0.0401,-0.1579,-0.002,-0.009,0.005,45.4,-0.037,-0.006,-0.001,-0.051,-0.994,0.058,69.21,-13.27,-70.21,0.6881,-0.714,0.1098,0.0677,-0.002,-0.003,-0.014,0,0,0,0,0,0,-0.017832756,-0.000191689,-0.095237732,0.03663063,-0.010989189,-0.010989189,0,0,0,0
32:56.7,55.825,0.045,-0.072,0.008,-0.322,-0.965,0.023,10.93,-5.23,-51.65,0.6769,-0.7014,-0.0166,-0.222,0.015,0.001,-0.011,44.58,-0.008,-0.002,-0.002,-0.135,-0.967,-0.165,28,-22.97,-75.88,0.745,-0.6467,-0.0401,-0.1579,-0.002,-0.009,0.005,45.4,-0.037,-0.006,-0.001,-0.051,-0.994,0.058,69.21,-13.27,-70.21,0.6881,-0.714,0.1098,0.0677,-0.002,-0.003,-0.014,0,0,0,0,0,0,-0.017832756,-0.000191689,-0.095237732,0.03663063,-0.010989189,-0.010989189,0,0,0,0
32:56.7,55.83,0.045,-0.075,0.01,-0.321,-0.966,0.023,11.48,-4.76,-51.73,0.6769,-0.7016,-0.0164,-0.2219,0.015,0.002,-0.011,44.58,-0.008,-0.002,-0.002,-0.135,-0.967,-0.165,28,-22.97,-75.88,0.745,-0.6467,-0.0401,-0.1579,-0.002,-0.009,0.005,45.4,-0.037,-0.006,-0.001,-0.051,-0.994,0.058,69.21,-13.27,-70.21,0.6881,-0.714,0.1098,0.0677,-0.002,-0.003,-0.014,0,0,0,0,0,0,-0.017832756,-0.000191689,-0.095237732,0.03663063,-0.010989189,-0.010989189,0,0,0,0
32:56.7,55.835,0.047,-0.075,0.01,-0.322,-0.969,0.022,11.48,-4.76,-51.73,0.6768,-0.7017,-0.0163,-0.2218,0.016,0.005,-0.009,44.58,-0.008,-0.002,-0.002,-0.135,-0.967,-0.165,28,-22.97,-75.88,0.745,-0.6467,-0.0401,-0.1579,-0.002,-0.009,0.005,45.4,-0.037,-0.006,-0.001,-0.051,-0.994,0.058,69.21,-13.27,-70.21,0.6881,-0.714,0.1098,0.0677,-0.002,-0.003,-0.014,0,0,0,0,0,0,-0.017832756,-0.000191689,-0.095237732,0.03663063,-0.010989189,-0.010989189,0,0,0,0
32:56.7,55.84,0.05,-0.075,0.008,-0.322,-0.97,0.023,11.48,-4.76,-51.73,0.6767,-0.7018,-0.0162,-0.2217,0.015,0.006,-0.01,44.58,-0.008,-0.002,-0.002,-0.135,-0.967,-0.165,28,-22.97,-75.88,0.745,-0.6467,-0.0401,-0.1579,-0.002,-0.009,0.005,45.4,-0.037,-0.006,-0.001,-0.051,-0.994,0.058,69.21,-13.27,-70.21,0.6881,-0.714,0.1098,0.0677,-0.002,-0.003,-0.014,0,0,0,0,0,0,-0.017832756,-0.000191689,-0.095237732,0.03663063,-0.010989189,-0.010989189,0,0,0,0
32:56.7,55.845,0.053,-0.075,0.008,-0.32,-0.971,0.022,10.99,-5.49,-51.85,0.6766,-0.702,-0.0161,-0.2215,0.013,0.007,-0.008,44.58,-0.008,-0.002,-0.002,-0.135,-0.967,-0.165,28,-22.97,-75.88,0.745,-0.6467,-0.0401,-0.1579,-0.002,-0.009,0.005,45.4,-0.037,-0.006,-0.001,-0.051,-0.994,0.058,69.21,-13.27,-70.21,0.6881,-0.714,0.1098,0.0677,-0.002,-0.003,-0.014,0,0,0,0,0,0,-0.017832756,-0.000191689,-0.095237732,0.03663063,-0.010989189,-0.010989189,0,0,0,0
32:56.7,55.85,0.055,-0.072,0.007,-0.32,-0.97,0.023,10.99,-5.49,-51.85,0.6765,-0.7021,-0.016,-0.2214,0.014,0.006,-0.008,44.615,0.003,0.016,-0.009,-0.131,-0.965,-0.165,27.65,-22.82,-75.53,0.7466,-0.6449,-0.0408,-0.1579,-0.004,-0.01,0,45.445,-0.024,0.009,-0.003,-0.047,-0.987,0.034,69.16,-13.88,-70.09,0.6894,-0.7128,0.1084,0.0691,-0.003,-0.01,0.005,0,0,0,0,0,0,-0.017832756,-0.000575066,0.007326126,0.007326126,0.010989189,-0.003663063,0,0,0,0
32:56.7,55.855,0.06,-0.075,0.006,-0.321,-0.97,0.024,11.07,-4.5,-51.88,0.6763,-0.7023,-0.0159,-0.2213,0.014,0.006,-0.009,44.615,0.003,0.016,-0.009,-0.131,-0.965,-0.165,27.65,-22.82,-75.53,0.7466,-0.6449,-0.0408,-0.1579,-0.004,-0.01,0,45.445,-0.024,0.009,-0.003,-0.047,-0.987,0.034,69.16,-13.88,-70.09,0.6894,-0.7128,0.1084,0.0691,-0.003,-0.01,0.005,0,0,0,0,0,0,-0.017832756,-0.000575066,0.007326126,0.007326126,0.010989189,-0.003663063,0,0,0,0
32:56.7,55.86,0.065,-0.066,0.006,-0.319,-0.97,0.022,11.07,-4.5,-51.88,0.6762,-0.7024,-0.0158,-0.2212,0.012,0.007,-0.007,44.615,0.003,0.016,-0.009,-0.131,-0.965,-0.165,27.65,-22.82,-75.53,0.7466,-0.6449,-0.0408,-0.1579,-0.004,-0.01,0,45.445,-0.024,0.009,-0.003,-0.047,-0.987,0.034,69.16,-13.88,-70.09,0.6894,-0.7128,0.1084,0.0691,-0.003,-0.01,0.005,0,0,0,0,0,0,-0.017832756,-0.000575066,0.007326126,0.007326126,0.010989189,-0.003663063,0,0,0,0
32:56.7,55.87,0.068,-0.067,0.005,-0.322,-0.967,0.026,10.75,-5.26,-51.88,0.676,-0.7027,-0.0156,-0.221,0.015,0.004,-0.01,44.68,0.002,0.029,-0.003,-0.127,-0.968,-0.171,27.88,-22.42,-75.91,0.7468,-0.6446,-0.0427,-0.1573,-0.004,-0.009,0.006,45.485,-0.006,-0.014,-0.007,-0.046,-0.997,0.049,69.54,-14.17,-70.44,0.6875,-0.7146,0.1079,0.0694,-0.003,0,-0.004,0,0,0,0,0,0,-0.017832756,-0.000191689,0.08058548,0.124542236,-0.003663063,-0.018315315,0,0,0,0
32:56.7,55.865,0.064,-0.064,0.005,-0.322,-0.969,0.024,11.07,-4.5,-51.88,0.6761,-0.7026,-0.0157,-0.2211,0.015,0.005,-0.009,44.68,0.002,0.029,-0.003,-0.127,-0.968,-0.171,27.88,-22.42,-75.91,0.7468,-0.6446,-0.0427,-0.1573,-0.004,-0.009,0.006,45.485,-0.006,-0.014,-0.007,-0.046,-0.997,0.049,69.54,-14.17,-70.44,0.6875,-0.7146,0.1079,0.0694,-0.003,0,-0.004,0,0,0,0,0,0,-0.017832756,-0.000191689,0.08058548,0.124542236,-0.003663063,-0.018315315,0,0,0,0
32:56.7,55.88,0.076,-0.066,0.003,-0.321,-0.965,0.028,10.75,-5.26,-51.88,0.6757,-0.7031,-0.0155,-0.2208,0.014,0.002,-0.012,44.68,0.002,0.029,-0.003,-0.127,-0.968,-0.171,27.88,-22.42,-75.91,0.7468,-0.6446,-0.0427,-0.1573,-0.004,-0.009,0.006,45.485,-0.006,-0.014,-0.007,-0.046,-0.997,0.049,69.54,-14.17,-70.44,0.6875,-0.7146,0.1079,0.0694,-0.003,0,-0.004,0,0,0,0,0,0,-0.017832756,-0.000191689,0.08058548,0.124542236,-0.003663063,-0.018315315,0,0,0,0
32:56.7,55.875,0.073,-0.066,0.003,-0.322,-0.967,0.026,10.75,-5.26,-51.88,0.6758,-0.7029,-0.0155,-0.2209,0.015,0.003,-0.01,44.68,0.002,0.029,-0.003,-0.127,-0.968,-0.171,27.88,-22.42,-75.91,0.7468,-0.6446,-0.0427,-0.1573,-0.004,-0.009,0.006,45.485,-0.006,-0.014,-0.007,-0.046,-0.997,0.049,69.54,-14.17,-70.44,0.6875,-0.7146,0.1079,0.0694,-0.003,0,-0.004,0,0,0,0,0,0,-0.017832756,-0.000191689,0.08058548,0.124542236,-0.003663063,-0.018315315,0,0,0,0
32:56.8,55.885,0.084,-0.064,0.004,-0.32,-0.962,0.03,11.42,-5.29,-51.33,0.6755,-0.7033,-0.0154,-0.2207,0.013,0,-0.012,44.69,0.001,0.023,-0.002,-0.126,-0.967,-0.17,28.14,-22.42,-76.2,0.7472,-0.6442,-0.0431,-0.1572,-0.004,-0.009,0.004,45.505,0.002,0.007,-0.003,-0.035,-0.992,0.047,70.5,-13.68,-70,0.6872,-0.715,0.1068,0.0706,-0.01,-0.005,-0.002,0,0,0,0,0,0,-0.017832756,-0.000575066,0.007326126,0.051282883,-0.010989189,-0.025641441,0,0,0,0
32:56.8,55.89,0.084,-0.064,0.007,-0.317,-0.96,0.033,11.42,-5.29,-51.33,0.6754,-0.7035,-0.0153,-0.2206,0.01,-0.002,-0.015,44.75,-0.007,0.007,-0.004,-0.122,-0.968,-0.165,28.61,-22.88,-75.62,0.747,-0.6446,-0.0455,-0.1558,-0.004,-0.009,0,45.535,0.007,-0.006,-0.004,-0.044,-0.995,0.042,69.04,-13.47,-69.57,0.6872,-0.715,0.1063,0.0714,0,-0.002,0.002,0,0,0,0,0,0,-0.017449379,-0.000575066,-0.021978378,-0.007326126,-0.010989189,-0.032966614,0,0,0,0
32:56.8,55.895,0.083,-0.064,0.005,-0.315,-0.96,0.031,10.64,-4.99,-51.59,0.6752,-0.7037,-0.0152,-0.2204,0.008,-0.002,-0.013,44.75,-0.007,0.007,-0.004,-0.122,-0.968,-0.165,28.61,-22.88,-75.62,0.747,-0.6446,-0.0455,-0.1558,-0.004,-0.009,0,45.535,0.007,-0.006,-0.004,-0.044,-0.995,0.042,69.04,-13.47,-69.57,0.6872,-0.715,0.1063,0.0714,0,-0.002,0.002,0,0,0,0,0,0,-0.017449379,-0.000575066,-0.021978378,-0.007326126,-0.010989189,-0.032966614,0,0,0,0
32:56.8,55.9,0.08,-0.061,0.007,-0.313,-0.959,0.033,10.64,-4.99,-51.59,0.675,-0.7038,-0.0151,-0.2203,0.005,-0.003,-0.014,44.75,-0.007,0.007,-0.004,-0.122,-0.968,-0.165,28.61,-22.88,-75.62,0.747,-0.6446,-0.0455,-0.1558,-0.004,-0.009,0,45.535,0.007,-0.006,-0.004,-0.044,-0.995,0.042,69.04,-13.47,-69.57,0.6872,-0.715,0.1063,0.0714,0,-0.002,0.002,0,0,0,0,0,0,-0.017449379,-0.000575066,-0.021978378,-0.007326126,-0.010989189,-0.032966614,0,0,0,0
32:56.8,55.905,0.075,-0.057,0.009,-0.312,-0.959,0.033,10.64,-4.99,-51.59,0.6749,-0.704,-0.0151,-0.2203,0.005,-0.004,-0.014,44.75,-0.007,0.007,-0.004,-0.122,-0.968,-0.165,28.61,-22.88,-75.62,0.747,-0.6446,-0.0455,-0.1558,-0.004,-0.009,0,45.535,0.007,-0.006,-0.004,-0.044,-0.995,0.042,69.04,-13.47,-69.57,0.6872,-0.715,0.1063,0.0714,0,-0.002,0.002,0,0,0,0,0,0,-0.017449379,-0.000575066,-0.021978378,-0.007326126,-0.010989189,-0.032966614,0,0,0,0
32:56.8,55.91,0.065,-0.054,0.009,-0.309,-0.956,0.032,10.66,-4.99,-51.62,0.6747,-0.7042,-0.015,-0.2202,0.001,-0.006,-0.012,44.755,-0.004,0.005,-0.003,-0.123,-0.966,-0.168,27.65,-22.36,-75.85,0.7472,-0.6444,-0.0455,-0.1558,-0.002,-0.011,0.003,45.555,0.007,-0.014,-0.007,-0.046,-0.994,0.037,69.16,-13.47,-69.92,0.688,-0.7142,0.1065,0.0715,0.002,-0.004,0.005,0,0,0,0,0,0,-0.017449379,-0.000191689,0,0.109889984,-0.010989189,0.018314838,0,0,0,0
32:56.8,55.915,0.06,-0.055,0.012,-0.309,-0.955,0.033,10.66,-4.99,-51.62,0.6746,-0.7043,-0.0149,-0.2201,0.001,-0.007,-0.013,44.785,0.006,-0.013,-0.006,-0.115,-0.966,-0.16,27.62,-22.71,-75.21,0.7477,-0.6439,-0.0464,-0.1549,-0.008,-0.012,-0.006,45.56,0.005,-0.02,-0.006,-0.044,-0.993,0.038,69.16,-13.47,-69.92,0.6881,-0.7141,0.1065,0.0716,0,-0.004,0.004,0,0,0,0,0,0,-0.017449379,-0.000191689,-0.051282883,0.139194489,0.003663063,0.018315315,0,0,0,0
32:56.8,55.92,0.056,-0.049,0.013,-0.309,-0.956,0.032,10.78,-5.05,-52.35,0.6745,-0.7044,-0.0148,-0.22,0.001,-0.007,-0.012,44.785,0.006,-0.013,-0.006,-0.115,-0.966,-0.16,27.62,-22.71,-75.21,0.7477,-0.6439,-0.0464,-0.1549,-0.008,-0.012,-0.006,45.56,0.005,-0.02,-0.006,-0.044,-0.993,0.038,69.16,-13.47,-69.92,0.6881,-0.7141,0.1065,0.0716,0,-0.004,0.004,0,0,0,0,0,0,-0.017449379,-0.000191689,-0.051282883,0.139194489,0.003663063,0.018315315,0,0,0,0
32:56.8,55.925,0.048,-0.042,0.011,-0.309,-0.956,0.032,10.78,-5.05,-52.35,0.6744,-0.7046,-0.0148,-0.22,0.001,-0.007,-0.011,44.785,0.006,-0.013,-0.006,-0.115,-0.966,-0.16,27.62,-22.71,-75.21,0.7477,-0.6439,-0.0464,-0.1549,-0.008,-0.012,-0.006,45.56,0.005,-0.02,-0.006,-0.044,-0.993,0.038,69.16,-13.47,-69.92,0.6881,-0.7141,0.1065,0.0716,0,-0.004,0.004,0,0,0,0,0,0,-0.017449379,-0.000191689,-0.051282883,0.139194489,0.003663063,0.018315315,0,0,0,0
32:56.8,55.93,0.045,-0.033,0.01,-0.31,-0.955,0.033,10.78,-5.05,-52.35,0.6743,-0.7047,-0.0147,-0.2199,0.002,-0.007,-0.012,44.785,0.006,-0.013,-0.006,-0.115,-0.966,-0.16,27.62,-22.71,-75.21,0.7477,-0.6439,-0.0464,-0.1549,-0.008,-0.012,-0.006,45.56,0.005,-0.02,-0.006,-0.044,-0.993,0.038,69.16,-13.47,-69.92,0.6881,-0.7141,0.1065,0.0716,0,-0.004,0.004,0,0,0,0,0,0,-0.017449379,-0.000191689,-0.051282883,0.139194489,0.003663063,0.018315315,0,0,0,0
32:56.8,55.935,0.041,-0.03,0.006,-0.312,-0.958,0.033,10.99,-5.08,-51.3,0.6742,-0.7048,-0.0147,-0.2199,0.005,-0.005,-0.011,44.79,0.007,-0.017,-0.006,-0.115,-0.967,-0.158,27.62,-22.71,-75.21,0.7475,-0.6441,-0.0467,-0.1547,-0.007,-0.011,-0.007,45.575,-0.005,-0.043,-0.007,-0.038,-0.999,0.045,69.33,-13.24,-69.77,0.688,-0.7141,0.1064,0.0721,-0.004,0.001,-0.002,0,0,0,0,0,0,-0.017449379,-0.000191689,0.124542236,0.03663063,-0.010989189,-0.003663063,0,0,0,0
32:56.8,55.94,0.029,-0.029,0.002,-0.311,-0.959,0.033,10.99,-5.08,-51.3,0.6741,-0.7049,-0.0146,-0.2198,0.003,-0.004,-0.011,44.82,0.004,-0.021,-0.007,-0.125,-0.969,-0.157,27.97,-23.15,-75.88,0.7463,-0.6456,-0.0468,-0.1545,0.003,-0.009,-0.004,45.585,-0.005,-0.039,-0.004,-0.039,-0.997,0.052,69.33,-13.91,-70,0.6875,-0.7146,0.1063,0.0724,-0.003,0,-0.008,0,0,0,0,0,0,-0.017449379,-0.000575066,0.051282883,-0.095237732,-0.003663063,-0.025641441,0,0,0,0
32:56.8,55.945,0.023,-0.025,0.001,-0.314,-0.96,0.031,11.45,-4.88,-51.73,0.6741,-0.7049,-0.0146,-0.2198,0.006,-0.003,-0.009,44.82,0.004,-0.021,-0.007,-0.125,-0.969,-0.157,27.97,-23.15,-75.88,0.7463,-0.6456,-0.0468,-0.1545,0.003,-0.009,-0.004,45.585,-0.005,-0.039,-0.004,-0.039,-0.997,0.052,69.33,-13.91,-70,0.6875,-0.7146,0.1063,0.0724,-0.003,0,-0.008,0,0,0,0,0,0,-0.017449379,-0.000575066,0.051282883,-0.095237732,-0.003663063,-0.025641441,0,0,0,0
32:56.8,55.95,0.019,-0.027,0,-0.313,-0.961,0.03,11.45,-4.88,-51.73,0.674,-0.705,-0.0145,-0.2197,0.006,-0.002,-0.008,44.82,0.004,-0.021,-0.007,-0.125,-0.969,-0.157,27.97,-23.15,-75.88,0.7463,-0.6456,-0.0468,-0.1545,0.003,-0.009,-0.004,45.585,-0.005,-0.039,-0.004,-0.039,-0.997,0.052,69.33,-13.91,-70,0.6875,-0.7146,0.1063,0.0724,-0.003,0,-0.008,0,0,0,0,0,0,-0.017449379,-0.000575066,0.051282883,-0.095237732,-0.003663063,-0.025641441,0,0,0,0
32:56.8,55.955,0.012,-0.029,-0.002,-0.314,-0.962,0.031,11.45,-4.88,-51.73,0.674,-0.7051,-0.0145,-0.2197,0.006,-0.001,-0.009,44.82,0.004,-0.021,-0.007,-0.125,-0.969,-0.157,27.97,-23.15,-75.88,0.7463,-0.6456,-0.0468,-0.1545,0.003,-0.009,-0.004,45.585,-0.005,-0.039,-0.004,-0.039,-0.997,0.052,69.33,-13.91,-70,0.6875,-0.7146,0.1063,0.0724,-0.003,0,-0.008,0,0,0,0,0,0,-0.017449379,-0.000575066,0.051282883,-0.095237732,-0.003663063,-0.025641441,0,0,0,0
32:56.8,55.96,0.005,-0.026,-0.003,-0.313,-0.963,0.034,10.81,-5.14,-52.32,0.6739,-0.7051,-0.0144,-0.2196,0.006,0,-0.012,44.82,0.004,-0.021,-0.007,-0.125,-0.969,-0.157,27.97,-23.15,-75.88,0.7463,-0.6456,-0.0468,-0.1545,0.003,-0.009,-0.004,45.585,-0.005,-0.039,-0.004,-0.039,-0.997,0.052,69.33,-13.91,-70,0.6875,-0.7146,0.1063,0.0724,-0.003,0,-0.008,0,0,0,0,0,0,-0.017449379,-0.000575066,0.051282883,-0.095237732,-0.003663063,-0.025641441,0,0,0,0
32:56.8,55.965,0,-0.022,-0.003,-0.312,-0.965,0.04,10.81,-5.14,-52.32,0.6739,-0.7052,-0.0144,-0.2196,0.005,0.002,-0.018,44.82,0.004,-0.021,-0.007,-0.125,-0.969,-0.157,27.97,-23.15,-75.88,0.7463,-0.6456,-0.0468,-0.1545,0.003,-0.009,-0.004,45.585,-0.005,-0.039,-0.004,-0.039,-0.997,0.052,69.33,-13.91,-70,0.6875,-0.7146,0.1063,0.0724,-0.003,0,-0.008,0,0,0,0,0,0,-0.017449379,-0.000575066,0.051282883,-0.095237732,-0.003663063,-0.025641441,0,0,0,0
32:56.8,55.97,-0.004,-0.024,-0.003,-0.31,-0.967,0.044,11.37,-5.4,-51.71,0.6739,-0.7052,-0.0143,-0.2195,0.002,0.004,-0.021,44.82,0.004,-0.021,-0.007,-0.125,-0.969,-0.157,27.97,-23.15,-75.88,0.7463,-0.6456,-0.0468,-0.1545,0.003,-0.009,-0.004,45.585,-0.005,-0.039,-0.004,-0.039,-0.997,0.052,69.33,-13.91,-70,0.6875,-0.7146,0.1063,0.0724,-0.003,0,-0.008,0,0,0,0,0,0,-0.017449379,-0.000575066,0.051282883,-0.095237732,-0.003663063,-0.025641441,0,0,0,0
32:56.8,55.975,-0.004,-0.016,-0.004,-0.31,-0.97,0.043,11.37,-5.4,-51.71,0.6739,-0.7053,-0.0143,-0.2195,0.003,0.007,-0.02,44.82,0.004,-0.021,-0.007,-0.125,-0.969,-0.157,27.97,-23.15,-75.88,0.7463,-0.6456,-0.0468,-0.1545,0.003,-0.009,-0.004,45.585,-0.005,-0.039,-0.004,-0.039,-0.997,0.052,69.33,-13.91,-70,0.6875,-0.7146,0.1063,0.0724,-0.003,0,-0.008,0,0,0,0,0,0,-0.017449379,-0.000575066,0.051282883,-0.095237732,-0.003663063,-0.025641441,0,0,0,0
32:56.9,55.995,0.006,-0.001,-0.002,-0.313,-0.973,0.028,10.66,-4.94,-51.35,0.6738,-0.7053,-0.0143,-0.2194,0.005,0.009,-0.005,44.845,0.007,-0.016,-0.006,-0.124,-0.963,-0.161,27.62,-23.26,-76.11,0.7464,-0.6455,-0.046,-0.1549,0,-0.014,-0.001,45.6,-0.003,-0.034,0,-0.042,-0.993,0.055,70.12,-13.76,-70.03,0.6866,-0.7154,0.1065,0.0724,0,-0.004,-0.008,0,0,0,0,0,0,-0.017641068,-0.000383377,-0.058608055,0.014652252,-0.010989189,-0.010989189,0,0,0,0
32:56.9,55.985,0,-0.005,-0.002,-0.311,-0.971,0.038,11.04,-5.43,-51.79,0.6738,-0.7053,-0.0143,-0.2194,0.004,0.008,-0.015,44.845,0.007,-0.016,-0.006,-0.124,-0.963,-0.161,27.62,-23.26,-76.11,0.7464,-0.6455,-0.046,-0.1549,0,-0.014,-0.001,45.6,-0.003,-0.034,0,-0.042,-0.993,0.055,70.12,-13.76,-70.03,0.6866,-0.7154,0.1065,0.0724,0,-0.004,-0.008,0,0,0,0,0,0,-0.017641068,-0.000383377,-0.058608055,0.014652252,-0.010989189,-0.010989189,0,0,0,0
32:56.9,55.99,0.002,-0.003,0,-0.312,-0.972,0.033,11.04,-5.43,-51.79,0.6738,-0.7053,-0.0143,-0.2194,0.005,0.008,-0.01,44.845,0.007,-0.016,-0.006,-0.124,-0.963,-0.161,27.62,-23.26,-76.11,0.7464,-0.6455,-0.046,-0.1549,0,-0.014,-0.001,45.6,-0.003,-0.034,0,-0.042,-0.993,0.055,70.12,-13.76,-70.03,0.6866,-0.7154,0.1065,0.0724,0,-0.004,-0.008,0,0,0,0,0,0,-0.017641068,-0.000383377,-0.058608055,0.014652252,-0.010989189,-0.010989189,0,0,0,0
32:56.9,55.98,-0.003,-0.007,-0.002,-0.311,-0.97,0.041,11.37,-5.4,-51.71,0.6738,-0.7053,-0.0143,-0.2195,0.003,0.007,-0.018,44.845,0.007,-0.016,-0.006,-0.124,-0.963,-0.161,27.62,-23.26,-76.11,0.7464,-0.6455,-0.046,-0.1549,0,-0.014,-0.001,45.6,-0.003,-0.034,0,-0.042,-0.993,0.055,70.12,-13.76,-70.03,0.6866,-0.7154,0.1065,0.0724,0,-0.004,-0.008,0,0,0,0,0,0,-0.017641068,-0.000383377,-0.058608055,0.014652252,-0.010989189,-0.010989189,0,0,0,0
32:56.9,56.015,0.026,-0.034,0.008,-0.306,-0.972,0.029,11.1,-5.2,-51.41,0.6737,-0.7055,-0.0141,-0.2193,-0.001,0.008,-0.005,44.845,0.007,-0.016,-0.006,-0.124,-0.963,-0.161,27.62,-23.26,-76.11,0.7464,-0.6455,-0.046,-0.1549,0,-0.014,-0.001,45.6,-0.003,-0.034,0,-0.042,-0.993,0.055,70.12,-13.76,-70.03,0.6866,-0.7154,0.1065,0.0724,0,-0.004,-0.008,0,0,0,0,0,0,-0.017641068,-0.000383377,-0.058608055,0.014652252,-0.010989189,-0.010989189,0,0,0,0
32:56.9,56.005,0.016,-0.022,0.004,-0.309,-0.974,0.028,10.66,-4.94,-51.35,0.6738,-0.7054,-0.0142,-0.2194,0.001,0.01,-0.005,44.845,0.007,-0.016,-0.006,-0.124,-0.963,-0.161,27.62,-23.26,-76.11,0.7464,-0.6455,-0.046,-0.1549,0,-0.014,-0.001,45.6,-0.003,-0.034,0,-0.042,-0.993,0.055,70.12,-13.76,-70.03,0.6866,-0.7154,0.1065,0.0724,0,-0.004,-0.008,0,0,0,0,0,0,-0.017641068,-0.000383377,-0.058608055,0.014652252,-0.010989189,-0.010989189,0,0,0,0
32:56.9,56.01,0.019,-0.028,0.005,-0.308,-0.973,0.027,11.1,-5.2,-51.41,0.6737,-0.7054,-0.0142,-0.2193,0.001,0.009,-0.004,44.845,0.007,-0.016,-0.006,-0.124,-0.963,-0.161,27.62,-23.26,-76.11,0.7464,-0.6455,-0.046,-0.1549,0,-0.014,-0.001,45.6,-0.003,-0.034,0,-0.042,-0.993,0.055,70.12,-13.76,-70.03,0.6866,-0.7154,0.1065,0.0724,0,-0.004,-0.008,0,0,0,0,0,0,-0.017641068,-0.000383377,-0.058608055,0.014652252,-0.010989189,-0.010989189,0,0,0,0
32:56.9,56,0.012,-0.016,0.003,-0.311,-0.974,0.026,10.66,-4.94,-51.35,0.6738,-0.7053,-0.0142,-0.2194,0.003,0.011,-0.003,44.845,0.007,-0.016,-0.006,-0.124,-0.963,-0.161,27.62,-23.26,-76.11,0.7464,-0.6455,-0.046,-0.1549,0,-0.014,-0.001,45.6,-0.003,-0.034,0,-0.042,-0.993,0.055,70.12,-13.76,-70.03,0.6866,-0.7154,0.1065,0.0724,0,-0.004,-0.008,0,0,0,0,0,0,-0.017641068,-0.000383377,-0.058608055,0.014652252,-0.010989189,-0.010989189,0,0,0,0
32:56.9,56.025,0.032,-0.028,0.009,-0.307,-0.966,0.033,10.55,-5.2,-51.88,0.6735,-0.7057,-0.014,-0.2192,0,0.003,-0.009,44.845,0.007,-0.016,-0.006,-0.124,-0.963,-0.161,27.62,-23.26,-76.11,0.7464,-0.6455,-0.046,-0.1549,0,-0.014,-0.001,45.6,-0.003,-0.034,0,-0.042,-0.993,0.055,70.12,-13.76,-70.03,0.6866,-0.7154,0.1065,0.0724,0,-0.004,-0.008,0,0,0,0,0,0,-0.017449379,-0.000191689,-0.007326126,0.08058548,0.010989189,-0.010989189,0,0,0,0
32:56.9,56.02,0.026,-0.032,0.008,-0.306,-0.969,0.032,10.55,-5.2,-51.88,0.6736,-0.7056,-0.014,-0.2192,0,0.005,-0.008,44.845,0.007,-0.016,-0.006,-0.124,-0.963,-0.161,27.62,-23.26,-76.11,0.7464,-0.6455,-0.046,-0.1549,0,-0.014,-0.001,45.6,-0.003,-0.034,0,-0.042,-0.993,0.055,70.12,-13.76,-70.03,0.6866,-0.7154,0.1065,0.0724,0,-0.004,-0.008,0,0,0,0,0,0,-0.017449379,-0.000191689,-0.007326126,0.08058548,0.010989189,-0.010989189,0,0,0,0
32:56.9,56.03,0.037,-0.031,0.009,-0.306,-0.962,0.034,10.55,-5.2,-51.88,0.6734,-0.7058,-0.0139,-0.2191,-0.001,0,-0.01,44.845,0.007,-0.016,-0.006,-0.124,-0.963,-0.161,27.62,-23.26,-76.11,0.7464,-0.6455,-0.046,-0.1549,0,-0.014,-0.001,45.6,-0.003,-0.034,0,-0.042,-0.993,0.055,70.12,-13.76,-70.03,0.6866,-0.7154,0.1065,0.0724,0,-0.004,-0.008,0,0,0,0,0,0,-0.017449379,-0.000191689,-0.007326126,0.08058548,0.010989189,-0.010989189,0,0,0,0
32:56.9,56.035,0.039,-0.036,0.008,-0.306,-0.962,0.034,10.61,-5.43,-52.44,0.6734,-0.7059,-0.0139,-0.219,0,0,-0.01,44.845,0.007,-0.016,-0.006,-0.124,-0.963,-0.161,27.62,-23.26,-76.11,0.7464,-0.6455,-0.046,-0.1549,0,-0.014,-0.001,45.6,-0.003,-0.034,0,-0.042,-0.993,0.055,70.12,-13.76,-70.03,0.6866,-0.7154,0.1065,0.0724,0,-0.004,-0.008,0,0,0,0,0,0,-0.017449379,-0.000191689,-0.007326126,0.08058548,0.010989189,-0.010989189,0,0,0,0
32:56.9,56.04,0.038,-0.038,0.007,-0.306,-0.959,0.036,10.61,-5.43,-52.44,0.6733,-0.706,-0.0138,-0.219,-0.001,-0.003,-0.011,44.845,0.007,-0.016,-0.006,-0.124,-0.963,-0.161,27.62,-23.26,-76.11,0.7464,-0.6455,-0.046,-0.1549,0,-0.014,-0.001,45.6,-0.003,-0.034,0,-0.042,-0.993,0.055,70.12,-13.76,-70.03,0.6866,-0.7154,0.1065,0.0724,0,-0.004,-0.008,0,0,0,0,0,0,-0.017449379,-0.000191689,-0.007326126,0.08058548,0.010989189,-0.010989189,0,0,0,0
32:56.9,56.055,0.037,-0.041,0.004,-0.308,-0.957,0.037,11.04,-4.88,-51.56,0.673,-0.7063,-0.0136,-0.2187,0,-0.005,-0.011,44.845,0.007,-0.016,-0.006,-0.124,-0.963,-0.161,27.62,-23.26,-76.11,0.7464,-0.6455,-0.046,-0.1549,0,-0.014,-0.001,45.6,-0.003,-0.034,0,-0.042,-0.993,0.055,70.12,-13.76,-70.03,0.6866,-0.7154,0.1065,0.0724,0,-0.004,-0.008,0,0,0,0,0,0,-0.017449379,-0.000191689,-0.007326126,0.08058548,0.010989189,-0.010989189,0,0,0,0
32:56.9,56.05,0.038,-0.042,0.005,-0.308,-0.957,0.037,11.04,-4.88,-51.56,0.6731,-0.7062,-0.0137,-0.2188,0,-0.005,-0.012,44.845,0.007,-0.016,-0.006,-0.124,-0.963,-0.161,27.62,-23.26,-76.11,0.7464,-0.6455,-0.046,-0.1549,0,-0.014,-0.001,45.6,-0.003,-0.034,0,-0.042,-0.993,0.055,70.12,-13.76,-70.03,0.6866,-0.7154,0.1065,0.0724,0,-0.004,-0.008,0,0,0,0,0,0,-0.017449379,-0.000191689,-0.007326126,0.08058548,0.010989189,-0.010989189,0,0,0,0
32:56.9,56.045,0.037,-0.042,0.007,-0.307,-0.959,0.036,11.04,-4.88,-51.56,0.6732,-0.7061,-0.0138,-0.2189,0,-0.003,-0.011,44.845,0.007,-0.016,-0.006,-0.124,-0.963,-0.161,27.62,-23.26,-76.11,0.7464,-0.6455,-0.046,-0.1549,0,-0.014,-0.001,45.6,-0.003,-0.034,0,-0.042,-0.993,0.055,70.12,-13.76,-70.03,0.6866,-0.7154,0.1065,0.0724,0,-0.004,-0.008,0,0,0,0,0,0,-0.017449379,-0.000191689,-0.007326126,0.08058548,0.010989189,-0.010989189,0,0,0,0
32:57.0,56.06,0.034,-0.038,0.002,-0.307,-0.958,0.038,11.25,-5.26,-51.71,0.673,-0.7064,-0.0136,-0.2187,0,-0.004,-0.012,44.855,0.012,-0.007,-0.007,-0.125,-0.966,-0.16,27.97,-22.39,-75.62,0.7463,-0.6455,-0.0459,-0.155,0,-0.012,-0.002,45.615,0.001,-0.006,0.001,-0.042,-0.991,0.047,69.07,-13.38,-70.73,0.6862,-0.7158,0.1065,0.0725,0,-0.006,0,0,0,0,0,0,0,-0.017449379,-0.000575066,0.03663063,-0.109889984,-0.010989189,-0.018315315,0,0,0,0
32:57.0,56.065,0.034,-0.044,0.001,-0.305,-0.959,0.036,11.25,-5.26,-51.71,0.6729,-0.7065,-0.0135,-0.2186,-0.002,-0.004,-0.01,44.855,0.012,-0.007,-0.007,-0.125,-0.966,-0.16,27.97,-22.39,-75.62,0.7463,-0.6455,-0.0459,-0.155,0,-0.012,-0.002,45.615,0.001,-0.006,0.001,-0.042,-0.991,0.047,69.07,-13.38,-70.73,0.6862,-0.7158,0.1065,0.0725,0,-0.006,0,0,0,0,0,0,0,-0.017449379,-0.000575066,0.03663063,-0.109889984,-0.010989189,-0.018315315,0,0,0,0
32:57.0,56.07,0.03,-0.046,0.001,-0.304,-0.959,0.036,10.87,-5.4,-51.94,0.6728,-0.7066,-0.0135,-0.2185,-0.003,-0.003,-0.01,44.855,0.012,-0.007,-0.007,-0.125,-0.966,-0.16,27.97,-22.39,-75.62,0.7463,-0.6455,-0.0459,-0.155,0,-0.012,-0.002,45.615,0.001,-0.006,0.001,-0.042,-0.991,0.047,69.07,-13.38,-70.73,0.6862,-0.7158,0.1065,0.0725,0,-0.006,0,0,0,0,0,0,0,-0.017449379,-0.000575066,0.03663063,-0.109889984,-0.010989189,-0.018315315,0,0,0,0
32:57.0,56.075,0.029,-0.046,0,-0.304,-0.959,0.037,10.87,-5.4,-51.94,0.6728,-0.7066,-0.0134,-0.2184,-0.003,-0.003,-0.011,44.87,0.007,-0.009,-0.002,-0.126,-0.97,-0.156,27.68,-24.64,-75.7,0.7459,-0.646,-0.0456,-0.1551,0.001,-0.008,-0.004,45.615,0.001,-0.006,0.001,-0.042,-0.991,0.047,69.07,-13.38,-70.73,0.6862,-0.7158,0.1065,0.0725,0,-0.006,0,0,0,0,0,0,0,-0.017449379,-0.000575066,0.051282883,-0.065933228,-0.018315315,-0.025641441,0,0,0,0
32:57.0,56.08,0.028,-0.047,0,-0.307,-0.959,0.038,10.87,-5.4,-51.94,0.6727,-0.7067,-0.0133,-0.2183,0,-0.003,-0.011,44.87,0.007,-0.009,-0.002,-0.126,-0.97,-0.156,27.68,-24.64,-75.7,0.7459,-0.646,-0.0456,-0.1551,0.001,-0.008,-0.004,45.615,0.001,-0.006,0.001,-0.042,-0.991,0.047,69.07,-13.38,-70.73,0.6862,-0.7158,0.1065,0.0725,0,-0.006,0,0,0,0,0,0,0,-0.017449379,-0.000575066,0.051282883,-0.065933228,-0.018315315,-0.025641441,0,0,0,0
32:57.0,56.085,0.03,-0.051,0.001,-0.309,-0.959,0.041,10.81,-6.66,-51.85,0.6726,-0.7068,-0.0133,-0.2182,0,-0.003,-0.013,44.87,0.007,-0.009,-0.002,-0.126,-0.97,-0.156,27.68,-24.64,-75.7,0.7459,-0.646,-0.0456,-0.1551,0.001,-0.008,-0.004,45.615,0.001,-0.006,0.001,-0.042,-0.991,0.047,69.07,-13.38,-70.73,0.6862,-0.7158,0.1065,0.0725,0,-0.006,0,0,0,0,0,0,0,-0.017449379,-0.000575066,0.051282883,-0.065933228,-0.018315315,-0.025641441,0,0,0,0
32:57.0,56.09,0.033,-0.053,-0.001,-0.308,-0.959,0.041,10.81,-6.66,-51.85,0.6726,-0.7069,-0.0132,-0.2181,0,-0.003,-0.013,44.87,0.007,-0.009,-0.002,-0.126,-0.97,-0.156,27.68,-24.64,-75.7,0.7459,-0.646,-0.0456,-0.1551,0.001,-0.008,-0.004,45.635,-0.003,-0.006,0,-0.048,-0.995,0.034,69.33,-13.3,-70.44,0.6872,-0.7148,0.1068,0.0724,0.005,-0.002,0.01,0,0,0,0,0,0,-0.017641068,-0.000575066,-0.043955803,-0.007326126,-0.007326126,-0.003663063,0,0,0,0
32:57.0,56.095,0.035,-0.056,-0.001,-0.311,-0.96,0.042,10.9,-5.64,-51.71,0.6725,-0.7071,-0.0131,-0.218,0.003,-0.002,-0.014,44.89,-0.001,-0.027,0,-0.13,-0.972,-0.153,27.76,-22.85,-75.82,0.7452,-0.6468,-0.0451,-0.1553,0.004,-0.006,-0.006,45.64,-0.006,-0.014,0,-0.049,-0.997,0.035,69.27,-13.97,-70.56,0.6876,-0.7144,0.107,0.0722,0.005,0,0.009,0,0,0,0,0,0,-0.017832756,-0.000383377,-0.043955803,0.065934181,-0.014652252,-0.010988712,0,0,0,0
32:57.0,56.1,0.038,-0.057,-0.002,-0.312,-0.961,0.044,10.9,-5.64,-51.71,0.6724,-0.7072,-0.013,-0.2179,0.003,-0.001,-0.016,44.89,-0.001,-0.027,0,-0.13,-0.972,-0.153,27.76,-22.85,-75.82,0.7452,-0.6468,-0.0451,-0.1553,0.004,-0.006,-0.006,45.64,-0.006,-0.014,0,-0.049,-0.997,0.035,69.27,-13.97,-70.56,0.6876,-0.7144,0.107,0.0722,0.005,0,0.009,0,0,0,0,0,0,-0.017832756,-0.000383377,-0.043955803,0.065934181,-0.014652252,-0.010988712,0,0,0,0
32:57.0,56.105,0.036,-0.061,-0.003,-0.312,-0.962,0.045,10.9,-5.64,-51.71,0.6723,-0.7073,-0.013,-0.2178,0.004,0,-0.016,44.89,-0.001,-0.027,0,-0.13,-0.972,-0.153,27.76,-22.85,-75.82,0.7452,-0.6468,-0.0451,-0.1553,0.004,-0.006,-0.006,45.64,-0.006,-0.014,0,-0.049,-0.997,0.035,69.27,-13.97,-70.56,0.6876,-0.7144,0.107,0.0722,0.005,0,0.009,0,0,0,0,0,0,-0.017832756,-0.000383377,-0.043955803,0.065934181,-0.014652252,-0.010988712,0,0,0,0
32:57.0,56.11,0.037,-0.063,-0.004,-0.315,-0.962,0.046,11.13,-5.37,-51.97,0.6722,-0.7074,-0.0129,-0.2176,0.007,0,-0.017,44.89,-0.001,-0.027,0,-0.13,-0.972,-0.153,27.76,-22.85,-75.82,0.7452,-0.6468,-0.0451,-0.1553,0.004,-0.006,-0.006,45.64,-0.006,-0.014,0,-0.049,-0.997,0.035,69.27,-13.97,-70.56,0.6876,-0.7144,0.107,0.0722,0.005,0,0.009,0,0,0,0,0,0,-0.017832756,-0.000383377,-0.043955803,0.065934181,-0.014652252,-0.010988712,0,0,0,0
32:57.0,56.115,0.035,-0.062,-0.003,-0.317,-0.962,0.046,11.13,-5.37,-51.97,0.6721,-0.7075,-0.0128,-0.2175,0.009,0,-0.017,44.89,-0.001,-0.027,0,-0.13,-0.972,-0.153,27.76,-22.85,-75.82,0.7452,-0.6468,-0.0451,-0.1553,0.004,-0.006,-0.006,45.64,-0.006,-0.014,0,-0.049,-0.997,0.035,69.27,-13.97,-70.56,0.6876,-0.7144,0.107,0.0722,0.005,0,0.009,0,0,0,0,0,0,-0.017832756,-0.000383377,-0.043955803,0.065934181,-0.014652252,-0.010988712,0,0,0,0
32:57.0,56.12,0.034,-0.061,-0.003,-0.319,-0.963,0.045,11.13,-5.37,-51.97,0.6721,-0.7076,-0.0127,-0.2174,0.011,0,-0.016,44.89,-0.001,-0.027,0,-0.13,-0.972,-0.153,27.76,-22.85,-75.82,0.7452,-0.6468,-0.0451,-0.1553,0.004,-0.006,-0.006,45.64,-0.006,-0.014,0,-0.049,-0.997,0.035,69.27,-13.97,-70.56,0.6876,-0.7144,0.107,0.0722,0.005,0,0.009,0,0,0,0,0,0,-0.017832756,-0.000383377,-0.043955803,0.065934181,-0.014652252,-0.010988712,0,0,0,0
32:57.0,56.125,0.03,-0.06,-0.003,-0.32,-0.964,0.043,10.78,-4.99,-51.82,0.672,-0.7077,-0.0126,-0.2173,0.012,0.001,-0.014,44.89,-0.001,-0.027,0,-0.13,-0.972,-0.153,27.76,-22.85,-75.82,0.7452,-0.6468,-0.0451,-0.1553,0.004,-0.006,-0.006,45.64,-0.006,-0.014,0,-0.049,-0.997,0.035,69.27,-13.97,-70.56,0.6876,-0.7144,0.107,0.0722,0.005,0,0.009,0,0,0,0,0,0,-0.017449379,-0.000191689,-0.065933228,0.051282883,-0.003663063,-0.010989189,0,0,0,0
32:57.0,56.13,0.032,-0.059,-0.003,-0.32,-0.964,0.043,10.78,-4.99,-51.82,0.6719,-0.7078,-0.0125,-0.2172,0.012,0,-0.013,44.92,-0.01,-0.016,-0.002,-0.13,-0.968,-0.159,28.12,-24.58,-75.59,0.7451,-0.6469,-0.044,-0.1559,0,-0.01,0,45.675,-0.01,-0.024,-0.002,-0.048,-1.001,0.042,68.92,-13.59,-70.47,0.6884,-0.7136,0.108,0.0718,0.002,0.003,-0.001,0,0,0,0,0,0,-0.017449379,-0.000575066,0.109890938,0.014652252,-0.007326126,-0.014652252,0,0,0,0
32:57.0,56.135,0.032,-0.058,-0.002,-0.319,-0.964,0.042,10.46,-4.79,-51.56,0.6719,-0.7079,-0.0125,-0.2171,0.011,0.001,-0.011,44.92,-0.01,-0.016,-0.002,-0.13,-0.968,-0.159,28.12,-24.58,-75.59,0.7451,-0.6469,-0.044,-0.1559,0,-0.01,0,45.675,-0.01,-0.024,-0.002,-0.048,-1.001,0.042,68.92,-13.59,-70.47,0.6884,-0.7136,0.108,0.0718,0.002,0.003,-0.001,0,0,0,0,0,0,-0.017449379,-0.000575066,0.109890938,0.014652252,-0.007326126,-0.014652252,0,0,0,0
32:57.0,56.14,0.035,-0.058,0,-0.322,-0.964,0.039,10.46,-4.79,-51.56,0.6718,-0.708,-0.0124,-0.217,0.014,0.001,-0.008,44.92,-0.01,-0.016,-0.002,-0.13,-0.968,-0.159,28.12,-24.58,-75.59,0.7451,-0.6469,-0.044,-0.1559,0,-0.01,0,45.675,-0.01,-0.024,-0.002,-0.048,-1.001,0.042,68.92,-13.59,-70.47,0.6884,-0.7136,0.108,0.0718,0.002,0.003,-0.001,0,0,0,0,0,0,-0.017449379,-0.000575066,0.109890938,0.014652252,-0.007326126,-0.014652252,0,0,0,0
32:57.0,56.145,0.037,-0.053,0.003,-0.321,-0.965,0.037,10.46,-4.79,-51.56,0.6717,-0.7081,-0.0123,-0.2169,0.013,0.002,-0.007,44.92,-0.01,-0.016,-0.002,-0.13,-0.968,-0.159,28.12,-24.58,-75.59,0.7451,-0.6469,-0.044,-0.1559,0,-0.01,0,45.675,-0.01,-0.024,-0.002,-0.048,-1.001,0.042,68.92,-13.59,-70.47,0.6884,-0.7136,0.108,0.0718,0.002,0.003,-0.001,0,0,0,0,0,0,-0.017449379,-0.000575066,0.109890938,0.014652252,-0.007326126,-0.014652252,0,0,0,0
32:57.0,56.15,0.042,-0.041,0.006,-0.323,-0.967,0.035,10.61,-4.96,-51.94,0.6716,-0.7082,-0.0122,-0.2168,0.015,0.004,-0.004,44.92,-0.01,-0.016,-0.002,-0.13,-0.968,-0.159,28.12,-24.58,-75.59,0.7451,-0.6469,-0.044,-0.1559,0,-0.01,0,45.675,-0.01,-0.024,-0.002,-0.048,-1.001,0.042,68.92,-13.59,-70.47,0.6884,-0.7136,0.108,0.0718,0.002,0.003,-0.001,0,0,0,0,0,0,-0.017449379,-0.000575066,0.109890938,0.014652252,-0.007326126,-0.014652252,0,0,0,0
32:57.0,56.155,0.045,-0.039,0.005,-0.324,-0.967,0.037,10.61,-4.96,-51.94,0.6715,-0.7083,-0.0122,-0.2168,0.016,0.003,-0.006,44.92,-0.01,-0.016,-0.002,-0.13,-0.968,-0.159,28.12,-24.58,-75.59,0.7451,-0.6469,-0.044,-0.1559,0,-0.01,0,45.675,-0.01,-0.024,-0.002,-0.048,-1.001,0.042,68.92,-13.59,-70.47,0.6884,-0.7136,0.108,0.0718,0.002,0.003,-0.001,0,0,0,0,0,0,-0.017449379,-0.000575066,0.109890938,0.014652252,-0.007326126,-0.014652252,0,0,0,0
32:57.0,56.16,0.046,-0.035,0.007,-0.324,-0.967,0.038,10.58,-4.94,-51.44,0.6714,-0.7084,-0.0121,-0.2168,0.016,0.003,-0.006,44.92,-0.01,-0.016,-0.002,-0.13,-0.968,-0.159,28.12,-24.58,-75.59,0.7451,-0.6469,-0.044,-0.1559,0,-0.01,0,45.675,-0.01,-0.024,-0.002,-0.048,-1.001,0.042,68.92,-13.59,-70.47,0.6884,-0.7136,0.108,0.0718,0.002,0.003,-0.001,0,0,0,0,0,0,-0.017449379,-0.000575066,0.109890938,0.014652252,-0.007326126,-0.014652252,0,0,0,0
32:57.0,56.165,0.045,-0.035,0.008,-0.324,-0.965,0.038,10.58,-4.94,-51.44,0.6714,-0.7085,-0.0121,-0.2167,0.016,0.002,-0.006,44.92,-0.01,-0.016,-0.002,-0.13,-0.968,-0.159,28.12,-24.58,-75.59,0.7451,-0.6469,-0.044,-0.1559,0,-0.01,0,45.675,-0.01,-0.024,-0.002,-0.048,-1.001,0.042,68.92,-13.59,-70.47,0.6884,-0.7136,0.108,0.0718,0.002,0.003,-0.001,0,0,0,0,0,0,-0.017449379,-0.000575066,0.109890938,0.014652252,-0.007326126,-0.014652252,0,0,0,0
32:57.1,56.17,0.045,-0.036,0.007,-0.324,-0.961,0.04,10.58,-4.94,-51.44,0.6713,-0.7086,-0.012,-0.2167,0.016,-0.001,-0.008,44.945,0.002,-0.003,-0.003,-0.125,-0.969,-0.151,27.88,-22.42,-75.76,0.7449,-0.6472,-0.0441,-0.1556,-0.003,-0.008,-0.007,45.675,-0.01,-0.024,-0.002,-0.048,-1.001,0.042,68.92,-13.59,-70.47,0.6884,-0.7136,0.108,0.0718,0.002,0.003,-0.001,0,0,0,0,0,0,-0.017449379,-0.000191689,-0.007326126,-0.021978378,-0.003663063,0.003663063,0,0,0,0
32:57.1,56.175,0.046,-0.03,0.004,-0.323,-0.96,0.042,10.99,-4.91,-51.18,0.6711,-0.7087,-0.012,-0.2166,0.014,-0.002,-0.01,44.945,0.002,-0.003,-0.003,-0.125,-0.969,-0.151,27.88,-22.42,-75.76,0.7449,-0.6472,-0.0441,-0.1556,-0.003,-0.008,-0.007,45.675,-0.01,-0.024,-0.002,-0.048,-1.001,0.042,68.92,-13.59,-70.47,0.6884,-0.7136,0.108,0.0718,0.002,0.003,-0.001,0,0,0,0,0,0,-0.017449379,-0.000191689,-0.007326126,-0.021978378,-0.003663063,0.003663063,0,0,0,0
32:57.1,56.18,0.05,-0.024,0.004,-0.323,-0.958,0.045,10.99,-4.91,-51.18,0.671,-0.7089,-0.0119,-0.2166,0.014,-0.004,-0.013,44.945,0.002,-0.003,-0.003,-0.125,-0.969,-0.151,27.88,-22.42,-75.76,0.7449,-0.6472,-0.0441,-0.1556,-0.003,-0.008,-0.007,45.675,-0.01,-0.024,-0.002,-0.048,-1.001,0.042,68.92,-13.59,-70.47,0.6884,-0.7136,0.108,0.0718,0.002,0.003,-0.001,0,0,0,0,0,0,-0.017449379,-0.000191689,-0.007326126,-0.021978378,-0.003663063,0.003663063,0,0,0,0
32:57.1,56.185,0.047,-0.025,0.003,-0.32,-0.958,0.046,10.96,-5.37,-51.21,0.6709,-0.709,-0.0119,-0.2166,0.011,-0.004,-0.013,44.945,0.002,-0.003,-0.003,-0.125,-0.969,-0.151,27.88,-22.42,-75.76,0.7449,-0.6472,-0.0441,-0.1556,-0.003,-0.008,-0.007,45.675,-0.01,-0.024,-0.002,-0.048,-1.001,0.042,68.92,-13.59,-70.47,0.6884,-0.7136,0.108,0.0718,0.002,0.003,-0.001,0,0,0,0,0,0,-0.017449379,-0.000191689,-0.007326126,-0.021978378,-0.003663063,0.003663063,0,0,0,0
32:57.1,56.19,0.045,-0.025,0.002,-0.318,-0.958,0.05,10.96,-5.37,-51.21,0.6708,-0.7091,-0.0118,-0.2166,0.009,-0.004,-0.017,44.945,0.002,-0.003,-0.003,-0.125,-0.969,-0.151,27.88,-22.42,-75.76,0.7449,-0.6472,-0.0441,-0.1556,-0.003,-0.008,-0.007,45.675,-0.01,-0.024,-0.002,-0.048,-1.001,0.042,68.92,-13.59,-70.47,0.6884,-0.7136,0.108,0.0718,0.002,0.003,-0.001,0,0,0,0,0,0,-0.017449379,-0.000191689,-0.007326126,-0.021978378,-0.003663063,0.003663063,0,0,0,0
32:57.1,56.195,0.043,-0.028,0.001,-0.317,-0.957,0.05,10.96,-5.37,-51.21,0.6707,-0.7092,-0.0118,-0.2165,0.008,-0.005,-0.016,44.945,0.002,-0.003,-0.003,-0.125,-0.969,-0.151,27.88,-22.42,-75.76,0.7449,-0.6472,-0.0441,-0.1556,-0.003,-0.008,-0.007,45.675,-0.01,-0.024,-0.002,-0.048,-1.001,0.042,68.92,-13.59,-70.47,0.6884,-0.7136,0.108,0.0718,0.002,0.003,-0.001,0,0,0,0,0,0,-0.017449379,-0.000191689,-0.007326126,-0.021978378,-0.003663063,0.003663063,0,0,0,0
32:57.1,56.2,0.04,-0.023,0,-0.315,-0.957,0.05,10.78,-5.4,-50.97,0.6706,-0.7093,-0.0118,-0.2165,0.006,-0.005,-0.016,44.945,0.002,-0.003,-0.003,-0.125,-0.969,-0.151,27.88,-22.42,-75.76,0.7449,-0.6472,-0.0441,-0.1556,-0.003,-0.008,-0.007,45.675,-0.01,-0.024,-0.002,-0.048,-1.001,0.042,68.92,-13.59,-70.47,0.6884,-0.7136,0.108,0.0718,0.002,0.003,-0.001,0,0,0,0,0,0,-0.017449379,-0.000191689,-0.007326126,-0.021978378,-0.003663063,0.003663063,0,0,0,0
32:57.1,56.205,0.042,-0.018,-0.001,-0.314,-0.958,0.049,10.78,-5.4,-50.97,0.6705,-0.7094,-0.0117,-0.2164,0.005,-0.003,-0.014,44.945,0.002,-0.003,-0.003,-0.125,-0.969,-0.151,27.88,-22.42,-75.76,0.7449,-0.6472,-0.0441,-0.1556,-0.003,-0.008,-0.007,45.675,-0.01,-0.024,-0.002,-0.048,-1.001,0.042,68.92,-13.59,-70.47,0.6884,-0.7136,0.108,0.0718,0.002,0.003,-0.001,0,0,0,0,0,0,-0.017449379,-0.000191689,-0.007326126,-0.021978378,-0.003663063,0.003663063,0,0,0,0
32:57.1,56.225,0.043,-0.024,0,-0.309,-0.959,0.046,11.02,-5.52,-50.92,0.6701,-0.7099,-0.0117,-0.2163,0,-0.003,-0.01,44.935,-0.002,-0.009,-0.004,-0.126,-0.967,-0.156,27.56,-22.44,-75.53,0.7451,-0.6468,-0.044,-0.1558,-0.002,-0.011,-0.003,45.66,-0.005,-0.017,0,-0.048,-0.997,0.038,69.36,-13.73,-69.77,0.6882,-0.7137,0.1076,0.0719,0.003,0,0.003,0,0,0,0,0,0,-0.017449379,-0.000575066,-0.021978378,-0.021978378,-0.018315315,-0.010989189,0,0,0,0
32:57.1,56.21,0.041,-0.017,-0.003,-0.312,-0.958,0.048,10.69,-5.05,-50.95,0.6704,-0.7096,-0.0117,-0.2164,0.003,-0.003,-0.013,44.935,-0.002,-0.009,-0.004,-0.126,-0.967,-0.156,27.56,-22.44,-75.53,0.7451,-0.6468,-0.044,-0.1558,-0.002,-0.011,-0.003,45.66,-0.005,-0.017,0,-0.048,-0.997,0.038,69.36,-13.73,-69.77,0.6882,-0.7137,0.1076,0.0719,0.003,0,0.003,0,0,0,0,0,0,-0.017449379,-0.000575066,-0.021978378,-0.021978378,-0.018315315,-0.010989189,0,0,0,0
32:57.1,56.215,0.043,-0.019,0,-0.312,-0.959,0.048,10.69,-5.05,-50.95,0.6703,-0.7097,-0.0117,-0.2164,0.003,-0.003,-0.013,44.935,-0.002,-0.009,-0.004,-0.126,-0.967,-0.156,27.56,-22.44,-75.53,0.7451,-0.6468,-0.044,-0.1558,-0.002,-0.011,-0.003,45.66,-0.005,-0.017,0,-0.048,-0.997,0.038,69.36,-13.73,-69.77,0.6882,-0.7137,0.1076,0.0719,0.003,0,0.003,0,0,0,0,0,0,-0.017449379,-0.000575066,-0.021978378,-0.021978378,-0.018315315,-0.010989189,0,0,0,0
32:57.1,56.22,0.042,-0.019,-0.002,-0.312,-0.959,0.046,10.69,-5.05,-50.95,0.6702,-0.7098,-0.0117,-0.2163,0.003,-0.002,-0.011,44.935,-0.002,-0.009,-0.004,-0.126,-0.967,-0.156,27.56,-22.44,-75.53,0.7451,-0.6468,-0.044,-0.1558,-0.002,-0.011,-0.003,45.66,-0.005,-0.017,0,-0.048,-0.997,0.038,69.36,-13.73,-69.77,0.6882,-0.7137,0.1076,0.0719,0.003,0,0.003,0,0,0,0,0,0,-0.017449379,-0.000575066,-0.021978378,-0.021978378,-0.018315315,-0.010989189,0,0,0,0
32:57.1,56.235,0.041,-0.025,0.002,-0.308,-0.959,0.045,10.46,-5.2,-51.18,0.6699,-0.7101,-0.0116,-0.2162,0,-0.003,-0.008,44.935,-0.002,-0.009,-0.004,-0.126,-0.967,-0.156,27.56,-22.44,-75.53,0.7451,-0.6468,-0.044,-0.1558,-0.002,-0.011,-0.003,45.66,-0.005,-0.017,0,-0.048,-0.997,0.038,69.36,-13.73,-69.77,0.6882,-0.7137,0.1076,0.0719,0.003,0,0.003,0,0,0,0,0,0,-0.017449379,-0.000575066,-0.021978378,-0.021978378,-0.018315315,-0.010989189,0,0,0,0
32:57.1,56.24,0.04,-0.02,0.007,-0.31,-0.958,0.043,10.46,-5.2,-51.18,0.6698,-0.7102,-0.0116,-0.2161,0.002,-0.004,-0.007,44.935,-0.002,-0.009,-0.004,-0.126,-0.967,-0.156,27.56,-22.44,-75.53,0.7451,-0.6468,-0.044,-0.1558,-0.002,-0.011,-0.003,45.66,-0.005,-0.017,0,-0.048,-0.997,0.038,69.36,-13.73,-69.77,0.6882,-0.7137,0.1076,0.0719,0.003,0,0.003,0,0,0,0,0,0,-0.017449379,-0.000575066,-0.021978378,-0.021978378,-0.018315315,-0.010989189,0,0,0,0
32:57.1,56.245,0.039,-0.019,0.008,-0.312,-0.958,0.042,10.46,-5.2,-51.18,0.6697,-0.7103,-0.0116,-0.2161,0.003,-0.004,-0.006,44.935,-0.002,-0.009,-0.004,-0.126,-0.967,-0.156,27.56,-22.44,-75.53,0.7451,-0.6468,-0.044,-0.1558,-0.002,-0.011,-0.003,45.66,-0.005,-0.017,0,-0.048,-0.997,0.038,69.36,-13.73,-69.77,0.6882,-0.7137,0.1076,0.0719,0.003,0,0.003,0,0,0,0,0,0,-0.017449379,-0.000575066,-0.021978378,-0.021978378,-0.018315315,-0.010989189,0,0,0,0
32:57.1,56.23,0.043,-0.022,0.001,-0.308,-0.959,0.045,11.02,-5.52,-50.92,0.67,-0.71,-0.0117,-0.2162,0,-0.002,-0.009,44.935,-0.002,-0.009,-0.004,-0.126,-0.967,-0.156,27.56,-22.44,-75.53,0.7451,-0.6468,-0.044,-0.1558,-0.002,-0.011,-0.003,45.66,-0.005,-0.017,0,-0.048,-0.997,0.038,69.36,-13.73,-69.77,0.6882,-0.7137,0.1076,0.0719,0.003,0,0.003,0,0,0,0,0,0,-0.017449379,-0.000575066,-0.021978378,-0.021978378,-0.018315315,-0.010989189,0,0,0,0
32:57.1,56.25,0.039,-0.02,0.011,-0.314,-0.958,0.042,11.13,-5.32,-50.51,0.6696,-0.7103,-0.0115,-0.2161,0.005,-0.004,-0.005,44.95,0.003,0,-0.004,-0.127,-0.971,-0.149,27.91,-22.77,-75.12,0.7446,-0.6475,-0.0442,-0.1555,-0.001,-0.007,-0.008,45.685,-0.01,-0.033,-0.003,-0.046,-0.992,0.047,68.83,-13.21,-69.83,0.6881,-0.7138,0.1082,0.0718,0,-0.005,-0.005,0,0,0,0,0,0,-0.017066002,-0.000575066,0.058608055,-0.080586433,-0.010989189,0.003663063,0,0,0,0
32:57.1,56.255,0.035,-0.017,0.015,-0.318,-0.958,0.043,11.13,-5.32,-50.51,0.6696,-0.7104,-0.0115,-0.2161,0.009,-0.004,-0.006,45.025,0.003,0.007,0,-0.128,-0.971,-0.15,28.5,-23.15,-75.76,0.7438,-0.6484,-0.0439,-0.1559,-0.001,-0.007,-0.005,45.75,0.004,-0.005,-0.001,-0.049,-0.995,0.043,68.37,-13.79,-69.97,0.6873,-0.7145,0.1087,0.0717,0.002,-0.001,0,0,0,0,0,0,0,-0.016681671,-0.000191689,0.095237732,0.095237732,-0.010989189,0.003663063,0,0,0,0
32:57.1,56.26,0.033,-0.018,0.015,-0.323,-0.959,0.047,10.52,-5.52,-50.59,0.6695,-0.7105,-0.0114,-0.2161,0.014,-0.003,-0.01,45.025,0.003,0.007,0,-0.128,-0.971,-0.15,28.5,-23.15,-75.76,0.7438,-0.6484,-0.0439,-0.1559,-0.001,-0.007,-0.005,45.75,0.004,-0.005,-0.001,-0.049,-0.995,0.043,68.37,-13.79,-69.97,0.6873,-0.7145,0.1087,0.0717,0.002,-0.001,0,0,0,0,0,0,0,-0.016681671,-0.000191689,0.095237732,0.095237732,-0.010989189,0.003663063,0,0,0,0
32:57.1,56.265,0.032,-0.019,0.015,-0.327,-0.96,0.049,10.52,-5.52,-50.59,0.6694,-0.7106,-0.0114,-0.2161,0.018,-0.001,-0.012,45.025,0.003,0.007,0,-0.128,-0.971,-0.15,28.5,-23.15,-75.76,0.7438,-0.6484,-0.0439,-0.1559,-0.001,-0.007,-0.005,45.75,0.004,-0.005,-0.001,-0.049,-0.995,0.043,68.37,-13.79,-69.97,0.6873,-0.7145,0.1087,0.0717,0.002,-0.001,0,0,0,0,0,0,0,-0.016681671,-0.000191689,0.095237732,0.095237732,-0.010989189,0.003663063,0,0,0,0
32:57.1,56.27,0.032,-0.018,0.011,-0.331,-0.962,0.052,10.52,-5.52,-50.59,0.6693,-0.7107,-0.0113,-0.2161,0.021,0,-0.014,45.09,0,0.033,0.003,-0.136,-0.969,-0.143,28.44,-24.11,-76.35,0.7428,-0.6493,-0.0427,-0.1573,0.003,-0.008,-0.009,45.775,0.002,0.002,-0.005,-0.049,-0.994,0.047,68.54,-13.18,-70.15,0.6873,-0.7145,0.1091,0.0712,0,-0.003,-0.003,0,0,0,0,0,0,-0.016298294,-0.000191689,-0.021978378,0.007326126,-0.018315315,-0.003663063,0,0,0,0
32:57.1,56.285,0.034,-0.014,0.002,-0.333,-0.965,0.057,10.9,-4.7,-51.18,0.669,-0.7109,-0.0112,-0.2161,0.023,0.003,-0.018,45.07,-0.002,0.011,-0.002,-0.133,-0.964,-0.15,27.71,-22.27,-76.29,0.7437,-0.6483,-0.043,-0.1569,0.001,-0.014,-0.005,45.775,0.002,0.002,-0.005,-0.049,-0.994,0.047,68.54,-13.18,-70.15,0.6873,-0.7145,0.1091,0.0712,0,-0.003,-0.003,0,0,0,0,0,0,-0.014764786,-0.000575066,0.212453842,-0.058608055,-0.014651775,-0.021978378,0,0,0,0
32:57.1,56.28,0.032,-0.016,0.006,-0.334,-0.964,0.056,11.1,-5.11,-50.13,0.6691,-0.7108,-0.0112,-0.2161,0.025,0.001,-0.017,45.07,-0.002,0.011,-0.002,-0.133,-0.964,-0.15,27.71,-22.27,-76.29,0.7437,-0.6483,-0.043,-0.1569,0.001,-0.014,-0.005,45.775,0.002,0.002,-0.005,-0.049,-0.994,0.047,68.54,-13.18,-70.15,0.6873,-0.7145,0.1091,0.0712,0,-0.003,-0.003,0,0,0,0,0,0,-0.014764786,-0.000575066,0.212453842,-0.058608055,-0.014651775,-0.021978378,0,0,0,0
32:57.1,56.29,0.034,-0.014,-0.002,-0.332,-0.963,0.057,10.9,-4.7,-51.18,0.669,-0.711,-0.0112,-0.2161,0.022,0.001,-0.018,45.07,-0.002,0.011,-0.002,-0.133,-0.964,-0.15,27.71,-22.27,-76.29,0.7437,-0.6483,-0.043,-0.1569,0.001,-0.014,-0.005,45.775,0.002,0.002,-0.005,-0.049,-0.994,0.047,68.54,-13.18,-70.15,0.6873,-0.7145,0.1091,0.0712,0,-0.003,-0.003,0,0,0,0,0,0,-0.014764786,-0.000575066,0.212453842,-0.058608055,-0.014651775,-0.021978378,0,0,0,0
32:57.1,56.275,0.034,-0.012,0.008,-0.333,-0.963,0.055,11.1,-5.11,-50.13,0.6692,-0.7107,-0.0113,-0.2162,0.023,0,-0.016,45.07,-0.002,0.011,-0.002,-0.133,-0.964,-0.15,27.71,-22.27,-76.29,0.7437,-0.6483,-0.043,-0.1569,0.001,-0.014,-0.005,45.775,0.002,0.002,-0.005,-0.049,-0.994,0.047,68.54,-13.18,-70.15,0.6873,-0.7145,0.1091,0.0712,0,-0.003,-0.003,0,0,0,0,0,0,-0.014764786,-0.000575066,0.212453842,-0.058608055,-0.014651775,-0.021978378,0,0,0,0
32:57.1,56.3,0.024,-0.007,-0.009,-0.328,-0.96,0.054,10.96,-5.37,-50.57,0.6688,-0.7111,-0.0112,-0.2161,0.019,-0.001,-0.015,45.07,-0.002,0.011,-0.002,-0.133,-0.964,-0.15,27.71,-22.27,-76.29,0.7437,-0.6483,-0.043,-0.1569,0.001,-0.014,-0.005,45.775,0.002,0.002,-0.005,-0.049,-0.994,0.047,68.54,-13.18,-70.15,0.6873,-0.7145,0.1091,0.0712,0,-0.003,-0.003,0,0,0,0,0,0,-0.014764786,-0.000575066,0.212453842,-0.058608055,-0.014651775,-0.021978378,0,0,0,0
32:57.1,56.305,0.02,0,-0.009,-0.33,-0.956,0.05,10.96,-5.37,-50.57,0.6687,-0.7112,-0.0112,-0.2162,0.02,-0.005,-0.011,45.07,-0.002,0.011,-0.002,-0.133,-0.964,-0.15,27.71,-22.27,-76.29,0.7437,-0.6483,-0.043,-0.1569,0.001,-0.014,-0.005,45.775,0.002,0.002,-0.005,-0.049,-0.994,0.047,68.54,-13.18,-70.15,0.6873,-0.7145,0.1091,0.0712,0,-0.003,-0.003,0,0,0,0,0,0,-0.014764786,-0.000575066,0.212453842,-0.058608055,-0.014651775,-0.021978378,0,0,0,0
32:57.1,56.295,0.028,-0.014,-0.006,-0.33,-0.961,0.055,10.9,-4.7,-51.18,0.6689,-0.7111,-0.0112,-0.2161,0.021,-0.001,-0.016,45.07,-0.002,0.011,-0.002,-0.133,-0.964,-0.15,27.71,-22.27,-76.29,0.7437,-0.6483,-0.043,-0.1569,0.001,-0.014,-0.005,45.775,0.002,0.002,-0.005,-0.049,-0.994,0.047,68.54,-13.18,-70.15,0.6873,-0.7145,0.1091,0.0712,0,-0.003,-0.003,0,0,0,0,0,0,-0.014764786,-0.000575066,0.212453842,-0.058608055,-0.014651775,-0.021978378,0,0,0,0
