Youthstudy/imurecv/data/merged/merged_20251106_183706.csv
System_Time,Timestamp_1,Gyro_X_1,Gyro_Y_1,Gyro_Z_1,Acc_X_1,Acc_Y_1,Acc_Z_1,Mag_X_1,Mag_Y_1,Mag_Z_1,Quat_W_1,Quat_X_1,Quat_Y_1,Quat_Z_1,Linear_Acc_X_1,Linear_Acc_Y_1,Linear_Acc_Z_1,Timestamp_2,Gyro_X_2,Gyro_Y_2,Gyro_Z_2,Acc_X_2,Acc_Y_2,Acc_Z_2,Mag_X_2,Mag_Y_2,Mag_Z_2,Quat_W_2,Quat_X_2,Quat_Y_2,Quat_Z_2,Linear_Acc_X_2,Linear_Acc_Y_2,Linear_Acc_Z_2,Timestamp_3,Gyro_X_3,Gyro_Y_3,Gyro_Z_3,Acc_X_3,Acc_Y_3,Acc_Z_3,Mag_X_3,Mag_Y_3,Mag_Z_3,Quat_W_3,Quat_X_3,Quat_Y_3,Quat_Z_3,Linear_Acc_X_3,Linear_Acc_Y_3,Linear_Acc_Z_3,kd_joint1,kd_joint2,kp_joint1,kp_joint2,p_des_joint1,p_des_joint2,ret0_joint1,ret0_joint2,ret1_joint1,ret1_joint2,ret2_joint1,ret2_joint2,t_ff_joint1,t_ff_joint2,v_des_joint1,v_des_joint2
37:06.6,299.805,-0.186,0.098,0.073,-0.28,-0.99,0.078,9.09,-4.85,-51.38,0.6448,-0.7223,-0.0568,-0.2432,-0.015,0.025,0,286.86,0.057,-0.14,-0.007,-0.242,-0.956,-0.159,23.23,-21.83,-76.38,-0.7117,0.5388,-0.3578,-0.2737,0.036,-0.008,-0.004,288.27,0.125,0.247,0.092,-0.064,-0.991,0.064,62.17,-11.16,-72.55,-0.4109,0.4531,0.5501,0.5683,0.001,-0.006,-0.049,0,0,0,0,0,0,0.000191689,0.000575066,0.03663063,-0.153846741,-0.003663063,-0.003663063,0,0,0,0
37:06.6,299.81,-0.196,0.104,0.071,-0.279,-0.99,0.078,9.47,-5.87,-51.09,0.6451,-0.722,-0.0567,-0.2435,-0.015,0.025,-0.001,286.86,0.057,-0.14,-0.007,-0.242,-0.956,-0.159,23.23,-21.83,-76.38,-0.7117,0.5388,-0.3578,-0.2737,0.036,-0.008,-0.004,288.27,0.125,0.247,0.092,-0.064,-0.991,0.064,62.17,-11.16,-72.55,-0.4109,0.4531,0.5501,0.5683,0.001,-0.006,-0.049,0,0,0,0,0,0,0.000191689,0.000575066,0.03663063,-0.153846741,-0.003663063,-0.003663063,0,0,0,0
37:06.6,299.815,-0.205,0.102,0.066,-0.281,-0.989,0.08,9.47,-5.87,-51.09,0.6454,-0.7216,-0.0566,-0.2438,-0.014,0.024,-0.003,286.86,0.057,-0.14,-0.007,-0.242,-0.956,-0.159,23.23,-21.83,-76.38,-0.7117,0.5388,-0.3578,-0.2737,0.036,-0.008,-0.004,288.27,0.125,0.247,0.092,-0.064,-0.991,0.064,62.17,-11.16,-72.55,-0.4109,0.4531,0.5501,0.5683,0.001,-0.006,-0.049,0,0,0,0,0,0,0.000191689,0.000575066,0.03663063,-0.153846741,-0.003663063,-0.003663063,0,0,0,0
37:06.6,299.82,-0.213,0.099,0.062,-0.283,-0.986,0.078,9.06,-4.67,-51.56,0.6457,-0.7212,-0.0565,-0.2441,-0.013,0.021,-0.003,286.86,0.057,-0.14,-0.007,-0.242,-0.956,-0.159,23.23,-21.83,-76.38,-0.7117,0.5388,-0.3578,-0.2737,0.036,-0.008,-0.004,288.27,0.125,0.247,0.092,-0.064,-0.991,0.064,62.17,-11.16,-72.55,-0.4109,0.4531,0.5501,0.5683,0.001,-0.006,-0.049,0,0,0,0,0,0,0.000191689,0.000575066,0.03663063,-0.153846741,-0.003663063,-0.003663063,0,0,0,0
37:06.6,299.825,-0.219,0.096,0.057,-0.281,-0.985,0.076,9.06,-4.67,-51.56,0.6461,-0.7208,-0.0564,-0.2444,-0.014,0.021,-0.003,286.86,0.057,-0.14,-0.007,-0.242,-0.956,-0.159,23.23,-21.83,-76.38,-0.7117,0.5388,-0.3578,-0.2737,0.036,-0.008,-0.004,288.27,0.125,0.247,0.092,-0.064,-0.991,0.064,62.17,-11.16,-72.55,-0.4109,0.4531,0.5501,0.5683,0.001,-0.006,-0.049,0,0,0,0,0,0,0.000191689,0.000575066,0.03663063,-0.153846741,-0.003663063,-0.003663063,0,0,0,0
37:06.6,299.83,-0.224,0.095,0.052,-0.283,-0.984,0.074,9.06,-4.67,-51.56,0.6465,-0.7203,-0.0563,-0.2447,-0.013,0.019,-0.001,286.86,0.057,-0.14,-0.007,-0.242,-0.956,-0.159,23.23,-21.83,-76.38,-0.7117,0.5388,-0.3578,-0.2737,0.036,-0.008,-0.004,288.27,0.125,0.247,0.092,-0.064,-0.991,0.064,62.17,-11.16,-72.55,-0.4109,0.4531,0.5501,0.5683,0.001,-0.006,-0.049,0,0,0,0,0,0,0.000191689,0.000575066,0.03663063,-0.153846741,-0.003663063,-0.003663063,0,0,0,0
37:06.6,299.79,-0.142,0.096,0.078,-0.277,-0.986,0.074,9.52,-4.53,-51.03,0.644,-0.7233,-0.057,-0.2422,-0.017,0.021,0.007,286.86,0.057,-0.14,-0.007,-0.242,-0.956,-0.159,23.23,-21.83,-76.38,-0.7117,0.5388,-0.3578,-0.2737,0.036,-0.008,-0.004,288.27,0.125,0.247,0.092,-0.064,-0.991,0.064,62.17,-11.16,-72.55,-0.4109,0.4531,0.5501,0.5683,0.001,-0.006,-0.049,0,0,0,0,0,0,0.000191689,0.000575066,0.03663063,-0.153846741,-0.003663063,-0.003663063,0,0,0,0
37:06.6,299.725,-0.151,0.132,0.071,-0.291,-0.973,0.095,9.44,-4.23,-51.91,0.6413,-0.7271,-0.0575,-0.2378,0.002,0.008,-0.003,286.86,0.057,-0.14,-0.007,-0.242,-0.956,-0.159,23.23,-21.83,-76.38,-0.7117,0.5388,-0.3578,-0.2737,0.036,-0.008,-0.004,288.27,0.125,0.247,0.092,-0.064,-0.991,0.064,62.17,-11.16,-72.55,-0.4109,0.4531,0.5501,0.5683,0.001,-0.006,-0.049,0,0,0,0,0,0,0.000191689,0.000575066,0.03663063,-0.153846741,-0.003663063,-0.003663063,0,0,0,0
37:06.6,299.75,-0.144,0.123,0.068,-0.285,-0.975,0.07,9.67,-4.88,-51.27,0.6424,-0.7256,-0.0574,-0.2396,-0.005,0.009,0.017,286.86,0.057,-0.14,-0.007,-0.242,-0.956,-0.159,23.23,-21.83,-76.38,-0.7117,0.5388,-0.3578,-0.2737,0.036,-0.008,-0.004,288.27,0.125,0.247,0.092,-0.064,-0.991,0.064,62.17,-11.16,-72.55,-0.4109,0.4531,0.5501,0.5683,0.001,-0.006,-0.049,0,0,0,0,0,0,0.000191689,0.000575066,0.03663063,-0.153846741,-0.003663063,-0.003663063,0,0,0,0
37:06.6,299.88,-0.155,0.151,0.053,-0.271,-0.977,0.031,9,-4.15,-52.03,0.6496,-0.7164,-0.0561,-0.2479,-0.027,0.012,0.029,286.86,0.057,-0.14,-0.007,-0.242,-0.956,-0.159,23.23,-21.83,-76.38,-0.7117,0.5388,-0.3578,-0.2737,0.036,-0.008,-0.004,288.27,0.125,0.247,0.092,-0.064,-0.991,0.064,62.17,-11.16,-72.55,-0.4109,0.4531,0.5501,0.5683,0.001,-0.006,-0.049,0,0,0,0,0,0,0.000191689,0.000575066,0.03663063,-0.153846741,-0.003663063,-0.003663063,0,0,0,0
37:06.6,299.97,-0.075,0.436,0.183,-0.236,-0.999,0.06,8.88,-4.26,-51.56,0.6506,-0.7102,-0.0604,-0.2619,-0.074,0.038,-0.015,286.86,0.057,-0.14,-0.007,-0.242,-0.956,-0.159,23.23,-21.83,-76.38,-0.7117,0.5388,-0.3578,-0.2737,0.036,-0.008,-0.004,288.27,0.125,0.247,0.092,-0.064,-0.991,0.064,62.17,-11.16,-72.55,-0.4109,0.4531,0.5501,0.5683,0.001,-0.006,-0.049,0,0,0,0,0,0,0.000191689,0.000575066,0.03663063,-0.153846741,-0.003663063,-0.003663063,0,0,0,0
37:06.6,299.865,-0.188,0.125,0.05,-0.277,-0.981,0.035,9.41,-4.76,-51.88,0.6489,-0.7175,-0.0561,-0.2469,-0.021,0.016,0.028,286.86,0.057,-0.14,-0.007,-0.242,-0.956,-0.159,23.23,-21.83,-76.38,-0.7117,0.5388,-0.3578,-0.2737,0.036,-0.008,-0.004,288.27,0.125,0.247,0.092,-0.064,-0.991,0.064,62.17,-11.16,-72.55,-0.4109,0.4531,0.5501,0.5683,0.001,-0.006,-0.049,0,0,0,0,0,0,0.000191689,0.000575066,0.03663063,-0.153846741,-0.003663063,-0.003663063,0,0,0,0
37:06.6,299.87,-0.177,0.132,0.051,-0.275,-0.98,0.032,9,-4.15,-52.03,0.6491,-0.7171,-0.0561,-0.2472,-0.022,0.015,0.031,286.86,0.057,-0.14,-0.007,-0.242,-0.956,-0.159,23.23,-21.83,-76.38,-0.7117,0.5388,-0.3578,-0.2737,0.036,-0.008,-0.004,288.27,0.125,0.247,0.092,-0.064,-0.991,0.064,62.17,-11.16,-72.55,-0.4109,0.4531,0.5501,0.5683,0.001,-0.006,-0.049,0,0,0,0,0,0,0.000191689,0.000575066,0.03663063,-0.153846741,-0.003663063,-0.003663063,0,0,0,0
37:06.6,299.875,-0.166,0.14,0.051,-0.273,-0.98,0.029,9,-4.15,-52.03,0.6494,-0.7167,-0.0561,-0.2476,-0.025,0.015,0.032,286.86,0.057,-0.14,-0.007,-0.242,-0.956,-0.159,23.23,-21.83,-76.38,-0.7117,0.5388,-0.3578,-0.2737,0.036,-0.008,-0.004,288.27,0.125,0.247,0.092,-0.064,-0.991,0.064,62.17,-11.16,-72.55,-0.4109,0.4531,0.5501,0.5683,0.001,-0.006,-0.049,0,0,0,0,0,0,0.000191689,0.000575066,0.03663063,-0.153846741,-0.003663063,-0.003663063,0,0,0,0
37:06.6,300.065,0.017,0.438,0.23,-0.314,-0.955,0.083,8.88,-4.73,-50.95,0.6482,-0.7034,-0.066,-0.2836,-0.016,0,-0.057,286.86,0.057,-0.14,-0.007,-0.242,-0.956,-0.159,23.23,-21.83,-76.38,-0.7117,0.5388,-0.3578,-0.2737,0.036,-0.008,-0.004,288.27,0.125,0.247,0.092,-0.064,-0.991,0.064,62.17,-11.16,-72.55,-0.4109,0.4531,0.5501,0.5683,0.001,-0.006,-0.049,0,0,0,0,0,0,0.000191689,0.000575066,0.03663063,-0.153846741,-0.003663063,-0.003663063,0,0,0,0
37:06.6,299.89,-0.141,0.165,0.059,-0.279,-0.972,0.033,8.79,-4.2,-52.14,0.6501,-0.7157,-0.0563,-0.2488,-0.02,0.007,0.025,286.86,0.057,-0.14,-0.007,-0.242,-0.956,-0.159,23.23,-21.83,-76.38,-0.7117,0.5388,-0.3578,-0.2737,0.036,-0.008,-0.004,288.27,0.125,0.247,0.092,-0.064,-0.991,0.064,62.17,-11.16,-72.55,-0.4109,0.4531,0.5501,0.5683,0.001,-0.006,-0.049,0,0,0,0,0,0,0.000191689,0.000575066,0.03663063,-0.153846741,-0.003663063,-0.003663063,0,0,0,0
37:06.6,299.895,-0.132,0.192,0.062,-0.284,-0.967,0.034,9.79,-4.26,-51.85,0.6503,-0.7153,-0.0564,-0.2492,-0.015,0.002,0.023,286.86,0.057,-0.14,-0.007,-0.242,-0.956,-0.159,23.23,-21.83,-76.38,-0.7117,0.5388,-0.3578,-0.2737,0.036,-0.008,-0.004,288.27,0.125,0.247,0.092,-0.064,-0.991,0.064,62.17,-11.16,-72.55,-0.4109,0.4531,0.5501,0.5683,0.001,-0.006,-0.049,0,0,0,0,0,0,0.000191689,0.000575066,0.03663063,-0.153846741,-0.003663063,-0.003663063,0,0,0,0
37:06.6,299.9,-0.125,0.209,0.066,-0.29,-0.967,0.034,9.79,-4.26,-51.85,0.6504,-0.715,-0.0565,-0.2497,-0.01,0.003,0.022,286.86,0.057,-0.14,-0.007,-0.242,-0.956,-0.159,23.23,-21.83,-76.38,-0.7117,0.5388,-0.3578,-0.2737,0.036,-0.008,-0.004,288.27,0.125,0.247,0.092,-0.064,-0.991,0.064,62.17,-11.16,-72.55,-0.4109,0.4531,0.5501,0.5683,0.001,-0.006,-0.049,0,0,0,0,0,0,0.000191689,0.000575066,0.03663063,-0.153846741,-0.003663063,-0.003663063,0,0,0,0
37:06.6,299.905,-0.114,0.225,0.069,-0.292,-0.969,0.035,9.79,-4.26,-51.85,0.6505,-0.7147,-0.0567,-0.2503,-0.008,0.004,0.021,286.86,0.057,-0.14,-0.007,-0.242,-0.956,-0.159,23.23,-21.83,-76.38,-0.7117,0.5388,-0.3578,-0.2737,0.036,-0.008,-0.004,288.27,0.125,0.247,0.092,-0.064,-0.991,0.064,62.17,-11.16,-72.55,-0.4109,0.4531,0.5501,0.5683,0.001,-0.006,-0.049,0,0,0,0,0,0,0.000191689,0.000575066,0.03663063,-0.153846741,-0.003663063,-0.003663063,0,0,0,0
37:06.6,299.885,-0.147,0.164,0.056,-0.273,-0.974,0.031,8.79,-4.2,-52.14,0.6499,-0.716,-0.0562,-0.2484,-0.025,0.009,0.028,286.86,0.057,-0.14,-0.007,-0.242,-0.956,-0.159,23.23,-21.83,-76.38,-0.7117,0.5388,-0.3578,-0.2737,0.036,-0.008,-0.004,288.27,0.125,0.247,0.092,-0.064,-0.991,0.064,62.17,-11.16,-72.55,-0.4109,0.4531,0.5501,0.5683,0.001,-0.006,-0.049,0,0,0,0,0,0,0.000191689,0.000575066,0.03663063,-0.153846741,-0.003663063,-0.003663063,0,0,0,0
37:06.6,299.915,-0.092,0.27,0.083,-0.297,-0.973,0.041,8.79,-4.23,-52.38,0.6507,-0.7141,-0.0571,-0.2515,-0.004,0.009,0.012,286.86,0.057,-0.14,-0.007,-0.242,-0.956,-0.159,23.23,-21.83,-76.38,-0.7117,0.5388,-0.3578,-0.2737,0.036,-0.008,-0.004,288.27,0.125,0.247,0.092,-0.064,-0.991,0.064,62.17,-11.16,-72.55,-0.4109,0.4531,0.5501,0.5683,0.001,-0.006,-0.049,0,0,0,0,0,0,0.000191689,0.000575066,0.03663063,-0.153846741,-0.003663063,-0.003663063,0,0,0,0
37:06.6,299.91,-0.105,0.246,0.076,-0.296,-0.972,0.038,8.79,-4.23,-52.38,0.6507,-0.7144,-0.0569,-0.2509,-0.005,0.007,0.017,286.86,0.057,-0.14,-0.007,-0.242,-0.956,-0.159,23.23,-21.83,-76.38,-0.7117,0.5388,-0.3578,-0.2737,0.036,-0.008,-0.004,288.27,0.125,0.247,0.092,-0.064,-0.991,0.064,62.17,-11.16,-72.55,-0.4109,0.4531,0.5501,0.5683,0.001,-0.006,-0.049,0,0,0,0,0,0,0.000191689,0.000575066,0.03663063,-0.153846741,-0.003663063,-0.003663063,0,0,0,0
37:06.6,299.945,-0.073,0.405,0.152,-0.275,-1.008,0.05,8.94,-4.2,-51.88,0.6508,-0.712,-0.0589,-0.2567,-0.029,0.045,0,286.86,0.057,-0.14,-0.007,-0.242,-0.956,-0.159,23.23,-21.83,-76.38,-0.7117,0.5388,-0.3578,-0.2737,0.036,-0.008,-0.004,288.27,0.125,0.247,0.092,-0.064,-0.991,0.064,62.17,-11.16,-72.55,-0.4109,0.4531,0.5501,0.5683,0.001,-0.006,-0.049,0,0,0,0,0,0,0.000191689,0.000575066,0.03663063,-0.153846741,-0.003663063,-0.003663063,0,0,0,0
37:06.6,299.94,-0.075,0.391,0.144,-0.28,-1.004,0.047,8.94,-4.2,-52.09,0.6508,-0.7124,-0.0586,-0.2557,-0.024,0.04,0.002,286.86,0.057,-0.14,-0.007,-0.242,-0.956,-0.159,23.23,-21.83,-76.38,-0.7117,0.5388,-0.3578,-0.2737,0.036,-0.008,-0.004,288.27,0.125,0.247,0.092,-0.064,-0.991,0.064,62.17,-11.16,-72.55,-0.4109,0.4531,0.5501,0.5683,0.001,-0.006,-0.049,0,0,0,0,0,0,0.000191689,0.000575066,0.03663063,-0.153846741,-0.003663063,-0.003663063,0,0,0,0
37:06.6,299.855,-0.199,0.12,0.045,-0.282,-0.979,0.049,9.12,-4.38,-51.06,0.6482,-0.7182,-0.0561,-0.2462,-0.015,0.014,0.017,286.86,0.057,-0.14,-0.007,-0.242,-0.956,-0.159,23.23,-21.83,-76.38,-0.7117,0.5388,-0.3578,-0.2737,0.036,-0.008,-0.004,288.27,0.125,0.247,0.092,-0.064,-0.991,0.064,62.17,-11.16,-72.55,-0.4109,0.4531,0.5501,0.5683,0.001,-0.006,-0.049,0,0,0,0,0,0,0.000191689,0.000575066,0.03663063,-0.153846741,-0.003663063,-0.003663063,0,0,0,0
37:06.6,299.955,-0.078,0.416,0.171,-0.258,-1.007,0.056,8.68,-4.03,-51.88,0.6507,-0.7113,-0.0595,-0.2587,-0.048,0.045,-0.008,286.86,0.057,-0.14,-0.007,-0.242,-0.956,-0.159,23.23,-21.83,-76.38,-0.7117,0.5388,-0.3578,-0.2737,0.036,-0.008,-0.004,288.27,0.125,0.247,0.092,-0.064,-0.991,0.064,62.17,-11.16,-72.55,-0.4109,0.4531,0.5501,0.5683,0.001,-0.006,-0.049,0,0,0,0,0,0,0.000191689,0.000575066,0.03663063,-0.153846741,-0.003663063,-0.003663063,0,0,0,0
37:06.6,299.93,-0.079,0.361,0.119,-0.289,-0.992,0.045,8.97,-4.2,-52.47,0.6508,-0.7131,-0.0579,-0.2538,-0.014,0.028,0.006,286.86,0.057,-0.14,-0.007,-0.242,-0.956,-0.159,23.23,-21.83,-76.38,-0.7117,0.5388,-0.3578,-0.2737,0.036,-0.008,-0.004,288.27,0.125,0.247,0.092,-0.064,-0.991,0.064,62.17,-11.16,-72.55,-0.4109,0.4531,0.5501,0.5683,0.001,-0.006,-0.049,0,0,0,0,0,0,0.000191689,0.000575066,0.03663063,-0.153846741,-0.003663063,-0.003663063,0,0,0,0
37:06.6,299.925,-0.083,0.335,0.107,-0.293,-0.985,0.044,8.97,-4.2,-52.47,0.6508,-0.7134,-0.0576,-0.253,-0.009,0.02,0.008,286.86,0.057,-0.14,-0.007,-0.242,-0.956,-0.159,23.23,-21.83,-76.38,-0.7117,0.5388,-0.3578,-0.2737,0.036,-0.008,-0.004,288.27,0.125,0.247,0.092,-0.064,-0.991,0.064,62.17,-11.16,-72.55,-0.4109,0.4531,0.5501,0.5683,0.001,-0.006,-0.049,0,0,0,0,0,0,0.000191689,0.000575066,0.03663063,-0.153846741,-0.003663063,-0.003663063,0,0,0,0
37:06.6,299.92,-0.084,0.307,0.096,-0.295,-0.98,0.043,8.97,-4.2,-52.47,0.6508,-0.7137,-0.0574,-0.2522,-0.006,0.015,0.01,286.86,0.057,-0.14,-0.007,-0.242,-0.956,-0.159,23.23,-21.83,-76.38,-0.7117,0.5388,-0.3578,-0.2737,0.036,-0.008,-0.004,288.27,0.125,0.247,0.092,-0.064,-0.991,0.064,62.17,-11.16,-72.55,-0.4109,0.4531,0.5501,0.5683,0.001,-0.006,-0.049,0,0,0,0,0,0,0.000191689,0.000575066,0.03663063,-0.153846741,-0.003663063,-0.003663063,0,0,0,0
37:06.6,299.935,-0.076,0.375,0.131,-0.285,-0.998,0.045,8.94,-4.2,-52.09,0.6508,-0.7127,-0.0583,-0.2547,-0.019,0.034,0.005,286.86,0.057,-0.14,-0.007,-0.242,-0.956,-0.159,23.23,-21.83,-76.38,-0.7117,0.5388,-0.3578,-0.2737,0.036,-0.008,-0.004,288.27,0.125,0.247,0.092,-0.064,-0.991,0.064,62.17,-11.16,-72.55,-0.4109,0.4531,0.5501,0.5683,0.001,-0.006,-0.049,0,0,0,0,0,0,0.000191689,0.000575066,0.03663063,-0.153846741,-0.003663063,-0.003663063,0,0,0,0
37:06.6,299.86,-0.196,0.117,0.047,-0.28,-0.979,0.041,9.41,-4.76,-51.88,0.6485,-0.7178,-0.0561,-0.2465,-0.018,0.014,0.023,286.86,0.057,-0.14,-0.007,-0.242,-0.956,-0.159,23.23,-21.83,-76.38,-0.7117,0.5388,-0.3578,-0.2737,0.036,-0.008,-0.004,288.27,0.125,0.247,0.092,-0.064,-0.991,0.064,62.17,-11.16,-72.55,-0.4109,0.4531,0.5501,0.5683,0.001,-0.006,-0.049,0,0,0,0,0,0,0.000191689,0.000575066,0.03663063,-0.153846741,-0.003663063,-0.003663063,0,0,0,0
37:06.6,299.85,-0.208,0.115,0.044,-0.283,-0.978,0.053,9.12,-4.38,-51.06,0.6479,-0.7186,-0.0561,-0.2459,-0.014,0.014,0.013,286.86,0.057,-0.14,-0.007,-0.242,-0.956,-0.159,23.23,-21.83,-76.38,-0.7117,0.5388,-0.3578,-0.2737,0.036,-0.008,-0.004,288.27,0.125,0.247,0.092,-0.064,-0.991,0.064,62.17,-11.16,-72.55,-0.4109,0.4531,0.5501,0.5683,0.001,-0.006,-0.049,0,0,0,0,0,0,0.000191689,0.000575066,0.03663063,-0.153846741,-0.003663063,-0.003663063,0,0,0,0
37:06.6,299.95,-0.079,0.412,0.164,-0.265,-1.009,0.054,8.68,-4.03,-51.88,0.6507,-0.7117,-0.0592,-0.2577,-0.041,0.046,-0.005,286.86,0.057,-0.14,-0.007,-0.242,-0.956,-0.159,23.23,-21.83,-76.38,-0.7117,0.5388,-0.3578,-0.2737,0.036,-0.008,-0.004,288.27,0.125,0.247,0.092,-0.064,-0.991,0.064,62.17,-11.16,-72.55,-0.4109,0.4531,0.5501,0.5683,0.001,-0.006,-0.049,0,0,0,0,0,0,0.000191689,0.000575066,0.03663063,-0.153846741,-0.003663063,-0.003663063,0,0,0,0
37:06.6,299.96,-0.08,0.423,0.176,-0.253,-1.004,0.058,8.88,-4.26,-51.56,0.6507,-0.7109,-0.0598,-0.2597,-0.055,0.043,-0.011,286.86,0.057,-0.14,-0.007,-0.242,-0.956,-0.159,23.23,-21.83,-76.38,-0.7117,0.5388,-0.3578,-0.2737,0.036,-0.008,-0.004,288.27,0.125,0.247,0.092,-0.064,-0.991,0.064,62.17,-11.16,-72.55,-0.4109,0.4531,0.5501,0.5683,0.001,-0.006,-0.049,0,0,0,0,0,0,0.000191689,0.000575066,0.03663063,-0.153846741,-0.003663063,-0.003663063,0,0,0,0
37:06.6,299.975,-0.074,0.443,0.186,-0.227,-0.998,0.06,8.88,-4.26,-52,0.6505,-0.7098,-0.0607,-0.263,-0.083,0.037,-0.016,286.86,0.057,-0.14,-0.007,-0.242,-0.956,-0.159,23.23,-21.83,-76.38,-0.7117,0.5388,-0.3578,-0.2737,0.036,-0.008,-0.004,288.27,0.125,0.247,0.092,-0.064,-0.991,0.064,62.17,-11.16,-72.55,-0.4109,0.4531,0.5501,0.5683,0.001,-0.006,-0.049,0,0,0,0,0,0,0.000191689,0.000575066,0.03663063,-0.153846741,-0.003663063,-0.003663063,0,0,0,0
37:06.6,299.98,-0.08,0.456,0.192,-0.222,-0.997,0.061,8.88,-4.26,-52,0.6504,-0.7094,-0.061,-0.2641,-0.089,0.036,-0.018,286.86,0.057,-0.14,-0.007,-0.242,-0.956,-0.159,23.23,-21.83,-76.38,-0.7117,0.5388,-0.3578,-0.2737,0.036,-0.008,-0.004,288.27,0.125,0.247,0.092,-0.064,-0.991,0.064,62.17,-11.16,-72.55,-0.4109,0.4531,0.5501,0.5683,0.001,-0.006,-0.049,0,0,0,0,0,0,0.000191689,0.000575066,0.03663063,-0.153846741,-0.003663063,-0.003663063,0,0,0,0
37:06.6,299.985,-0.086,0.458,0.194,-0.215,-0.994,0.062,9.52,-4.56,-51.88,0.6504,-0.709,-0.0613,-0.2652,-0.097,0.034,-0.02,286.86,0.057,-0.14,-0.007,-0.242,-0.956,-0.159,23.23,-21.83,-76.38,-0.7117,0.5388,-0.3578,-0.2737,0.036,-0.008,-0.004,288.27,0.125,0.247,0.092,-0.064,-0.991,0.064,62.17,-11.16,-72.55,-0.4109,0.4531,0.5501,0.5683,0.001,-0.006,-0.049,0,0,0,0,0,0,0.000191689,0.000575066,0.03663063,-0.153846741,-0.003663063,-0.003663063,0,0,0,0
37:06.6,299.99,-0.094,0.467,0.196,-0.211,-0.994,0.059,9.52,-4.56,-51.88,0.6504,-0.7086,-0.0617,-0.2663,-0.101,0.035,-0.019,286.86,0.057,-0.14,-0.007,-0.242,-0.956,-0.159,23.23,-21.83,-76.38,-0.7117,0.5388,-0.3578,-0.2737,0.036,-0.008,-0.004,288.27,0.125,0.247,0.092,-0.064,-0.991,0.064,62.17,-11.16,-72.55,-0.4109,0.4531,0.5501,0.5683,0.001,-0.006,-0.049,0,0,0,0,0,0,0.000191689,0.000575066,0.03663063,-0.153846741,-0.003663063,-0.003663063,0,0,0,0
37:06.6,299.995,-0.1,0.471,0.201,-0.207,-0.991,0.059,9.52,-4.56,-51.88,0.6503,-0.7082,-0.062,-0.2675,-0.107,0.031,-0.019,286.86,0.057,-0.14,-0.007,-0.242,-0.956,-0.159,23.23,-21.83,-76.38,-0.7117,0.5388,-0.3578,-0.2737,0.036,-0.008,-0.004,288.27,0.125,0.247,0.092,-0.064,-0.991,0.064,62.17,-11.16,-72.55,-0.4109,0.4531,0.5501,0.5683,0.001,-0.006,-0.049,0,0,0,0,0,0,0.000191689,0.000575066,0.03663063,-0.153846741,-0.003663063,-0.003663063,0,0,0,0
37:06.6,300,-0.106,0.478,0.206,-0.205,-0.986,0.057,8.3,-4.35,-51.91,0.6503,-0.7077,-0.0623,-0.2686,-0.11,0.027,-0.018,286.86,0.057,-0.14,-0.007,-0.242,-0.956,-0.159,23.23,-21.83,-76.38,-0.7117,0.5388,-0.3578,-0.2737,0.036,-0.008,-0.004,288.27,0.125,0.247,0.092,-0.064,-0.991,0.064,62.17,-11.16,-72.55,-0.4109,0.4531,0.5501,0.5683,0.001,-0.006,-0.049,0,0,0,0,0,0,0.000191689,0.000575066,0.03663063,-0.153846741,-0.003663063,-0.003663063,0,0,0,0
37:06.6,300.005,-0.11,0.474,0.206,-0.202,-0.982,0.054,8.3,-4.35,-51.91,0.6503,-0.7073,-0.0626,-0.2698,-0.114,0.023,-0.017,286.86,0.057,-0.14,-0.007,-0.242,-0.956,-0.159,23.23,-21.83,-76.38,-0.7117,0.5388,-0.3578,-0.2737,0.036,-0.008,-0.004,288.27,0.125,0.247,0.092,-0.064,-0.991,0.064,62.17,-11.16,-72.55,-0.4109,0.4531,0.5501,0.5683,0.001,-0.006,-0.049,0,0,0,0,0,0,0.000191689,0.000575066,0.03663063,-0.153846741,-0.003663063,-0.003663063,0,0,0,0
37:06.6,300.01,-0.105,0.47,0.212,-0.203,-0.977,0.052,8.53,-4.85,-52.03,0.6503,-0.7068,-0.0629,-0.271,-0.115,0.019,-0.017,286.86,0.057,-0.14,-0.007,-0.242,-0.956,-0.159,23.23,-21.83,-76.38,-0.7117,0.5388,-0.3578,-0.2737,0.036,-0.008,-0.004,288.27,0.125,0.247,0.092,-0.064,-0.991,0.064,62.17,-11.16,-72.55,-0.4109,0.4531,0.5501,0.5683,0.001,-0.006,-0.049,0,0,0,0,0,0,0.000191689,0.000575066,0.03663063,-0.153846741,-0.003663063,-0.003663063,0,0,0,0
37:06.6,300.015,-0.097,0.466,0.217,-0.207,-0.974,0.054,8.53,-4.85,-52.03,0.6502,-0.7064,-0.0632,-0.2721,-0.111,0.016,-0.019,286.86,0.057,-0.14,-0.007,-0.242,-0.956,-0.159,23.23,-21.83,-76.38,-0.7117,0.5388,-0.3578,-0.2737,0.036,-0.008,-0.004,288.27,0.125,0.247,0.092,-0.064,-0.991,0.064,62.17,-11.16,-72.55,-0.4109,0.4531,0.5501,0.5683,0.001,-0.006,-0.049,0,0,0,0,0,0,0.000191689,0.000575066,0.03663063,-0.153846741,-0.003663063,-0.003663063,0,0,0,0
37:06.6,300.02,-0.086,0.465,0.222,-0.211,-0.97,0.054,8.53,-4.85,-52.03,0.6502,-0.706,-0.0635,-0.2733,-0.108,0.012,-0.021,286.86,0.057,-0.14,-0.007,-0.242,-0.956,-0.159,23.23,-21.83,-76.38,-0.7117,0.5388,-0.3578,-0.2737,0.036,-0.008,-0.004,288.27,0.125,0.247,0.092,-0.064,-0.991,0.064,62.17,-11.16,-72.55,-0.4109,0.4531,0.5501,0.5683,0.001,-0.006,-0.049,0,0,0,0,0,0,0.000191689,0.000575066,0.03663063,-0.153846741,-0.003663063,-0.003663063,0,0,0,0
37:06.6,300.025,-0.072,0.464,0.224,-0.217,-0.969,0.055,8.15,-4.47,-52.03,0.6501,-0.7056,-0.0637,-0.2745,-0.103,0.011,-0.023,286.86,0.057,-0.14,-0.007,-0.242,-0.956,-0.159,23.23,-21.83,-76.38,-0.7117,0.5388,-0.3578,-0.2737,0.036,-0.008,-0.004,288.27,0.125,0.247,0.092,-0.064,-0.991,0.064,62.17,-11.16,-72.55,-0.4109,0.4531,0.5501,0.5683,0.001,-0.006,-0.049,0,0,0,0,0,0,0.000191689,0.000575066,0.03663063,-0.153846741,-0.003663063,-0.003663063,0,0,0,0
37:06.6,300.03,-0.056,0.459,0.228,-0.223,-0.966,0.057,8.15,-4.47,-52.03,0.6499,-0.7052,-0.064,-0.2757,-0.099,0.009,-0.026,286.86,0.057,-0.14,-0.007,-0.242,-0.956,-0.159,23.23,-21.83,-76.38,-0.7117,0.5388,-0.3578,-0.2737,0.036,-0.008,-0.004,288.27,0.125,0.247,0.092,-0.064,-0.991,0.064,62.17,-11.16,-72.55,-0.4109,0.4531,0.5501,0.5683,0.001,-0.006,-0.049,0,0,0,0,0,0,0.000191689,0.000575066,0.03663063,-0.153846741,-0.003663063,-0.003663063,0,0,0,0
37:06.6,300.035,-0.042,0.453,0.228,-0.234,-0.965,0.064,8.09,-4.91,-51.94,0.6498,-0.7049,-0.0643,-0.2768,-0.088,0.008,-0.033,286.86,0.057,-0.14,-0.007,-0.242,-0.956,-0.159,23.23,-21.83,-76.38,-0.7117,0.5388,-0.3578,-0.2737,0.036,-0.008,-0.004,288.27,0.125,0.247,0.092,-0.064,-0.991,0.064,62.17,-11.16,-72.55,-0.4109,0.4531,0.5501,0.5683,0.001,-0.006,-0.049,0,0,0,0,0,0,0.000191689,0.000575066,0.03663063,-0.153846741,-0.003663063,-0.003663063,0,0,0,0
37:06.6,300.04,-0.026,0.448,0.228,-0.244,-0.963,0.07,8.09,-4.91,-51.94,0.6496,-0.7046,-0.0646,-0.278,-0.08,0.007,-0.04,286.86,0.057,-0.14,-0.007,-0.242,-0.956,-0.159,23.23,-21.83,-76.38,-0.7117,0.5388,-0.3578,-0.2737,0.036,-0.008,-0.004,288.27,0.125,0.247,0.092,-0.064,-0.991,0.064,62.17,-11.16,-72.55,-0.4109,0.4531,0.5501,0.5683,0.001,-0.006,-0.049,0,0,0,0,0,0,0.000191689,0.000575066,0.03663063,-0.153846741,-0.003663063,-0.003663063,0,0,0,0
37:06.6,300.045,-0.005,0.442,0.228,-0.258,-0.961,0.073,8.09,-4.91,-51.94,0.6493,-0.7043,-0.0649,-0.2791,-0.067,0.005,-0.045,286.86,0.057,-0.14,-0.007,-0.242,-0.956,-0.159,23.23,-21.83,-76.38,-0.7117,0.5388,-0.3578,-0.2737,0.036,-0.008,-0.004,288.27,0.125,0.247,0.092,-0.064,-0.991,0.064,62.17,-11.16,-72.55,-0.4109,0.4531,0.5501,0.5683,0.001,-0.006,-0.049,0,0,0,0,0,0,0.000191689,0.000575066,0.03663063,-0.153846741,-0.003663063,-0.003663063,0,0,0,0
37:06.6,299.845,-0.216,0.109,0.045,-0.284,-0.981,0.06,9.12,-4.38,-51.06,0.6476,-0.7191,-0.0561,-0.2456,-0.013,0.016,0.008,286.86,0.057,-0.14,-0.007,-0.242,-0.956,-0.159,23.23,-21.83,-76.38,-0.7117,0.5388,-0.3578,-0.2737,0.036,-0.008,-0.004,288.27,0.125,0.247,0.092,-0.064,-0.991,0.064,62.17,-11.16,-72.55,-0.4109,0.4531,0.5501,0.5683,0.001,-0.006,-0.049,0,0,0,0,0,0,0.000191689,0.000575066,0.03663063,-0.153846741,-0.003663063,-0.003663063,0,0,0,0
37:06.6,300.055,0.018,0.442,0.227,-0.284,-0.958,0.079,7.86,-5.4,-51.82,0.6488,-0.7039,-0.0655,-0.2814,-0.043,0.002,-0.051,286.86,0.057,-0.14,-0.007,-0.242,-0.956,-0.159,23.23,-21.83,-76.38,-0.7117,0.5388,-0.3578,-0.2737,0.036,-0.008,-0.004,288.27,0.125,0.247,0.092,-0.064,-0.991,0.064,62.17,-11.16,-72.55,-0.4109,0.4531,0.5501,0.5683,0.001,-0.006,-0.049,0,0,0,0,0,0,0.000191689,0.000575066,0.03663063,-0.153846741,-0.003663063,-0.003663063,0,0,0,0
37:06.6,300.06,0.022,0.438,0.228,-0.297,-0.958,0.08,8.88,-4.73,-50.95,0.6485,-0.7037,-0.0658,-0.2825,-0.031,0.002,-0.054,286.86,0.057,-0.14,-0.007,-0.242,-0.956,-0.159,23.23,-21.83,-76.38,-0.7117,0.5388,-0.3578,-0.2737,0.036,-0.008,-0.004,288.27,0.125,0.247,0.092,-0.064,-0.991,0.064,62.17,-11.16,-72.55,-0.4109,0.4531,0.5501,0.5683,0.001,-0.006,-0.049,0,0,0,0,0,0,0.000191689,0.000575066,0.03663063,-0.153846741,-0.003663063,-0.003663063,0,0,0,0
37:06.6,299.965,-0.077,0.427,0.181,-0.244,-1.002,0.061,8.88,-4.26,-51.56,0.6506,-0.7106,-0.0601,-0.2608,-0.064,0.041,-0.015,286.86,0.057,-0.14,-0.007,-0.242,-0.956,-0.159,23.23,-21.83,-76.38,-0.7117,0.5388,-0.3578,-0.2737,0.036,-0.008,-0.004,288.27,0.125,0.247,0.092,-0.064,-0.991,0.064,62.17,-11.16,-72.55,-0.4109,0.4531,0.5501,0.5683,0.001,-0.006,-0.049,0,0,0,0,0,0,0.000191689,0.000575066,0.03663063,-0.153846741,-0.003663063,-0.003663063,0,0,0,0
37:06.6,300.05,0.007,0.441,0.228,-0.272,-0.96,0.077,7.86,-5.4,-51.82,0.6491,-0.7041,-0.0652,-0.2802,-0.054,0.004,-0.049,286.86,0.057,-0.14,-0.007,-0.242,-0.956,-0.159,23.23,-21.83,-76.38,-0.7117,0.5388,-0.3578,-0.2737,0.036,-0.008,-0.004,288.27,0.125,0.247,0.092,-0.064,-0.991,0.064,62.17,-11.16,-72.55,-0.4109,0.4531,0.5501,0.5683,0.001,-0.006,-0.049,0,0,0,0,0,0,0.000191689,0.000575066,0.03663063,-0.153846741,-0.003663063,-0.003663063,0,0,0,0
37:06.6,300.25,-0.053,0.057,0.043,-0.381,-0.919,-0.017,6.89,-5.29,-49.95,0.6418,-0.6954,-0.0721,-0.3149,0.018,-0.026,0.021,286.86,0.057,-0.14,-0.007,-0.242,-0.956,-0.159,23.23,-21.83,-76.38,-0.7117,0.5388,-0.3578,-0.2737,0.036,-0.008,-0.004,288.27,0.125,0.247,0.092,-0.064,-0.991,0.064,62.17,-11.16,-72.55,-0.4109,0.4531,0.5501,0.5683,0.001,-0.006,-0.049,0,0,0,0,0,0,0.000191689,0.000575066,0.03663063,-0.153846741,-0.003663063,-0.003663063,0,0,0,0
37:06.6,299.68,-0.103,0.11,0.051,-0.28,-0.981,0.107,9.52,-4.18,-50.97,0.6397,-0.7296,-0.0575,-0.2346,-0.005,0.016,-0.007,286.86,0.057,-0.14,-0.007,-0.242,-0.956,-0.159,23.23,-21.83,-76.38,-0.7117,0.5388,-0.3578,-0.2737,0.036,-0.008,-0.004,288.27,0.125,0.247,0.092,-0.064,-0.991,0.064,62.17,-11.16,-72.55,-0.4109,0.4531,0.5501,0.5683,0.001,-0.006,-0.049,0,0,0,0,0,0,0.000191689,0.000575066,0.03663063,-0.153846741,-0.003663063,-0.003663063,0,0,0,0
37:06.6,300.415,0.008,-0.398,-0.006,-0.318,-0.936,0.004,7.22,-5.02,-51.06,0.6469,-0.6997,-0.0565,-0.2977,-0.042,-0.009,0.007,286.86,0.057,-0.14,-0.007,-0.242,-0.956,-0.159,23.23,-21.83,-76.38,-0.7117,0.5388,-0.3578,-0.2737,0.036,-0.008,-0.004,288.27,0.125,0.247,0.092,-0.064,-0.991,0.064,62.17,-11.16,-72.55,-0.4109,0.4531,0.5501,0.5683,0.001,-0.006,-0.049,0,0,0,0,0,0,0.000191689,0.000575066,0.03663063,-0.153846741,-0.003663063,-0.003663063,0,0,0,0
37:06.6,300.295,-0.09,-0.229,-0.033,-0.343,-0.997,0.009,6.95,-5.9,-49.98,0.6432,-0.6949,-0.0704,-0.3135,-0.018,0.052,-0.005,286.86,0.057,-0.14,-0.007,-0.242,-0.956,-0.159,23.23,-21.83,-76.38,-0.7117,0.5388,-0.3578,-0.2737,0.036,-0.008,-0.004,288.27,0.125,0.247,0.092,-0.064,-0.991,0.064,62.17,-11.16,-72.55,-0.4109,0.4531,0.5501,0.5683,0.001,-0.006,-0.049,0,0,0,0,0,0,0.000191689,0.000575066,0.03663063,-0.153846741,-0.003663063,-0.003663063,0,0,0,0
37:06.6,300.085,-0.022,0.454,0.252,-0.352,-0.94,0.07,7.8,-4.88,-51.12,0.6472,-0.7024,-0.0671,-0.2883,0.017,-0.013,-0.047,286.86,0.057,-0.14,-0.007,-0.242,-0.956,-0.159,23.23,-21.83,-76.38,-0.7117,0.5388,-0.3578,-0.2737,0.036,-0.008,-0.004,288.27,0.125,0.247,0.092,-0.064,-0.991,0.064,62.17,-11.16,-72.55,-0.4109,0.4531,0.5501,0.5683,0.001,-0.006,-0.049,0,0,0,0,0,0,0.000191689,0.000575066,0.03663063,-0.153846741,-0.003663063,-0.003663063,0,0,0,0
37:06.6,300.095,-0.021,0.465,0.264,-0.366,-0.923,0.056,7.8,-4.88,-51.12,0.6467,-0.7018,-0.0675,-0.2908,0.027,-0.029,-0.035,286.86,0.057,-0.14,-0.007,-0.242,-0.956,-0.159,23.23,-21.83,-76.38,-0.7117,0.5388,-0.3578,-0.2737,0.036,-0.008,-0.004,288.27,0.125,0.247,0.092,-0.064,-0.991,0.064,62.17,-11.16,-72.55,-0.4109,0.4531,0.5501,0.5683,0.001,-0.006,-0.049,0,0,0,0,0,0,0.000191689,0.000575066,0.03663063,-0.153846741,-0.003663063,-0.003663063,0,0,0,0
37:06.6,300.1,-0.017,0.471,0.271,-0.369,-0.916,0.051,7.65,-4.35,-50.65,0.6465,-0.7015,-0.0678,-0.292,0.029,-0.037,-0.031,286.86,0.057,-0.14,-0.007,-0.242,-0.956,-0.159,23.23,-21.83,-76.38,-0.7117,0.5388,-0.3578,-0.2737,0.036,-0.008,-0.004,288.27,0.125,0.247,0.092,-0.064,-0.991,0.064,62.17,-11.16,-72.55,-0.4109,0.4531,0.5501,0.5683,0.001,-0.006,-0.049,0,0,0,0,0,0,0.000191689,0.000575066,0.03663063,-0.153846741,-0.003663063,-0.003663063,0,0,0,0
37:06.6,300.105,-0.011,0.474,0.272,-0.372,-0.914,0.048,7.65,-4.35,-50.65,0.6462,-0.7012,-0.068,-0.2933,0.031,-0.038,-0.029,286.86,0.057,-0.14,-0.007,-0.242,-0.956,-0.159,23.23,-21.83,-76.38,-0.7117,0.5388,-0.3578,-0.2737,0.036,-0.008,-0.004,288.27,0.125,0.247,0.092,-0.064,-0.991,0.064,62.17,-11.16,-72.55,-0.4109,0.4531,0.5501,0.5683,0.001,-0.006,-0.049,0,0,0,0,0,0,0.000191689,0.000575066,0.03663063,-0.153846741,-0.003663063,-0.003663063,0,0,0,0
37:06.6,300.11,0,0.484,0.274,-0.375,-0.913,0.046,7.42,-5.05,-50.89,0.6459,-0.7009,-0.0683,-0.2946,0.033,-0.038,-0.028,286.86,0.057,-0.14,-0.007,-0.242,-0.956,-0.159,23.23,-21.83,-76.38,-0.7117,0.5388,-0.3578,-0.2737,0.036,-0.008,-0.004,288.27,0.125,0.247,0.092,-0.064,-0.991,0.064,62.17,-11.16,-72.55,-0.4109,0.4531,0.5501,0.5683,0.001,-0.006,-0.049,0,0,0,0,0,0,0.000191689,0.000575066,0.03663063,-0.153846741,-0.003663063,-0.003663063,0,0,0,0
37:06.6,300.12,0.023,0.497,0.269,-0.381,-0.919,0.044,7.42,-5.05,-50.89,0.6452,-0.7003,-0.0689,-0.2972,0.036,-0.031,-0.027,286.86,0.057,-0.14,-0.007,-0.242,-0.956,-0.159,23.23,-21.83,-76.38,-0.7117,0.5388,-0.3578,-0.2737,0.036,-0.008,-0.004,288.27,0.125,0.247,0.092,-0.064,-0.991,0.064,62.17,-11.16,-72.55,-0.4109,0.4531,0.5501,0.5683,0.001,-0.006,-0.049,0,0,0,0,0,0,0.000191689,0.000575066,0.03663063,-0.153846741,-0.003663063,-0.003663063,0,0,0,0
37:06.6,300.125,0.034,0.49,0.261,-0.39,-0.927,0.044,7.65,-4.79,-50.36,0.6449,-0.7001,-0.0692,-0.2985,0.043,-0.023,-0.028,286.86,0.057,-0.14,-0.007,-0.242,-0.956,-0.159,23.23,-21.83,-76.38,-0.7117,0.5388,-0.3578,-0.2737,0.036,-0.008,-0.004,288.27,0.125,0.247,0.092,-0.064,-0.991,0.064,62.17,-11.16,-72.55,-0.4109,0.4531,0.5501,0.5683,0.001,-0.006,-0.049,0,0,0,0,0,0,0.000191689,0.000575066,0.03663063,-0.153846741,-0.003663063,-0.003663063,0,0,0,0
37:06.6,300.18,-0.032,0.266,0.124,-0.457,-0.924,0.014,7.77,-5.23,-50.48,0.6423,-0.6974,-0.0726,-0.3093,0.101,-0.024,-0.005,286.86,0.057,-0.14,-0.007,-0.242,-0.956,-0.159,23.23,-21.83,-76.38,-0.7117,0.5388,-0.3578,-0.2737,0.036,-0.008,-0.004,288.27,0.125,0.247,0.092,-0.064,-0.991,0.064,62.17,-11.16,-72.55,-0.4109,0.4531,0.5501,0.5683,0.001,-0.006,-0.049,0,0,0,0,0,0,0.000191689,0.000575066,0.03663063,-0.153846741,-0.003663063,-0.003663063,0,0,0,0
37:06.6,300.13,0.035,0.489,0.249,-0.396,-0.938,0.044,7.65,-4.79,-50.36,0.6445,-0.6998,-0.0695,-0.2997,0.049,-0.012,-0.028,286.86,0.057,-0.14,-0.007,-0.242,-0.956,-0.159,23.23,-21.83,-76.38,-0.7117,0.5388,-0.3578,-0.2737,0.036,-0.008,-0.004,288.27,0.125,0.247,0.092,-0.064,-0.991,0.064,62.17,-11.16,-72.55,-0.4109,0.4531,0.5501,0.5683,0.001,-0.006,-0.049,0,0,0,0,0,0,0.000191689,0.000575066,0.03663063,-0.153846741,-0.003663063,-0.003663063,0,0,0,0
37:06.6,300.14,0.031,0.469,0.219,-0.411,-0.948,0.037,8.18,-4.99,-50.86,0.6438,-0.6993,-0.0703,-0.3021,0.061,-0.002,-0.022,286.86,0.057,-0.14,-0.007,-0.242,-0.956,-0.159,23.23,-21.83,-76.38,-0.7117,0.5388,-0.3578,-0.2737,0.036,-0.008,-0.004,288.27,0.125,0.247,0.092,-0.064,-0.991,0.064,62.17,-11.16,-72.55,-0.4109,0.4531,0.5501,0.5683,0.001,-0.006,-0.049,0,0,0,0,0,0,0.000191689,0.000575066,0.03663063,-0.153846741,-0.003663063,-0.003663063,0,0,0,0
37:06.6,300.145,0.028,0.451,0.203,-0.418,-0.949,0.033,8.18,-4.99,-50.86,0.6435,-0.6991,-0.0706,-0.3032,0.067,0,-0.019,286.86,0.057,-0.14,-0.007,-0.242,-0.956,-0.159,23.23,-21.83,-76.38,-0.7117,0.5388,-0.3578,-0.2737,0.036,-0.008,-0.004,288.27,0.125,0.247,0.092,-0.064,-0.991,0.064,62.17,-11.16,-72.55,-0.4109,0.4531,0.5501,0.5683,0.001,-0.006,-0.049,0,0,0,0,0,0,0.000191689,0.000575066,0.03663063,-0.153846741,-0.003663063,-0.003663063,0,0,0,0
37:06.6,300.15,0.026,0.44,0.186,-0.422,-0.95,0.032,7.65,-5.84,-50.45,0.6433,-0.6989,-0.071,-0.3043,0.07,0,-0.018,286.86,0.057,-0.14,-0.007,-0.242,-0.956,-0.159,23.23,-21.83,-76.38,-0.7117,0.5388,-0.3578,-0.2737,0.036,-0.008,-0.004,288.27,0.125,0.247,0.092,-0.064,-0.991,0.064,62.17,-11.16,-72.55,-0.4109,0.4531,0.5501,0.5683,0.001,-0.006,-0.049,0,0,0,0,0,0,0.000191689,0.000575066,0.03663063,-0.153846741,-0.003663063,-0.003663063,0,0,0,0
37:06.6,300.155,0.016,0.414,0.166,-0.432,-0.947,0.028,7.65,-5.84,-50.45,0.643,-0.6986,-0.0713,-0.3053,0.079,-0.002,-0.015,286.86,0.057,-0.14,-0.007,-0.242,-0.956,-0.159,23.23,-21.83,-76.38,-0.7117,0.5388,-0.3578,-0.2737,0.036,-0.008,-0.004,288.27,0.125,0.247,0.092,-0.064,-0.991,0.064,62.17,-11.16,-72.55,-0.4109,0.4531,0.5501,0.5683,0.001,-0.006,-0.049,0,0,0,0,0,0,0.000191689,0.000575066,0.03663063,-0.153846741,-0.003663063,-0.003663063,0,0,0,0
37:06.6,300.16,0.005,0.385,0.147,-0.44,-0.945,0.025,8.36,-5.67,-50.16,0.6428,-0.6984,-0.0717,-0.3062,0.087,-0.003,-0.013,286.86,0.057,-0.14,-0.007,-0.242,-0.956,-0.159,23.23,-21.83,-76.38,-0.7117,0.5388,-0.3578,-0.2737,0.036,-0.008,-0.004,288.27,0.125,0.247,0.092,-0.064,-0.991,0.064,62.17,-11.16,-72.55,-0.4109,0.4531,0.5501,0.5683,0.001,-0.006,-0.049,0,0,0,0,0,0,0.000191689,0.000575066,0.03663063,-0.153846741,-0.003663063,-0.003663063,0,0,0,0
37:06.6,300.165,-0.008,0.354,0.137,-0.444,-0.941,0.021,8.36,-5.67,-50.16,0.6427,-0.6981,-0.072,-0.3071,0.09,-0.007,-0.009,286.86,0.057,-0.14,-0.007,-0.242,-0.956,-0.159,23.23,-21.83,-76.38,-0.7117,0.5388,-0.3578,-0.2737,0.036,-0.008,-0.004,288.27,0.125,0.247,0.092,-0.064,-0.991,0.064,62.17,-11.16,-72.55,-0.4109,0.4531,0.5501,0.5683,0.001,-0.006,-0.049,0,0,0,0,0,0,0.000191689,0.000575066,0.03663063,-0.153846741,-0.003663063,-0.003663063,0,0,0,0
37:06.6,300.17,-0.017,0.326,0.13,-0.449,-0.938,0.017,8.36,-5.67,-50.16,0.6425,-0.6979,-0.0722,-0.3078,0.094,-0.01,-0.006,286.86,0.057,-0.14,-0.007,-0.242,-0.956,-0.159,23.23,-21.83,-76.38,-0.7117,0.5388,-0.3578,-0.2737,0.036,-0.008,-0.004,288.27,0.125,0.247,0.092,-0.064,-0.991,0.064,62.17,-11.16,-72.55,-0.4109,0.4531,0.5501,0.5683,0.001,-0.006,-0.049,0,0,0,0,0,0,0.000191689,0.000575066,0.03663063,-0.153846741,-0.003663063,-0.003663063,0,0,0,0
37:06.6,300.175,-0.026,0.296,0.124,-0.455,-0.934,0.015,7.77,-5.23,-50.48,0.6424,-0.6976,-0.0725,-0.3086,0.1,-0.014,-0.005,286.86,0.057,-0.14,-0.007,-0.242,-0.956,-0.159,23.23,-21.83,-76.38,-0.7117,0.5388,-0.3578,-0.2737,0.036,-0.008,-0.004,288.27,0.125,0.247,0.092,-0.064,-0.991,0.064,62.17,-11.16,-72.55,-0.4109,0.4531,0.5501,0.5683,0.001,-0.006,-0.049,0,0,0,0,0,0,0.000191689,0.000575066,0.03663063,-0.153846741,-0.003663063,-0.003663063,0,0,0,0
37:06.6,300.135,0.034,0.478,0.236,-0.403,-0.943,0.04,8.18,-4.99,-50.86,0.6442,-0.6996,-0.0699,-0.3009,0.055,-0.007,-0.024,286.86,0.057,-0.14,-0.007,-0.242,-0.956,-0.159,23.23,-21.83,-76.38,-0.7117,0.5388,-0.3578,-0.2737,0.036,-0.008,-0.004,288.27,0.125,0.247,0.092,-0.064,-0.991,0.064,62.17,-11.16,-72.55,-0.4109,0.4531,0.5501,0.5683,0.001,-0.006,-0.049,0,0,0,0,0,0,0.000191689,0.000575066,0.03663063,-0.153846741,-0.003663063,-0.003663063,0,0,0,0
37:06.6,300.115,0.012,0.491,0.272,-0.376,-0.914,0.044,7.42,-5.05,-50.89,0.6456,-0.7006,-0.0686,-0.2959,0.032,-0.037,-0.026,286.86,0.057,-0.14,-0.007,-0.242,-0.956,-0.159,23.23,-21.83,-76.38,-0.7117,0.5388,-0.3578,-0.2737,0.036,-0.008,-0.004,288.27,0.125,0.247,0.092,-0.064,-0.991,0.064,62.17,-11.16,-72.55,-0.4109,0.4531,0.5501,0.5683,0.001,-0.006,-0.049,0,0,0,0,0,0,0.000191689,0.000575066,0.03663063,-0.153846741,-0.003663063,-0.003663063,0,0,0,0
37:06.6,300.19,-0.044,0.195,0.129,-0.461,-0.903,0.013,7.42,-5.46,-49.57,0.6421,-0.697,-0.0727,-0.3105,0.104,-0.044,-0.004,286.86,0.057,-0.14,-0.007,-0.242,-0.956,-0.159,23.23,-21.83,-76.38,-0.7117,0.5388,-0.3578,-0.2737,0.036,-0.008,-0.004,288.27,0.125,0.247,0.092,-0.064,-0.991,0.064,62.17,-11.16,-72.55,-0.4109,0.4531,0.5501,0.5683,0.001,-0.006,-0.049,0,0,0,0,0,0,0.000191689,0.000575066,0.03663063,-0.153846741,-0.003663063,-0.003663063,0,0,0,0
37:06.6,300.245,-0.053,0.067,0.054,-0.392,-0.911,-0.016,7.3,-4.88,-50.1,0.6417,-0.6956,-0.0721,-0.3147,0.029,-0.035,0.02,286.86,0.057,-0.14,-0.007,-0.242,-0.956,-0.159,23.23,-21.83,-76.38,-0.7117,0.5388,-0.3578,-0.2737,0.036,-0.008,-0.004,288.27,0.125,0.247,0.092,-0.064,-0.991,0.064,62.17,-11.16,-72.55,-0.4109,0.4531,0.5501,0.5683,0.001,-0.006,-0.049,0,0,0,0,0,0,0.000191689,0.000575066,0.03663063,-0.153846741,-0.003663063,-0.003663063,0,0,0,0
37:06.6,300.075,-0.001,0.443,0.241,-0.338,-0.949,0.08,7.8,-4.82,-51.15,0.6477,-0.703,-0.0666,-0.2859,0.005,-0.005,-0.055,286.86,0.057,-0.14,-0.007,-0.242,-0.956,-0.159,23.23,-21.83,-76.38,-0.7117,0.5388,-0.3578,-0.2737,0.036,-0.008,-0.004,288.27,0.125,0.247,0.092,-0.064,-0.991,0.064,62.17,-11.16,-72.55,-0.4109,0.4531,0.5501,0.5683,0.001,-0.006,-0.049,0,0,0,0,0,0,0.000191689,0.000575066,0.03663063,-0.153846741,-0.003663063,-0.003663063,0,0,0,0
37:06.6,300.205,-0.044,0.128,0.13,-0.449,-0.883,-0.002,7.45,-5.7,-49.98,0.6419,-0.6965,-0.0726,-0.3121,0.09,-0.064,0.008,286.86,0.057,-0.14,-0.007,-0.242,-0.956,-0.159,23.23,-21.83,-76.38,-0.7117,0.5388,-0.3578,-0.2737,0.036,-0.008,-0.004,288.27,0.125,0.247,0.092,-0.064,-0.991,0.064,62.17,-11.16,-72.55,-0.4109,0.4531,0.5501,0.5683,0.001,-0.006,-0.049,0,0,0,0,0,0,0.000191689,0.000575066,0.03663063,-0.153846741,-0.003663063,-0.003663063,0,0,0,0
37:06.6,300.21,-0.039,0.109,0.127,-0.444,-0.878,0,6.92,-5.7,-49.92,0.6419,-0.6964,-0.0725,-0.3125,0.084,-0.068,0.006,286.86,0.057,-0.14,-0.007,-0.242,-0.956,-0.159,23.23,-21.83,-76.38,-0.7117,0.5388,-0.3578,-0.2737,0.036,-0.008,-0.004,288.27,0.125,0.247,0.092,-0.064,-0.991,0.064,62.17,-11.16,-72.55,-0.4109,0.4531,0.5501,0.5683,0.001,-0.006,-0.049,0,0,0,0,0,0,0.000191689,0.000575066,0.03663063,-0.153846741,-0.003663063,-0.003663063,0,0,0,0
37:06.6,300.215,-0.035,0.104,0.12,-0.435,-0.877,0,6.92,-6.81,-49.92,0.6418,-0.6963,-0.0724,-0.3129,0.074,-0.07,0.004,286.86,0.057,-0.14,-0.007,-0.242,-0.956,-0.159,23.23,-21.83,-76.38,-0.7117,0.5388,-0.3578,-0.2737,0.036,-0.008,-0.004,288.27,0.125,0.247,0.092,-0.064,-0.991,0.064,62.17,-11.16,-72.55,-0.4109,0.4531,0.5501,0.5683,0.001,-0.006,-0.049,0,0,0,0,0,0,0.000191689,0.000575066,0.03663063,-0.153846741,-0.003663063,-0.003663063,0,0,0,0
37:06.6,300.22,-0.03,0.092,0.113,-0.428,-0.877,0.003,6.92,-6.81,-49.92,0.6418,-0.6962,-0.0723,-0.3132,0.066,-0.07,0.001,286.86,0.057,-0.14,-0.007,-0.242,-0.956,-0.159,23.23,-21.83,-76.38,-0.7117,0.5388,-0.3578,-0.2737,0.036,-0.008,-0.004,288.27,0.125,0.247,0.092,-0.064,-0.991,0.064,62.17,-11.16,-72.55,-0.4109,0.4531,0.5501,0.5683,0.001,-0.006,-0.049,0,0,0,0,0,0,0.000191689,0.000575066,0.03663063,-0.153846741,-0.003663063,-0.003663063,0,0,0,0
37:06.6,300.225,-0.034,0.092,0.104,-0.423,-0.88,0.004,7.51,-5.93,-49.54,0.6417,-0.6961,-0.0723,-0.3135,0.061,-0.065,0,286.86,0.057,-0.14,-0.007,-0.242,-0.956,-0.159,23.23,-21.83,-76.38,-0.7117,0.5388,-0.3578,-0.2737,0.036,-0.008,-0.004,288.27,0.125,0.247,0.092,-0.064,-0.991,0.064,62.17,-11.16,-72.55,-0.4109,0.4531,0.5501,0.5683,0.001,-0.006,-0.049,0,0,0,0,0,0,0.000191689,0.000575066,0.03663063,-0.153846741,-0.003663063,-0.003663063,0,0,0,0
37:06.6,300.23,-0.039,0.087,0.095,-0.417,-0.887,0.001,7.51,-5.93,-49.54,0.6417,-0.6959,-0.0722,-0.3139,0.055,-0.059,0.002,286.86,0.057,-0.14,-0.007,-0.242,-0.956,-0.159,23.23,-21.83,-76.38,-0.7117,0.5388,-0.3578,-0.2737,0.036,-0.008,-0.004,288.27,0.125,0.247,0.092,-0.064,-0.991,0.064,62.17,-11.16,-72.55,-0.4109,0.4531,0.5501,0.5683,0.001,-0.006,-0.049,0,0,0,0,0,0,0.000191689,0.000575066,0.03663063,-0.153846741,-0.003663063,-0.003663063,0,0,0,0
37:06.6,300.2,-0.047,0.15,0.129,-0.454,-0.887,0.002,7.45,-5.7,-49.98,0.642,-0.6966,-0.0727,-0.3116,0.095,-0.06,0.004,286.86,0.057,-0.14,-0.007,-0.242,-0.956,-0.159,23.23,-21.83,-76.38,-0.7117,0.5388,-0.3578,-0.2737,0.036,-0.008,-0.004,288.27,0.125,0.247,0.092,-0.064,-0.991,0.064,62.17,-11.16,-72.55,-0.4109,0.4531,0.5501,0.5683,0.001,-0.006,-0.049,0,0,0,0,0,0,0.000191689,0.000575066,0.03663063,-0.153846741,-0.003663063,-0.003663063,0,0,0,0
37:06.6,300.235,-0.047,0.088,0.083,-0.413,-0.892,-0.003,7.51,-5.93,-49.54,0.6417,-0.6958,-0.0722,-0.3142,0.05,-0.053,0.008,286.86,0.057,-0.14,-0.007,-0.242,-0.956,-0.159,23.23,-21.83,-76.38,-0.7117,0.5388,-0.3578,-0.2737,0.036,-0.008,-0.004,288.27,0.125,0.247,0.092,-0.064,-0.991,0.064,62.17,-11.16,-72.55,-0.4109,0.4531,0.5501,0.5683,0.001,-0.006,-0.049,0,0,0,0,0,0,0.000191689,0.000575066,0.03663063,-0.153846741,-0.003663063,-0.003663063,0,0,0,0
37:06.6,300.24,-0.05,0.084,0.071,-0.405,-0.899,-0.012,7.3,-4.88,-50.1,0.6417,-0.6957,-0.0721,-0.3144,0.042,-0.046,0.017,286.86,0.057,-0.14,-0.007,-0.242,-0.956,-0.159,23.23,-21.83,-76.38,-0.7117,0.5388,-0.3578,-0.2737,0.036,-0.008,-0.004,288.27,0.125,0.247,0.092,-0.064,-0.991,0.064,62.17,-11.16,-72.55,-0.4109,0.4531,0.5501,0.5683,0.001,-0.006,-0.049,0,0,0,0,0,0,0.000191689,0.000575066,0.03663063,-0.153846741,-0.003663063,-0.003663063,0,0,0,0
37:06.6,300.285,-0.079,-0.157,-0.022,-0.339,-0.993,0.009,6.98,-5.7,-50.39,0.6427,-0.6949,-0.0711,-0.3143,-0.023,0.048,-0.005,286.86,0.057,-0.14,-0.007,-0.242,-0.956,-0.159,23.23,-21.83,-76.38,-0.7117,0.5388,-0.3578,-0.2737,0.036,-0.008,-0.004,288.27,0.125,0.247,0.092,-0.064,-0.991,0.064,62.17,-11.16,-72.55,-0.4109,0.4531,0.5501,0.5683,0.001,-0.006,-0.049,0,0,0,0,0,0,0.000191689,0.000575066,0.03663063,-0.153846741,-0.003663063,-0.003663063,0,0,0,0
37:06.6,300.255,-0.058,0.035,0.03,-0.374,-0.93,-0.015,6.89,-5.29,-49.95,0.6419,-0.6953,-0.072,-0.315,0.011,-0.015,0.019,286.86,0.057,-0.14,-0.007,-0.242,-0.956,-0.159,23.23,-21.83,-76.38,-0.7117,0.5388,-0.3578,-0.2737,0.036,-0.008,-0.004,288.27,0.125,0.247,0.092,-0.064,-0.991,0.064,62.17,-11.16,-72.55,-0.4109,0.4531,0.5501,0.5683,0.001,-0.006,-0.049,0,0,0,0,0,0,0.000191689,0.000575066,0.03663063,-0.153846741,-0.003663063,-0.003663063,0,0,0,0
37:06.6,300.26,-0.061,0.01,0.021,-0.365,-0.942,-0.013,6.89,-5.29,-49.95,0.642,-0.6952,-0.0719,-0.3151,0.001,-0.003,0.017,286.86,0.057,-0.14,-0.007,-0.242,-0.956,-0.159,23.23,-21.83,-76.38,-0.7117,0.5388,-0.3578,-0.2737,0.036,-0.008,-0.004,288.27,0.125,0.247,0.092,-0.064,-0.991,0.064,62.17,-11.16,-72.55,-0.4109,0.4531,0.5501,0.5683,0.001,-0.006,-0.049,0,0,0,0,0,0,0.000191689,0.000575066,0.03663063,-0.153846741,-0.003663063,-0.003663063,0,0,0,0
37:06.6,300.265,-0.062,-0.022,0.008,-0.356,-0.954,-0.008,7.51,-5.67,-49.78,0.6421,-0.6951,-0.0719,-0.3151,-0.007,0.008,0.012,286.86,0.057,-0.14,-0.007,-0.242,-0.956,-0.159,23.23,-21.83,-76.38,-0.7117,0.5388,-0.3578,-0.2737,0.036,-0.008,-0.004,288.27,0.125,0.247,0.092,-0.064,-0.991,0.064,62.17,-11.16,-72.55,-0.4109,0.4531,0.5501,0.5683,0.001,-0.006,-0.049,0,0,0,0,0,0,0.000191689,0.000575066,0.03663063,-0.153846741,-0.003663063,-0.003663063,0,0,0,0
37:06.6,300.27,-0.06,-0.049,0.002,-0.348,-0.964,-0.003,7.51,-5.67,-49.78,0.6422,-0.695,-0.0717,-0.315,-0.014,0.019,0.007,286.86,0.057,-0.14,-0.007,-0.242,-0.956,-0.159,23.23,-21.83,-76.38,-0.7117,0.5388,-0.3578,-0.2737,0.036,-0.008,-0.004,288.27,0.125,0.247,0.092,-0.064,-0.991,0.064,62.17,-11.16,-72.55,-0.4109,0.4531,0.5501,0.5683,0.001,-0.006,-0.049,0,0,0,0,0,0,0.000191689,0.000575066,0.03663063,-0.153846741,-0.003663063,-0.003663063,0,0,0,0
37:06.6,300.275,-0.068,-0.09,-0.009,-0.34,-0.981,0.004,6.98,-5.7,-50.39,0.6424,-0.695,-0.0716,-0.3148,-0.022,0.036,0,286.86,0.057,-0.14,-0.007,-0.242,-0.956,-0.159,23.23,-21.83,-76.38,-0.7117,0.5388,-0.3578,-0.2737,0.036,-0.008,-0.004,288.27,0.125,0.247,0.092,-0.064,-0.991,0.064,62.17,-11.16,-72.55,-0.4109,0.4531,0.5501,0.5683,0.001,-0.006,-0.049,0,0,0,0,0,0,0.000191689,0.000575066,0.03663063,-0.153846741,-0.003663063,-0.003663063,0,0,0,0
37:06.6,300.28,-0.072,-0.119,-0.016,-0.338,-0.987,0.008,6.98,-5.7,-50.39,0.6425,-0.6949,-0.0713,-0.3146,-0.023,0.042,-0.004,286.86,0.057,-0.14,-0.007,-0.242,-0.956,-0.159,23.23,-21.83,-76.38,-0.7117,0.5388,-0.3578,-0.2737,0.036,-0.008,-0.004,288.27,0.125,0.247,0.092,-0.064,-0.991,0.064,62.17,-11.16,-72.55,-0.4109,0.4531,0.5501,0.5683,0.001,-0.006,-0.049,0,0,0,0,0,0,0.000191689,0.000575066,0.03663063,-0.153846741,-0.003663063,-0.003663063,0,0,0,0
37:06.6,300.195,-0.045,0.174,0.131,-0.459,-0.894,0.007,7.42,-5.46,-49.57,0.642,-0.6968,-0.0727,-0.3111,0.1,-0.053,0,286.86,0.057,-0.14,-0.007,-0.242,-0.956,-0.159,23.23,-21.83,-76.38,-0.7117,0.5388,-0.3578,-0.2737,0.036,-0.008,-0.004,288.27,0.125,0.247,0.092,-0.064,-0.991,0.064,62.17,-11.16,-72.55,-0.4109,0.4531,0.5501,0.5683,0.001,-0.006,-0.049,0,0,0,0,0,0,0.000191689,0.000575066,0.03663063,-0.153846741,-0.003663063,-0.003663063,0,0,0,0
37:06.6,300.29,-0.084,-0.195,-0.027,-0.34,-0.997,0.008,6.95,-5.9,-49.98,0.6429,-0.6949,-0.0707,-0.3139,-0.021,0.052,-0.004,286.86,0.057,-0.14,-0.007,-0.242,-0.956,-0.159,23.23,-21.83,-76.38,-0.7117,0.5388,-0.3578,-0.2737,0.036,-0.008,-0.004,288.27,0.125,0.247,0.092,-0.064,-0.991,0.064,62.17,-11.16,-72.55,-0.4109,0.4531,0.5501,0.5683,0.001,-0.006,-0.049,0,0,0,0,0,0,0.000191689,0.000575066,0.03663063,-0.153846741,-0.003663063,-0.003663063,0,0,0,0
37:06.6,300.185,-0.038,0.241,0.126,-0.462,-0.913,0.01,7.77,-5.23,-50.48,0.6422,-0.6972,-0.0727,-0.3099,0.106,-0.035,-0.001,286.86,0.057,-0.14,-0.007,-0.242,-0.956,-0.159,23.23,-21.83,-76.38,-0.7117,0.5388,-0.3578,-0.2737,0.036,-0.008,-0.004,288.27,0.125,0.247,0.092,-0.064,-0.991,0.064,62.17,-11.16,-72.55,-0.4109,0.4531,0.5501,0.5683,0.001,-0.006,-0.049,0,0,0,0,0,0,0.000191689,0.000575066,0.03663063,-0.153846741,-0.003663063,-0.003663063,0,0,0,0
37:06.6,300.3,-0.093,-0.257,-0.039,-0.344,-0.992,0.007,7.04,-4.91,-49.66,0.6434,-0.695,-0.07,-0.313,-0.017,0.046,-0.003,286.86,0.057,-0.14,-0.007,-0.242,-0.956,-0.159,23.23,-21.83,-76.38,-0.7117,0.5388,-0.3578,-0.2737,0.036,-0.008,-0.004,288.27,0.125,0.247,0.092,-0.064,-0.991,0.064,62.17,-11.16,-72.55,-0.4109,0.4531,0.5501,0.5683,0.001,-0.006,-0.049,0,0,0,0,0,0,0.000191689,0.000575066,0.03663063,-0.153846741,-0.003663063,-0.003663063,0,0,0,0
37:06.6,300.09,-0.026,0.461,0.258,-0.36,-0.932,0.065,7.8,-4.88,-51.12,0.647,-0.7021,-0.0673,-0.2895,0.023,-0.02,-0.043,286.86,0.057,-0.14,-0.007,-0.242,-0.956,-0.159,23.23,-21.83,-76.38,-0.7117,0.5388,-0.3578,-0.2737,0.036,-0.008,-0.004,288.27,0.125,0.247,0.092,-0.064,-0.991,0.064,62.17,-11.16,-72.55,-0.4109,0.4531,0.5501,0.5683,0.001,-0.006,-0.049,0,0,0,0,0,0,0.000191689,0.000575066,0.03663063,-0.153846741,-0.003663063,-0.003663063,0,0,0,0
37:06.6,300.31,-0.085,-0.314,-0.046,-0.349,-0.977,-0.002,7.04,-4.91,-49.66,0.6439,-0.6951,-0.069,-0.3118,-0.012,0.031,0.005,286.86,0.057,-0.14,-0.007,-0.242,-0.956,-0.159,23.23,-21.83,-76.38,-0.7117,0.5388,-0.3578,-0.2737,0.036,-0.008,-0.004,288.27,0.125,0.247,0.092,-0.064,-0.991,0.064,62.17,-11.16,-72.55,-0.4109,0.4531,0.5501,0.5683,0.001,-0.006,-0.049,0,0,0,0,0,0,0.000191689,0.000575066,0.03663063,-0.153846741,-0.003663063,-0.003663063,0,0,0,0
37:06.6,300.315,-0.072,-0.328,-0.046,-0.351,-0.969,-0.005,7.27,-4.73,-50.3,0.6441,-0.6953,-0.0685,-0.3112,-0.01,0.023,0.009,286.86,0.057,-0.14,-0.007,-0.242,-0.956,-0.159,23.23,-21.83,-76.38,-0.7117,0.5388,-0.3578,-0.2737,0.036,-0.008,-0.004,288.27,0.125,0.247,0.092,-0.064,-0.991,0.064,62.17,-11.16,-72.55,-0.4109,0.4531,0.5501,0.5683,0.001,-0.006,-0.049,0,0,0,0,0,0,0.000191689,0.000575066,0.03663063,-0.153846741,-0.003663063,-0.003663063,0,0,0,0
37:06.6,300.32,-0.064,-0.348,-0.046,-0.355,-0.962,-0.011,7.27,-4.73,-50.3,0.6444,-0.6954,-0.068,-0.3105,-0.006,0.015,0.015,286.86,0.057,-0.14,-0.007,-0.242,-0.956,-0.159,23.23,-21.83,-76.38,-0.7117,0.5388,-0.3578,-0.2737,0.036,-0.008,-0.004,288.27,0.125,0.247,0.092,-0.064,-0.991,0.064,62.17,-11.16,-72.55,-0.4109,0.4531,0.5501,0.5683,0.001,-0.006,-0.049,0,0,0,0,0,0,0.000191689,0.000575066,0.03663063,-0.153846741,-0.003663063,-0.003663063,0,0,0,0
37:06.6,300.325,-0.051,-0.372,-0.046,-0.361,-0.954,-0.012,6.78,-5.26,-49.69,0.6446,-0.6956,-0.0675,-0.3098,0,0.008,0.016,286.86,0.057,-0.14,-0.007,-0.242,-0.956,-0.159,23.23,-21.83,-76.38,-0.7117,0.5388,-0.3578,-0.2737,0.036,-0.008,-0.004,288.27,0.125,0.247,0.092,-0.064,-0.991,0.064,62.17,-11.16,-72.55,-0.4109,0.4531,0.5501,0.5683,0.001,-0.006,-0.049,0,0,0,0,0,0,0.000191689,0.000575066,0.03663063,-0.153846741,-0.003663063,-0.003663063,0,0,0,0
37:06.6,300.33,-0.041,-0.392,-0.044,-0.368,-0.947,-0.009,6.78,-5.26,-49.69,0.6447,-0.6958,-0.0669,-0.3091,0.006,0,0.013,286.86,0.057,-0.14,-0.007,-0.242,-0.956,-0.159,23.23,-21.83,-76.38,-0.7117,0.5388,-0.3578,-0.2737,0.036,-0.008,-0.004,288.27,0.125,0.247,0.092,-0.064,-0.991,0.064,62.17,-11.16,-72.55,-0.4109,0.4531,0.5501,0.5683,0.001,-0.006,-0.049,0,0,0,0,0,0,0.000191689,0.000575066,0.03663063,-0.153846741,-0.003663063,-0.003663063,0,0,0,0
37:06.6,300.335,-0.032,-0.409,-0.041,-0.375,-0.94,-0.005,6.78,-5.26,-49.69,0.6449,-0.696,-0.0663,-0.3083,0.014,-0.005,0.01,286.86,0.057,-0.14,-0.007,-0.242,-0.956,-0.159,23.23,-21.83,-76.38,-0.7117,0.5388,-0.3578,-0.2737,0.036,-0.008,-0.004,288.27,0.125,0.247,0.092,-0.064,-0.991,0.064,62.17,-11.16,-72.55,-0.4109,0.4531,0.5501,0.5683,0.001,-0.006,-0.049,0,0,0,0,0,0,0.000191689,0.000575066,0.03663063,-0.153846741,-0.003663063,-0.003663063,0,0,0,0
37:06.6,300.34,-0.022,-0.422,-0.036,-0.382,-0.933,-0.002,6.95,-4.88,-50.1,0.6451,-0.6963,-0.0657,-0.3075,0.021,-0.013,0.007,286.86,0.057,-0.14,-0.007,-0.242,-0.956,-0.159,23.23,-21.83,-76.38,-0.7117,0.5388,-0.3578,-0.2737,0.036,-0.008,-0.004,288.27,0.125,0.247,0.092,-0.064,-0.991,0.064,62.17,-11.16,-72.55,-0.4109,0.4531,0.5501,0.5683,0.001,-0.006,-0.049,0,0,0,0,0,0,0.000191689,0.000575066,0.03663063,-0.153846741,-0.003663063,-0.003663063,0,0,0,0
37:06.6,300.345,-0.019,-0.424,-0.031,-0.387,-0.928,0.002,6.95,-4.88,-50.1,0.6452,-0.6966,-0.0651,-0.3067,0.026,-0.018,0.002,286.86,0.057,-0.14,-0.007,-0.242,-0.956,-0.159,23.23,-21.83,-76.38,-0.7117,0.5388,-0.3578,-0.2737,0.036,-0.008,-0.004,288.27,0.125,0.247,0.092,-0.064,-0.991,0.064,62.17,-11.16,-72.55,-0.4109,0.4531,0.5501,0.5683,0.001,-0.006,-0.049,0,0,0,0,0,0,0.000191689,0.000575066,0.03663063,-0.153846741,-0.003663063,-0.003663063,0,0,0,0
37:06.6,300.35,-0.019,-0.423,-0.023,-0.391,-0.92,0.006,7.16,-5.4,-50.8,0.6453,-0.6969,-0.0644,-0.306,0.03,-0.025,0,286.86,0.057,-0.14,-0.007,-0.242,-0.956,-0.159,23.23,-21.83,-76.38,-0.7117,0.5388,-0.3578,-0.2737,0.036,-0.008,-0.004,288.27,0.125,0.247,0.092,-0.064,-0.991,0.064,62.17,-11.16,-72.55,-0.4109,0.4531,0.5501,0.5683,0.001,-0.006,-0.049,0,0,0,0,0,0,0.000191689,0.000575066,0.03663063,-0.153846741,-0.003663063,-0.003663063,0,0,0,0
37:06.6,300.355,-0.02,-0.421,-0.016,-0.395,-0.917,0.012,7.16,-5.4,-50.8,0.6454,-0.6971,-0.0638,-0.3052,0.034,-0.029,-0.006,286.86,0.057,-0.14,-0.007,-0.242,-0.956,-0.159,23.23,-21.83,-76.38,-0.7117,0.5388,-0.3578,-0.2737,0.036,-0.008,-0.004,288.27,0.125,0.247,0.092,-0.064,-0.991,0.064,62.17,-11.16,-72.55,-0.4109,0.4531,0.5501,0.5683,0.001,-0.006,-0.049,0,0,0,0,0,0,0.000191689,0.000575066,0.03663063,-0.153846741,-0.003663063,-0.003663063,0,0,0,0
37:06.6,300.36,-0.022,-0.407,-0.007,-0.394,-0.911,0.023,7.16,-5.4,-50.8,0.6456,-0.6974,-0.0631,-0.3045,0.033,-0.034,-0.016,286.86,0.057,-0.14,-0.007,-0.242,-0.956,-0.159,23.23,-21.83,-76.38,-0.7117,0.5388,-0.3578,-0.2737,0.036,-0.008,-0.004,288.27,0.125,0.247,0.092,-0.064,-0.991,0.064,62.17,-11.16,-72.55,-0.4109,0.4531,0.5501,0.5683,0.001,-0.006,-0.049,0,0,0,0,0,0,0.000191689,0.000575066,0.03663063,-0.153846741,-0.003663063,-0.003663063,0,0,0,0
37:06.6,300.365,-0.022,-0.386,0.001,-0.391,-0.907,0.031,7.3,-5.7,-50.8,0.6457,-0.6977,-0.0625,-0.3038,0.03,-0.038,-0.024,286.86,0.057,-0.14,-0.007,-0.242,-0.956,-0.159,23.23,-21.83,-76.38,-0.7117,0.5388,-0.3578,-0.2737,0.036,-0.008,-0.004,288.27,0.125,0.247,0.092,-0.064,-0.991,0.064,62.17,-11.16,-72.55,-0.4109,0.4531,0.5501,0.5683,0.001,-0.006,-0.049,0,0,0,0,0,0,0.000191689,0.000575066,0.03663063,-0.153846741,-0.003663063,-0.003663063,0,0,0,0
37:06.6,300.37,-0.028,-0.368,0.005,-0.388,-0.904,0.033,7.3,-5.7,-50.8,0.6458,-0.6979,-0.0619,-0.3032,0.027,-0.041,-0.025,286.86,0.057,-0.14,-0.007,-0.242,-0.956,-0.159,23.23,-21.83,-76.38,-0.7117,0.5388,-0.3578,-0.2737,0.036,-0.008,-0.004,288.27,0.125,0.247,0.092,-0.064,-0.991,0.064,62.17,-11.16,-72.55,-0.4109,0.4531,0.5501,0.5683,0.001,-0.006,-0.049,0,0,0,0,0,0,0.000191689,0.000575066,0.03663063,-0.153846741,-0.003663063,-0.003663063,0,0,0,0
37:06.6,300.375,-0.033,-0.349,0.009,-0.382,-0.904,0.036,7.92,-5.58,-50.62,0.6459,-0.6981,-0.0613,-0.3026,0.021,-0.042,-0.027,286.86,0.057,-0.14,-0.007,-0.242,-0.956,-0.159,23.23,-21.83,-76.38,-0.7117,0.5388,-0.3578,-0.2737,0.036,-0.008,-0.004,288.27,0.125,0.247,0.092,-0.064,-0.991,0.064,62.17,-11.16,-72.55,-0.4109,0.4531,0.5501,0.5683,0.001,-0.006,-0.049,0,0,0,0,0,0,0.000191689,0.000575066,0.03663063,-0.153846741,-0.003663063,-0.003663063,0,0,0,0
37:06.6,300.38,-0.046,-0.337,0.013,-0.377,-0.903,0.032,7.92,-5.58,-50.62,0.646,-0.6983,-0.0607,-0.302,0.015,-0.042,-0.023,286.86,0.057,-0.14,-0.007,-0.242,-0.956,-0.159,23.23,-21.83,-76.38,-0.7117,0.5388,-0.3578,-0.2737,0.036,-0.008,-0.004,288.27,0.125,0.247,0.092,-0.064,-0.991,0.064,62.17,-11.16,-72.55,-0.4109,0.4531,0.5501,0.5683,0.001,-0.006,-0.049,0,0,0,0,0,0,0.000191689,0.000575066,0.03663063,-0.153846741,-0.003663063,-0.003663063,0,0,0,0
37:06.6,300.385,-0.051,-0.327,0.014,-0.371,-0.904,0.027,7.92,-5.58,-50.62,0.6462,-0.6984,-0.0601,-0.3015,0.009,-0.041,-0.018,286.86,0.057,-0.14,-0.007,-0.242,-0.956,-0.159,23.23,-21.83,-76.38,-0.7117,0.5388,-0.3578,-0.2737,0.036,-0.008,-0.004,288.27,0.125,0.247,0.092,-0.064,-0.991,0.064,62.17,-11.16,-72.55,-0.4109,0.4531,0.5501,0.5683,0.001,-0.006,-0.049,0,0,0,0,0,0,0.000191689,0.000575066,0.03663063,-0.153846741,-0.003663063,-0.003663063,0,0,0,0
37:06.6,300.39,-0.058,-0.332,0.012,-0.363,-0.905,0.019,7.65,-5.43,-50.68,0.6463,-0.6986,-0.0596,-0.3009,0.002,-0.04,-0.01,286.86,0.057,-0.14,-0.007,-0.242,-0.956,-0.159,23.23,-21.83,-76.38,-0.7117,0.5388,-0.3578,-0.2737,0.036,-0.008,-0.004,288.27,0.125,0.247,0.092,-0.064,-0.991,0.064,62.17,-11.16,-72.55,-0.4109,0.4531,0.5501,0.5683,0.001,-0.006,-0.049,0,0,0,0,0,0,0.000191689,0.000575066,0.03663063,-0.153846741,-0.003663063,-0.003663063,0,0,0,0
37:06.6,300.445,0.087,-0.51,-0.022,-0.301,-0.971,-0.001,6.92,-5.29,-51.88,0.6467,-0.7023,-0.0528,-0.2925,-0.058,0.024,0.02,286.86,0.057,-0.14,-0.007,-0.242,-0.956,-0.159,23.23,-21.83,-76.38,-0.7117,0.5388,-0.3578,-0.2737,0.036,-0.008,-0.004,288.27,0.125,0.247,0.092,-0.064,-0.991,0.064,62.17,-11.16,-72.55,-0.4109,0.4531,0.5501,0.5683,0.001,-0.006,-0.049,0,0,0,0,0,0,0.000191689,0.000575066,0.03663063,-0.153846741,-0.003663063,-0.003663063,0,0,0,0
37:06.6,300.4,-0.05,-0.356,0.008,-0.342,-0.912,0.008,6.95,-5.2,-50.83,0.6466,-0.6989,-0.0583,-0.2997,-0.018,-0.033,0.001,286.86,0.057,-0.14,-0.007,-0.242,-0.956,-0.159,23.23,-21.83,-76.38,-0.7117,0.5388,-0.3578,-0.2737,0.036,-0.008,-0.004,288.27,0.125,0.247,0.092,-0.064,-0.991,0.064,62.17,-11.16,-72.55,-0.4109,0.4531,0.5501,0.5683,0.001,-0.006,-0.049,0,0,0,0,0,0,0.000191689,0.000575066,0.03663063,-0.153846741,-0.003663063,-0.003663063,0,0,0,0
37:06.6,300.405,-0.035,-0.372,0.002,-0.332,-0.919,0.005,6.95,-5.2,-50.83,0.6467,-0.6991,-0.0577,-0.2991,-0.028,-0.026,0.005,286.86,0.057,-0.14,-0.007,-0.242,-0.956,-0.159,23.23,-21.83,-76.38,-0.7117,0.5388,-0.3578,-0.2737,0.036,-0.008,-0.004,288.27,0.125,0.247,0.092,-0.064,-0.991,0.064,62.17,-11.16,-72.55,-0.4109,0.4531,0.5501,0.5683,0.001,-0.006,-0.049,0,0,0,0,0,0,0.000191689,0.000575066,0.03663063,-0.153846741,-0.003663063,-0.003663063,0,0,0,0
37:06.6,300.41,-0.014,-0.384,-0.001,-0.323,-0.927,0.003,6.95,-5.2,-50.83,0.6468,-0.6994,-0.0571,-0.2984,-0.037,-0.018,0.007,286.86,0.057,-0.14,-0.007,-0.242,-0.956,-0.159,23.23,-21.83,-76.38,-0.7117,0.5388,-0.3578,-0.2737,0.036,-0.008,-0.004,288.27,0.125,0.247,0.092,-0.064,-0.991,0.064,62.17,-11.16,-72.55,-0.4109,0.4531,0.5501,0.5683,0.001,-0.006,-0.049,0,0,0,0,0,0,0.000191689,0.000575066,0.03663063,-0.153846741,-0.003663063,-0.003663063,0,0,0,0
37:06.6,300.42,0.035,-0.415,-0.012,-0.311,-0.946,0.004,7.22,-5.02,-51.06,0.6469,-0.7,-0.0559,-0.2969,-0.049,0,0.009,286.86,0.057,-0.14,-0.007,-0.242,-0.956,-0.159,23.23,-21.83,-76.38,-0.7117,0.5388,-0.3578,-0.2737,0.036,-0.008,-0.004,288.27,0.125,0.247,0.092,-0.064,-0.991,0.064,62.17,-11.16,-72.55,-0.4109,0.4531,0.5501,0.5683,0.001,-0.006,-0.049,0,0,0,0,0,0,0.000191689,0.000575066,0.03663063,-0.153846741,-0.003663063,-0.003663063,0,0,0,0
37:06.6,300.395,-0.059,-0.339,0.01,-0.352,-0.908,0.016,7.65,-5.43,-50.68,0.6465,-0.6987,-0.059,-0.3004,-0.008,-0.037,-0.006,286.86,0.057,-0.14,-0.007,-0.242,-0.956,-0.159,23.23,-21.83,-76.38,-0.7117,0.5388,-0.3578,-0.2737,0.036,-0.008,-0.004,288.27,0.125,0.247,0.092,-0.064,-0.991,0.064,62.17,-11.16,-72.55,-0.4109,0.4531,0.5501,0.5683,0.001,-0.006,-0.049,0,0,0,0,0,0,0.000191689,0.000575066,0.03663063,-0.153846741,-0.003663063,-0.003663063,0,0,0,0
37:06.6,300.425,0.057,-0.433,-0.019,-0.309,-0.955,0.002,7.39,-4.99,-51.27,0.6469,-0.7004,-0.0553,-0.2961,-0.051,0.009,0.012,286.86,0.057,-0.14,-0.007,-0.242,-0.956,-0.159,23.23,-21.83,-76.38,-0.7117,0.5388,-0.3578,-0.2737,0.036,-0.008,-0.004,288.27,0.125,0.247,0.092,-0.064,-0.991,0.064,62.17,-11.16,-72.55,-0.4109,0.4531,0.5501,0.5683,0.001,-0.006,-0.049,0,0,0,0,0,0,0.000191689,0.000575066,0.03663063,-0.153846741,-0.003663063,-0.003663063,0,0,0,0
37:06.6,300.435,0.078,-0.468,-0.023,-0.306,-0.967,0,7.39,-4.99,-51.27,0.6468,-0.7013,-0.0541,-0.2944,-0.053,0.02,0.017,286.86,0.057,-0.14,-0.007,-0.242,-0.956,-0.159,23.23,-21.83,-76.38,-0.7117,0.5388,-0.3578,-0.2737,0.036,-0.008,-0.004,288.27,0.125,0.247,0.092,-0.064,-0.991,0.064,62.17,-11.16,-72.55,-0.4109,0.4531,0.5501,0.5683,0.001,-0.006,-0.049,0,0,0,0,0,0,0.000191689,0.000575066,0.03663063,-0.153846741,-0.003663063,-0.003663063,0,0,0,0
37:06.6,300.44,0.085,-0.488,-0.025,-0.303,-0.967,-0.001,6.92,-5.29,-51.88,0.6468,-0.7018,-0.0534,-0.2935,-0.056,0.021,0.02,286.86,0.057,-0.14,-0.007,-0.242,-0.956,-0.159,23.23,-21.83,-76.38,-0.7117,0.5388,-0.3578,-0.2737,0.036,-0.008,-0.004,288.27,0.125,0.247,0.092,-0.064,-0.991,0.064,62.17,-11.16,-72.55,-0.4109,0.4531,0.5501,0.5683,0.001,-0.006,-0.049,0,0,0,0,0,0,0.000191689,0.000575066,0.03663063,-0.153846741,-0.003663063,-0.003663063,0,0,0,0
37:06.6,300.08,-0.013,0.449,0.246,-0.347,-0.944,0.076,7.8,-4.82,-51.15,0.6474,-0.7027,-0.0668,-0.2871,0.013,-0.01,-0.053,286.86,0.057,-0.14,-0.007,-0.242,-0.956,-0.159,23.23,-21.83,-76.38,-0.7117,0.5388,-0.3578,-0.2737,0.036,-0.008,-0.004,288.27,0.125,0.247,0.092,-0.064,-0.991,0.064,62.17,-11.16,-72.55,-0.4109,0.4531,0.5501,0.5683,0.001,-0.006,-0.049,0,0,0,0,0,0,0.000191689,0.000575066,0.03663063,-0.153846741,-0.003663063,-0.003663063,0,0,0,0
37:06.6,300.45,0.086,-0.547,-0.02,-0.297,-0.971,0.001,7.19,-5.32,-51.73,0.6467,-0.7028,-0.052,-0.2915,-0.062,0.024,0.019,286.86,0.057,-0.14,-0.007,-0.242,-0.956,-0.159,23.23,-21.83,-76.38,-0.7117,0.5388,-0.3578,-0.2737,0.036,-0.008,-0.004,288.27,0.125,0.247,0.092,-0.064,-0.991,0.064,62.17,-11.16,-72.55,-0.4109,0.4531,0.5501,0.5683,0.001,-0.006,-0.049,0,0,0,0,0,0,0.000191689,0.000575066,0.03663063,-0.153846741,-0.003663063,-0.003663063,0,0,0,0
37:06.6,300.455,0.077,-0.588,-0.014,-0.296,-0.969,0.006,7.19,-5.32,-51.73,0.6466,-0.7034,-0.0512,-0.2904,-0.063,0.023,0.016,286.86,0.057,-0.14,-0.007,-0.242,-0.956,-0.159,23.23,-21.83,-76.38,-0.7117,0.5388,-0.3578,-0.2737,0.036,-0.008,-0.004,288.27,0.125,0.247,0.092,-0.064,-0.991,0.064,62.17,-11.16,-72.55,-0.4109,0.4531,0.5501,0.5683,0.001,-0.006,-0.049,0,0,0,0,0,0,0.000191689,0.000575066,0.03663063,-0.153846741,-0.003663063,-0.003663063,0,0,0,0
37:06.6,300.465,0.053,-0.655,-0.003,-0.298,-0.966,0.013,7.24,-5.11,-51.5,0.6467,-0.7045,-0.0493,-0.288,-0.061,0.02,0.011,286.86,0.057,-0.14,-0.007,-0.242,-0.956,-0.159,23.23,-21.83,-76.38,-0.7117,0.5388,-0.3578,-0.2737,0.036,-0.008,-0.004,288.27,0.125,0.247,0.092,-0.064,-0.991,0.064,62.17,-11.16,-72.55,-0.4109,0.4531,0.5501,0.5683,0.001,-0.006,-0.049,0,0,0,0,0,0,0.000191689,0.000575066,0.03663063,-0.153846741,-0.003663063,-0.003663063,0,0,0,0
37:06.6,300.47,0.039,-0.691,0.001,-0.299,-0.967,0.019,7.24,-5.11,-51.5,0.6467,-0.705,-0.0482,-0.2868,-0.059,0.02,0.006,286.86,0.057,-0.14,-0.007,-0.242,-0.956,-0.159,23.23,-21.83,-76.38,-0.7117,0.5388,-0.3578,-0.2737,0.036,-0.008,-0.004,288.27,0.125,0.247,0.092,-0.064,-0.991,0.064,62.17,-11.16,-72.55,-0.4109,0.4531,0.5501,0.5683,0.001,-0.006,-0.049,0,0,0,0,0,0,0.000191689,0.000575066,0.03663063,-0.153846741,-0.003663063,-0.003663063,0,0,0,0
37:06.6,300.475,0.026,-0.713,0.005,-0.305,-0.965,0.025,6.86,-5.11,-51.73,0.6467,-0.7056,-0.0471,-0.2855,-0.054,0.018,0.001,286.86,0.057,-0.14,-0.007,-0.242,-0.956,-0.159,23.23,-21.83,-76.38,-0.7117,0.5388,-0.3578,-0.2737,0.036,-0.008,-0.004,288.27,0.125,0.247,0.092,-0.064,-0.991,0.064,62.17,-11.16,-72.55,-0.4109,0.4531,0.5501,0.5683,0.001,-0.006,-0.049,0,0,0,0,0,0,0.000191689,0.000575066,0.03663063,-0.153846741,-0.003663063,-0.003663063,0,0,0,0
37:06.6,300.48,0.016,-0.739,0.01,-0.31,-0.964,0.035,6.86,-4.61,-51.73,0.6468,-0.7061,-0.046,-0.2842,-0.048,0.018,-0.006,286.86,0.057,-0.14,-0.007,-0.242,-0.956,-0.159,23.23,-21.83,-76.38,-0.7117,0.5388,-0.3578,-0.2737,0.036,-0.008,-0.004,288.27,0.125,0.247,0.092,-0.064,-0.991,0.064,62.17,-11.16,-72.55,-0.4109,0.4531,0.5501,0.5683,0.001,-0.006,-0.049,0,0,0,0,0,0,0.000191689,0.000575066,0.03663063,-0.153846741,-0.003663063,-0.003663063,0,0,0,0
37:06.6,300.46,0.066,-0.623,-0.01,-0.296,-0.968,0.009,7.19,-5.32,-51.73,0.6466,-0.7039,-0.0503,-0.2892,-0.063,0.021,0.013,286.86,0.057,-0.14,-0.007,-0.242,-0.956,-0.159,23.23,-21.83,-76.38,-0.7117,0.5388,-0.3578,-0.2737,0.036,-0.008,-0.004,288.27,0.125,0.247,0.092,-0.064,-0.991,0.064,62.17,-11.16,-72.55,-0.4109,0.4531,0.5501,0.5683,0.001,-0.006,-0.049,0,0,0,0,0,0,0.000191689,0.000575066,0.03663063,-0.153846741,-0.003663063,-0.003663063,0,0,0,0
37:06.6,300.49,-0.015,-0.795,0.018,-0.322,-0.964,0.045,6.86,-4.99,-52.26,0.647,-0.7072,-0.0434,-0.2814,-0.036,0.018,-0.013,286.86,0.057,-0.14,-0.007,-0.242,-0.956,-0.159,23.23,-21.83,-76.38,-0.7117,0.5388,-0.3578,-0.2737,0.036,-0.008,-0.004,288.27,0.125,0.247,0.092,-0.064,-0.991,0.064,62.17,-11.16,-72.55,-0.4109,0.4531,0.5501,0.5683,0.001,-0.006,-0.049,0,0,0,0,0,0,0.000191689,0.000575066,0.03663063,-0.153846741,-0.003663063,-0.003663063,0,0,0,0
37:06.6,300.485,-0.005,-0.78,0.016,-0.317,-0.964,0.041,6.86,-4.61,-51.73,0.6469,-0.7066,-0.0447,-0.2828,-0.042,0.018,-0.011,286.86,0.057,-0.14,-0.007,-0.242,-0.956,-0.159,23.23,-21.83,-76.38,-0.7117,0.5388,-0.3578,-0.2737,0.036,-0.008,-0.004,288.27,0.125,0.247,0.092,-0.064,-0.991,0.064,62.17,-11.16,-72.55,-0.4109,0.4531,0.5501,0.5683,0.001,-0.006,-0.049,0,0,0,0,0,0,0.000191689,0.000575066,0.03663063,-0.153846741,-0.003663063,-0.003663063,0,0,0,0
37:06.6,300.52,-0.033,-0.842,0.019,-0.338,-0.956,0.05,7.19,-5.11,-52.17,0.6479,-0.7102,-0.0352,-0.2726,-0.02,0.01,-0.011,286.86,0.057,-0.14,-0.007,-0.242,-0.956,-0.159,23.23,-21.83,-76.38,-0.7117,0.5388,-0.3578,-0.2737,0.036,-0.008,-0.004,288.27,0.125,0.247,0.092,-0.064,-0.991,0.064,62.17,-11.16,-72.55,-0.4109,0.4531,0.5501,0.5683,0.001,-0.006,-0.049,0,0,0,0,0,0,0.000191689,0.000575066,0.03663063,-0.153846741,-0.003663063,-0.003663063,0,0,0,0
37:06.6,300.515,-0.036,-0.845,0.017,-0.337,-0.955,0.047,7.19,-5.11,-52.17,0.6478,-0.7097,-0.0366,-0.2741,-0.021,0.009,-0.01,286.86,0.057,-0.14,-0.007,-0.242,-0.956,-0.159,23.23,-21.83,-76.38,-0.7117,0.5388,-0.3578,-0.2737,0.036,-0.008,-0.004,288.27,0.125,0.247,0.092,-0.064,-0.991,0.064,62.17,-11.16,-72.55,-0.4109,0.4531,0.5501,0.5683,0.001,-0.006,-0.049,0,0,0,0,0,0,0.000191689,0.000575066,0.03663063,-0.153846741,-0.003663063,-0.003663063,0,0,0,0
37:06.6,300.43,0.071,-0.446,-0.022,-0.306,-0.961,0,7.39,-4.99,-51.27,0.6469,-0.7009,-0.0547,-0.2953,-0.053,0.015,0.015,286.86,0.057,-0.14,-0.007,-0.242,-0.956,-0.159,23.23,-21.83,-76.38,-0.7117,0.5388,-0.3578,-0.2737,0.036,-0.008,-0.004,288.27,0.125,0.247,0.092,-0.064,-0.991,0.064,62.17,-11.16,-72.55,-0.4109,0.4531,0.5501,0.5683,0.001,-0.006,-0.049,0,0,0,0,0,0,0.000191689,0.000575066,0.03663063,-0.153846741,-0.003663063,-0.003663063,0,0,0,0
37:06.6,300.305,-0.088,-0.295,-0.045,-0.347,-0.985,0.004,7.04,-4.91,-49.66,0.6437,-0.695,-0.0695,-0.3124,-0.014,0.04,0,286.86,0.057,-0.14,-0.007,-0.242,-0.956,-0.159,23.23,-21.83,-76.38,-0.7117,0.5388,-0.3578,-0.2737,0.036,-0.008,-0.004,288.27,0.125,0.247,0.092,-0.064,-0.991,0.064,62.17,-11.16,-72.55,-0.4109,0.4531,0.5501,0.5683,0.001,-0.006,-0.049,0,0,0,0,0,0,0.000191689,0.000575066,0.03663063,-0.153846741,-0.003663063,-0.003663063,0,0,0,0
37:06.6,300.505,-0.033,-0.834,0.016,-0.332,-0.96,0.044,6.57,-5.08,-52.06,0.6475,-0.7087,-0.0394,-0.2771,-0.026,0.014,-0.009,286.86,0.057,-0.14,-0.007,-0.242,-0.956,-0.159,23.23,-21.83,-76.38,-0.7117,0.5388,-0.3578,-0.2737,0.036,-0.008,-0.004,288.27,0.125,0.247,0.092,-0.064,-0.991,0.064,62.17,-11.16,-72.55,-0.4109,0.4531,0.5501,0.5683,0.001,-0.006,-0.049,0,0,0,0,0,0,0.000191689,0.000575066,0.03663063,-0.153846741,-0.003663063,-0.003663063,0,0,0,0
37:06.6,300.5,-0.031,-0.827,0.02,-0.33,-0.962,0.045,6.86,-4.99,-52.26,0.6473,-0.7082,-0.0407,-0.2786,-0.028,0.016,-0.011,286.86,0.057,-0.14,-0.007,-0.242,-0.956,-0.159,23.23,-21.83,-76.38,-0.7117,0.5388,-0.3578,-0.2737,0.036,-0.008,-0.004,288.27,0.125,0.247,0.092,-0.064,-0.991,0.064,62.17,-11.16,-72.55,-0.4109,0.4531,0.5501,0.5683,0.001,-0.006,-0.049,0,0,0,0,0,0,0.000191689,0.000575066,0.03663063,-0.153846741,-0.003663063,-0.003663063,0,0,0,0
37:06.6,300.495,-0.021,-0.813,0.023,-0.325,-0.963,0.045,6.86,-4.99,-52.26,0.6472,-0.7077,-0.0421,-0.28,-0.033,0.017,-0.012,286.86,0.057,-0.14,-0.007,-0.242,-0.956,-0.159,23.23,-21.83,-76.38,-0.7117,0.5388,-0.3578,-0.2737,0.036,-0.008,-0.004,288.27,0.125,0.247,0.092,-0.064,-0.991,0.064,62.17,-11.16,-72.55,-0.4109,0.4531,0.5501,0.5683,0.001,-0.006,-0.049,0,0,0,0,0,0,0.000191689,0.000575066,0.03663063,-0.153846741,-0.003663063,-0.003663063,0,0,0,0
37:06.6,300.51,-0.037,-0.843,0.016,-0.336,-0.958,0.046,6.57,-5.08,-52.06,0.6476,-0.7092,-0.038,-0.2756,-0.022,0.012,-0.009,286.86,0.057,-0.14,-0.007,-0.242,-0.956,-0.159,23.23,-21.83,-76.38,-0.7117,0.5388,-0.3578,-0.2737,0.036,-0.008,-0.004,288.27,0.125,0.247,0.092,-0.064,-0.991,0.064,62.17,-11.16,-72.55,-0.4109,0.4531,0.5501,0.5683,0.001,-0.006,-0.049,0,0,0,0,0,0,0.000191689,0.000575066,0.03663063,-0.153846741,-0.003663063,-0.003663063,0,0,0,0
37:06.6,300.565,0.033,-0.652,0.046,-0.327,-0.958,0.043,6.92,-5.75,-53.34,0.6482,-0.7147,-0.0241,-0.2611,-0.031,0.013,0.006,286.86,0.057,-0.14,-0.007,-0.242,-0.956,-0.159,23.23,-21.83,-76.38,-0.7117,0.5388,-0.3578,-0.2737,0.036,-0.008,-0.004,288.76,-0.197,-0.362,0.027,-0.051,-1.001,0.012,61.94,-12.48,-73.42,-0.3964,0.4593,0.5486,0.575,-0.043,0.005,0.012,0,0,0,0,0,0,0,0.000575066,-0.029303551,0.043955803,-0.003663063,-0.003663063,0,0,0,0
37:06.6,300.525,-0.025,-0.829,0.023,-0.339,-0.957,0.052,7.19,-5.11,-52.17,0.648,-0.7108,-0.0339,-0.2712,-0.019,0.011,-0.012,286.86,0.057,-0.14,-0.007,-0.242,-0.956,-0.159,23.23,-21.83,-76.38,-0.7117,0.5388,-0.3578,-0.2737,0.036,-0.008,-0.004,288.76,-0.197,-0.362,0.027,-0.051,-1.001,0.012,61.94,-12.48,-73.42,-0.3964,0.4593,0.5486,0.575,-0.043,0.005,0.012,0,0,0,0,0,0,0,0.000575066,-0.029303551,0.043955803,-0.003663063,-0.003663063,0,0,0,0
37:06.6,300.53,-0.017,-0.818,0.028,-0.339,-0.959,0.053,6.57,-4.99,-52.55,0.6481,-0.7113,-0.0325,-0.2698,-0.019,0.013,-0.012,286.86,0.057,-0.14,-0.007,-0.242,-0.956,-0.159,23.23,-21.83,-76.38,-0.7117,0.5388,-0.3578,-0.2737,0.036,-0.008,-0.004,288.76,-0.197,-0.362,0.027,-0.051,-1.001,0.012,61.94,-12.48,-73.42,-0.3964,0.4593,0.5486,0.575,-0.043,0.005,0.012,0,0,0,0,0,0,0,0.000575066,-0.029303551,0.043955803,-0.003663063,-0.003663063,0,0,0,0
37:06.6,300.535,-0.009,-0.796,0.034,-0.336,-0.957,0.053,6.57,-4.99,-52.55,0.6482,-0.7118,-0.0312,-0.2684,-0.022,0.011,-0.01,286.86,0.057,-0.14,-0.007,-0.242,-0.956,-0.159,23.23,-21.83,-76.38,-0.7117,0.5388,-0.3578,-0.2737,0.036,-0.008,-0.004,288.76,-0.197,-0.362,0.027,-0.051,-1.001,0.012,61.94,-12.48,-73.42,-0.3964,0.4593,0.5486,0.575,-0.043,0.005,0.012,0,0,0,0,0,0,0,0.000575066,-0.029303551,0.043955803,-0.003663063,-0.003663063,0,0,0,0
37:06.6,300.54,0.002,-0.767,0.041,-0.335,-0.957,0.052,7.8,-5.61,-53.37,0.6483,-0.7123,-0.0299,-0.2671,-0.023,0.011,-0.008,286.86,0.057,-0.14,-0.007,-0.242,-0.956,-0.159,23.23,-21.83,-76.38,-0.7117,0.5388,-0.3578,-0.2737,0.036,-0.008,-0.004,288.76,-0.197,-0.362,0.027,-0.051,-1.001,0.012,61.94,-12.48,-73.42,-0.3964,0.4593,0.5486,0.575,-0.043,0.005,0.012,0,0,0,0,0,0,0,0.000575066,-0.029303551,0.043955803,-0.003663063,-0.003663063,0,0,0,0
37:06.6,300.545,0.01,-0.741,0.046,-0.334,-0.957,0.048,7.8,-5.61,-53.37,0.6483,-0.7128,-0.0287,-0.2658,-0.024,0.011,-0.003,286.86,0.057,-0.14,-0.007,-0.242,-0.956,-0.159,23.23,-21.83,-76.38,-0.7117,0.5388,-0.3578,-0.2737,0.036,-0.008,-0.004,288.76,-0.197,-0.362,0.027,-0.051,-1.001,0.012,61.94,-12.48,-73.42,-0.3964,0.4593,0.5486,0.575,-0.043,0.005,0.012,0,0,0,0,0,0,0,0.000575066,-0.029303551,0.043955803,-0.003663063,-0.003663063,0,0,0,0
37:06.6,300.55,0.013,-0.717,0.046,-0.33,-0.957,0.046,7.8,-5.61,-53.37,0.6483,-0.7133,-0.0275,-0.2646,-0.028,0.011,0,286.86,0.057,-0.14,-0.007,-0.242,-0.956,-0.159,23.23,-21.83,-76.38,-0.7117,0.5388,-0.3578,-0.2737,0.036,-0.008,-0.004,288.76,-0.197,-0.362,0.027,-0.051,-1.001,0.012,61.94,-12.48,-73.42,-0.3964,0.4593,0.5486,0.575,-0.043,0.005,0.012,0,0,0,0,0,0,0,0.000575066,-0.029303551,0.043955803,-0.003663063,-0.003663063,0,0,0,0
37:06.6,300.555,0.021,-0.697,0.048,-0.328,-0.956,0.044,6.84,-4.79,-53.23,0.6483,-0.7138,-0.0263,-0.2634,-0.031,0.01,0.003,286.86,0.057,-0.14,-0.007,-0.242,-0.956,-0.159,23.23,-21.83,-76.38,-0.7117,0.5388,-0.3578,-0.2737,0.036,-0.008,-0.004,288.76,-0.197,-0.362,0.027,-0.051,-1.001,0.012,61.94,-12.48,-73.42,-0.3964,0.4593,0.5486,0.575,-0.043,0.005,0.012,0,0,0,0,0,0,0,0.000575066,-0.029303551,0.043955803,-0.003663063,-0.003663063,0,0,0,0
37:06.6,300.56,0.026,-0.674,0.047,-0.326,-0.956,0.042,6.84,-4.79,-53.23,0.6483,-0.7143,-0.0252,-0.2623,-0.032,0.01,0.006,286.86,0.057,-0.14,-0.007,-0.242,-0.956,-0.159,23.23,-21.83,-76.38,-0.7117,0.5388,-0.3578,-0.2737,0.036,-0.008,-0.004,288.76,-0.197,-0.362,0.027,-0.051,-1.001,0.012,61.94,-12.48,-73.42,-0.3964,0.4593,0.5486,0.575,-0.043,0.005,0.012,0,0,0,0,0,0,0,0.000575066,-0.029303551,0.043955803,-0.003663063,-0.003663063,0,0,0,0
37:06.6,300.61,0.067,-0.577,-0.005,-0.349,-0.953,0.062,6.1,-5.08,-53.75,0.6477,-0.7188,-0.016,-0.2518,-0.009,0.008,-0.001,286.86,0.057,-0.14,-0.007,-0.242,-0.956,-0.159,23.23,-21.83,-76.38,-0.7117,0.5388,-0.3578,-0.2737,0.036,-0.008,-0.004,288.76,-0.197,-0.362,0.027,-0.051,-1.001,0.012,61.94,-12.48,-73.42,-0.3964,0.4593,0.5486,0.575,-0.043,0.005,0.012,0,0,0,0,0,0,0,0.000575066,-0.029303551,0.043955803,-0.003663063,-0.003663063,0,0,0,0
37:06.6,300.58,0.047,-0.585,0.023,-0.337,-0.95,0.048,6.48,-4.88,-53.31,0.6481,-0.7161,-0.0211,-0.258,-0.022,0.005,0.005,286.86,0.057,-0.14,-0.007,-0.242,-0.956,-0.159,23.23,-21.83,-76.38,-0.7117,0.5388,-0.3578,-0.2737,0.036,-0.008,-0.004,288.76,-0.197,-0.362,0.027,-0.051,-1.001,0.012,61.94,-12.48,-73.42,-0.3964,0.4593,0.5486,0.575,-0.043,0.005,0.012,0,0,0,0,0,0,0,0.000575066,-0.029303551,0.043955803,-0.003663063,-0.003663063,0,0,0,0
37:06.6,300.585,0.046,-0.576,0.015,-0.341,-0.948,0.048,6.48,-4.88,-53.31,0.648,-0.7165,-0.0202,-0.257,-0.017,0.002,0.006,286.86,0.057,-0.14,-0.007,-0.242,-0.956,-0.159,23.23,-21.83,-76.38,-0.7117,0.5388,-0.3578,-0.2737,0.036,-0.008,-0.004,288.76,-0.197,-0.362,0.027,-0.051,-1.001,0.012,61.94,-12.48,-73.42,-0.3964,0.4593,0.5486,0.575,-0.043,0.005,0.012,0,0,0,0,0,0,0,0.000575066,-0.029303551,0.043955803,-0.003663063,-0.003663063,0,0,0,0
37:06.6,300.59,0.05,-0.566,0.007,-0.341,-0.949,0.048,6.13,-4.58,-53.4,0.648,-0.717,-0.0194,-0.2559,-0.017,0.003,0.007,286.86,0.057,-0.14,-0.007,-0.242,-0.956,-0.159,23.23,-21.83,-76.38,-0.7117,0.5388,-0.3578,-0.2737,0.036,-0.008,-0.004,288.76,-0.197,-0.362,0.027,-0.051,-1.001,0.012,61.94,-12.48,-73.42,-0.3964,0.4593,0.5486,0.575,-0.043,0.005,0.012,0,0,0,0,0,0,0,0.000575066,-0.029303551,0.043955803,-0.003663063,-0.003663063,0,0,0,0
37:06.6,300.595,0.053,-0.561,0.001,-0.341,-0.947,0.05,6.13,-4.58,-53.4,0.6479,-0.7174,-0.0185,-0.2549,-0.018,0.001,0.006,286.86,0.057,-0.14,-0.007,-0.242,-0.956,-0.159,23.23,-21.83,-76.38,-0.7117,0.5388,-0.3578,-0.2737,0.036,-0.008,-0.004,288.76,-0.197,-0.362,0.027,-0.051,-1.001,0.012,61.94,-12.48,-73.42,-0.3964,0.4593,0.5486,0.575,-0.043,0.005,0.012,0,0,0,0,0,0,0,0.000575066,-0.029303551,0.043955803,-0.003663063,-0.003663063,0,0,0,0
37:06.6,300.6,0.06,-0.569,-0.003,-0.341,-0.949,0.054,6.13,-4.58,-53.4,0.6479,-0.7179,-0.0177,-0.2539,-0.018,0.004,0.004,286.86,0.057,-0.14,-0.007,-0.242,-0.956,-0.159,23.23,-21.83,-76.38,-0.7117,0.5388,-0.3578,-0.2737,0.036,-0.008,-0.004,288.76,-0.197,-0.362,0.027,-0.051,-1.001,0.012,61.94,-12.48,-73.42,-0.3964,0.4593,0.5486,0.575,-0.043,0.005,0.012,0,0,0,0,0,0,0,0.000575066,-0.029303551,0.043955803,-0.003663063,-0.003663063,0,0,0,0
37:06.6,300.605,0.065,-0.573,-0.005,-0.344,-0.95,0.057,6.1,-5.08,-53.75,0.6478,-0.7183,-0.0168,-0.2528,-0.014,0.004,0.002,286.86,0.057,-0.14,-0.007,-0.242,-0.956,-0.159,23.23,-21.83,-76.38,-0.7117,0.5388,-0.3578,-0.2737,0.036,-0.008,-0.004,288.76,-0.197,-0.362,0.027,-0.051,-1.001,0.012,61.94,-12.48,-73.42,-0.3964,0.4593,0.5486,0.575,-0.043,0.005,0.012,0,0,0,0,0,0,0,0.000575066,-0.029303551,0.043955803,-0.003663063,-0.003663063,0,0,0,0
37:06.6,300.57,0.041,-0.623,0.036,-0.33,-0.957,0.044,6.92,-5.75,-53.34,0.6482,-0.7152,-0.0231,-0.2601,-0.028,0.011,0.006,286.86,0.057,-0.14,-0.007,-0.242,-0.956,-0.159,23.23,-21.83,-76.38,-0.7117,0.5388,-0.3578,-0.2737,0.036,-0.008,-0.004,288.76,-0.197,-0.362,0.027,-0.051,-1.001,0.012,61.94,-12.48,-73.42,-0.3964,0.4593,0.5486,0.575,-0.043,0.005,0.012,0,0,0,0,0,0,0,0.000575066,-0.029303551,0.043955803,-0.003663063,-0.003663063,0,0,0,0
37:06.6,300.575,0.045,-0.608,0.031,-0.335,-0.955,0.046,6.92,-5.75,-53.34,0.6481,-0.7157,-0.0221,-0.259,-0.023,0.01,0.005,286.86,0.057,-0.14,-0.007,-0.242,-0.956,-0.159,23.23,-21.83,-76.38,-0.7117,0.5388,-0.3578,-0.2737,0.036,-0.008,-0.004,288.76,-0.197,-0.362,0.027,-0.051,-1.001,0.012,61.94,-12.48,-73.42,-0.3964,0.4593,0.5486,0.575,-0.043,0.005,0.012,0,0,0,0,0,0,0,0.000575066,-0.029303551,0.043955803,-0.003663063,-0.003663063,0,0,0,0
37:06.6,300.65,-0.07,-0.504,0.032,-0.378,-0.956,0.085,5.67,-5.34,-54.22,0.648,-0.7214,-0.0088,-0.2439,0.02,0.011,-0.017,286.86,0.057,-0.14,-0.007,-0.242,-0.956,-0.159,23.23,-21.83,-76.38,-0.7117,0.5388,-0.3578,-0.2737,0.036,-0.008,-0.004,288.91,0.008,-0.112,0.003,-0.158,-1.009,-0.079,60.71,-11.51,-74.68,-0.4295,0.4773,0.506,0.5757,0.044,0.016,0.048,0,0,0,0,0,0,0,0.000575066,-0.029303551,0.043955803,-0.003663063,-0.003663063,0,0,0,0
37:06.6,300.645,-0.057,-0.524,0.022,-0.377,-0.958,0.084,5.67,-5.34,-54.22,0.6479,-0.7212,-0.0097,-0.2447,0.019,0.012,-0.017,286.86,0.057,-0.14,-0.007,-0.242,-0.956,-0.159,23.23,-21.83,-76.38,-0.7117,0.5388,-0.3578,-0.2737,0.036,-0.008,-0.004,288.91,0.008,-0.112,0.003,-0.158,-1.009,-0.079,60.71,-11.51,-74.68,-0.4295,0.4773,0.506,0.5757,0.044,0.016,0.048,0,0,0,0,0,0,0,0.000575066,-0.029303551,0.043955803,-0.003663063,-0.003663063,0,0,0,0
37:06.6,300.64,-0.044,-0.545,0.013,-0.378,-0.959,0.083,5.67,-5.34,-54.22,0.6478,-0.721,-0.0107,-0.2456,0.02,0.014,-0.016,286.86,0.057,-0.14,-0.007,-0.242,-0.956,-0.159,23.23,-21.83,-76.38,-0.7117,0.5388,-0.3578,-0.2737,0.036,-0.008,-0.004,288.91,0.008,-0.112,0.003,-0.158,-1.009,-0.079,60.71,-11.51,-74.68,-0.4295,0.4773,0.506,0.5757,0.044,0.016,0.048,0,0,0,0,0,0,0,0.000575066,-0.029303551,0.043955803,-0.003663063,-0.003663063,0,0,0,0
37:06.6,300.625,0.024,-0.57,-0.002,-0.374,-0.961,0.075,6.19,-4.91,-53.25,0.6476,-0.7201,-0.0134,-0.2486,0.015,0.015,-0.01,286.86,0.057,-0.14,-0.007,-0.242,-0.956,-0.159,23.23,-21.83,-76.38,-0.7117,0.5388,-0.3578,-0.2737,0.036,-0.008,-0.004,288.91,0.008,-0.112,0.003,-0.158,-1.009,-0.079,60.71,-11.51,-74.68,-0.4295,0.4773,0.506,0.5757,0.044,0.016,0.048,0,0,0,0,0,0,0,0.000575066,-0.029303551,0.043955803,-0.003663063,-0.003663063,0,0,0,0
37:06.6,300.63,0.002,-0.57,0,-0.376,-0.962,0.077,5.84,-5.14,-53.99,0.6476,-0.7204,-0.0125,-0.2476,0.018,0.016,-0.012,286.86,0.057,-0.14,-0.007,-0.242,-0.956,-0.159,23.23,-21.83,-76.38,-0.7117,0.5388,-0.3578,-0.2737,0.036,-0.008,-0.004,288.91,0.008,-0.112,0.003,-0.158,-1.009,-0.079,60.71,-11.51,-74.68,-0.4295,0.4773,0.506,0.5757,0.044,0.016,0.048,0,0,0,0,0,0,0,0.000575066,-0.029303551,0.043955803,-0.003663063,-0.003663063,0,0,0,0
37:06.6,300.655,-0.073,-0.482,0.049,-0.388,-0.955,0.085,5.49,-6.46,-53.87,0.6481,-0.7215,-0.008,-0.2431,0.029,0.01,-0.016,286.86,0.057,-0.14,-0.007,-0.242,-0.956,-0.159,23.23,-21.83,-76.38,-0.7117,0.5388,-0.3578,-0.2737,0.036,-0.008,-0.004,288.91,0.008,-0.112,0.003,-0.158,-1.009,-0.079,60.71,-11.51,-74.68,-0.4295,0.4773,0.506,0.5757,0.044,0.016,0.048,0,0,0,0,0,0,0,0.000575066,-0.029303551,0.043955803,-0.003663063,-0.003663063,0,0,0,0
37:06.6,300.615,0.061,-0.575,-0.002,-0.357,-0.955,0.068,6.19,-4.91,-53.25,0.6476,-0.7193,-0.0151,-0.2507,-0.001,0.009,-0.006,286.86,0.057,-0.14,-0.007,-0.242,-0.956,-0.159,23.23,-21.83,-76.38,-0.7117,0.5388,-0.3578,-0.2737,0.036,-0.008,-0.004,288.91,0.008,-0.112,0.003,-0.158,-1.009,-0.079,60.71,-11.51,-74.68,-0.4295,0.4773,0.506,0.5757,0.044,0.016,0.048,0,0,0,0,0,0,0,0.000575066,-0.029303551,0.043955803,-0.003663063,-0.003663063,0,0,0,0
37:06.6,300.635,-0.028,-0.559,0.005,-0.378,-0.962,0.08,5.84,-5.14,-53.99,0.6477,-0.7207,-0.0116,-0.2466,0.02,0.017,-0.014,286.86,0.057,-0.14,-0.007,-0.242,-0.956,-0.159,23.23,-21.83,-76.38,-0.7117,0.5388,-0.3578,-0.2737,0.036,-0.008,-0.004,288.91,0.008,-0.112,0.003,-0.158,-1.009,-0.079,60.71,-11.51,-74.68,-0.4295,0.4773,0.506,0.5757,0.044,0.016,0.048,0,0,0,0,0,0,0,0.000575066,-0.029303551,0.043955803,-0.003663063,-0.003663063,0,0,0,0
37:06.6,300.66,-0.075,-0.458,0.064,-0.396,-0.952,0.087,5.49,-6.46,-53.87,0.6482,-0.7217,-0.0071,-0.2423,0.038,0.006,-0.018,286.86,0.057,-0.14,-0.007,-0.242,-0.956,-0.159,23.23,-21.83,-76.38,-0.7117,0.5388,-0.3578,-0.2737,0.036,-0.008,-0.004,288.91,0.008,-0.112,0.003,-0.158,-1.009,-0.079,60.71,-11.51,-74.68,-0.4295,0.4773,0.506,0.5757,0.044,0.016,0.048,0,0,0,0,0,0,0,0.000575066,-0.029303551,0.043955803,-0.003663063,-0.003663063,0,0,0,0
37:06.6,300.685,-0.044,-0.429,0.094,-0.414,-0.937,0.076,5.29,-5.37,-53.78,0.6486,-0.7225,-0.0026,-0.239,0.054,-0.007,-0.005,286.86,0.057,-0.14,-0.007,-0.242,-0.956,-0.159,23.23,-21.83,-76.38,-0.7117,0.5388,-0.3578,-0.2737,0.036,-0.008,-0.004,288.91,0.008,-0.112,0.003,-0.158,-1.009,-0.079,60.71,-11.51,-74.68,-0.4295,0.4773,0.506,0.5757,0.044,0.016,0.048,0,0,0,0,0,0,0,0.000575066,-0.029303551,0.043955803,-0.003663063,-0.003663063,0,0,0,0
37:06.6,300.675,-0.069,-0.444,0.087,-0.412,-0.946,0.082,5.64,-5.17,-53.93,0.6485,-0.7221,-0.0043,-0.2403,0.053,0,-0.012,286.86,0.057,-0.14,-0.007,-0.242,-0.956,-0.159,23.23,-21.83,-76.38,-0.7117,0.5388,-0.3578,-0.2737,0.036,-0.008,-0.004,288.91,0.008,-0.112,0.003,-0.158,-1.009,-0.079,60.71,-11.51,-74.68,-0.4295,0.4773,0.506,0.5757,0.044,0.016,0.048,0,0,0,0,0,0,0,0.000575066,-0.029303551,0.043955803,-0.003663063,-0.003663063,0,0,0,0
37:06.6,300.68,-0.058,-0.441,0.092,-0.415,-0.943,0.08,5.29,-5.37,-53.78,0.6486,-0.7223,-0.0034,-0.2397,0.055,-0.001,-0.01,286.86,0.057,-0.14,-0.007,-0.242,-0.956,-0.159,23.23,-21.83,-76.38,-0.7117,0.5388,-0.3578,-0.2737,0.036,-0.008,-0.004,288.91,0.008,-0.112,0.003,-0.158,-1.009,-0.079,60.71,-11.51,-74.68,-0.4295,0.4773,0.506,0.5757,0.044,0.016,0.048,0,0,0,0,0,0,0,0.000575066,-0.029303551,0.043955803,-0.003663063,-0.003663063,0,0,0,0
37:06.6,300.69,-0.03,-0.412,0.096,-0.415,-0.931,0.075,5.46,-5.67,-54.13,0.6486,-0.7227,-0.0017,-0.2385,0.055,-0.013,-0.004,286.86,0.057,-0.14,-0.007,-0.242,-0.956,-0.159,23.23,-21.83,-76.38,-0.7117,0.5388,-0.3578,-0.2737,0.036,-0.008,-0.004,288.91,0.008,-0.112,0.003,-0.158,-1.009,-0.079,60.71,-11.51,-74.68,-0.4295,0.4773,0.506,0.5757,0.044,0.016,0.048,0,0,0,0,0,0,0,0.000575066,-0.029303551,0.043955803,-0.003663063,-0.003663063,0,0,0,0
37:06.6,300.695,-0.019,-0.386,0.093,-0.414,-0.926,0.073,5.46,-5.67,-54.13,0.6486,-0.7229,-0.0009,-0.2379,0.053,-0.017,-0.002,286.86,0.057,-0.14,-0.007,-0.242,-0.956,-0.159,23.23,-21.83,-76.38,-0.7117,0.5388,-0.3578,-0.2737,0.036,-0.008,-0.004,288.91,0.008,-0.112,0.003,-0.158,-1.009,-0.079,60.71,-11.51,-74.68,-0.4295,0.4773,0.506,0.5757,0.044,0.016,0.048,0,0,0,0,0,0,0,0.000575066,-0.029303551,0.043955803,-0.003663063,-0.003663063,0,0,0,0
37:06.6,300.7,-0.011,-0.364,0.091,-0.411,-0.922,0.07,5.46,-5.67,-54.13,0.6486,-0.7231,-0.0001,-0.2374,0.05,-0.022,0.001,286.86,0.057,-0.14,-0.007,-0.242,-0.956,-0.159,23.23,-21.83,-76.38,-0.7117,0.5388,-0.3578,-0.2737,0.036,-0.008,-0.004,288.91,0.008,-0.112,0.003,-0.158,-1.009,-0.079,60.71,-11.51,-74.68,-0.4295,0.4773,0.506,0.5757,0.044,0.016,0.048,0,0,0,0,0,0,0,0.000575066,-0.029303551,0.043955803,-0.003663063,-0.003663063,0,0,0,0
37:06.6,300.705,-0.003,-0.35,0.09,-0.411,-0.923,0.063,5.05,-4.7,-53.52,0.6485,-0.7232,0.0005,-0.237,0.049,-0.021,0.008,286.86,0.057,-0.14,-0.007,-0.242,-0.956,-0.159,23.23,-21.83,-76.38,-0.7117,0.5388,-0.3578,-0.2737,0.036,-0.008,-0.004,288.91,0.008,-0.112,0.003,-0.158,-1.009,-0.079,60.71,-11.51,-74.68,-0.4295,0.4773,0.506,0.5757,0.044,0.016,0.048,0,0,0,0,0,0,0,0.000575066,-0.029303551,0.043955803,-0.003663063,-0.003663063,0,0,0,0
37:06.6,300.72,0.017,-0.322,0.081,-0.409,-0.932,0.058,5.49,-4.67,-53.66,0.6483,-0.7239,0.0025,-0.2356,0.046,-0.011,0.015,286.86,0.057,-0.14,-0.007,-0.242,-0.956,-0.159,23.23,-21.83,-76.38,-0.7117,0.5388,-0.3578,-0.2737,0.036,-0.008,-0.004,288.91,0.008,-0.112,0.003,-0.158,-1.009,-0.079,60.71,-11.51,-74.68,-0.4295,0.4773,0.506,0.5757,0.044,0.016,0.048,0,0,0,0,0,0,0,0.000575066,-0.029303551,0.043955803,-0.003663063,-0.003663063,0,0,0,0
37:06.6,300.71,0.004,-0.339,0.087,-0.41,-0.925,0.059,5.05,-4.7,-53.52,0.6485,-0.7234,0.0012,-0.2365,0.049,-0.019,0.013,286.86,0.057,-0.14,-0.007,-0.242,-0.956,-0.159,23.23,-21.83,-76.38,-0.7117,0.5388,-0.3578,-0.2737,0.036,-0.008,-0.004,288.91,0.008,-0.112,0.003,-0.158,-1.009,-0.079,60.71,-11.51,-74.68,-0.4295,0.4773,0.506,0.5757,0.044,0.016,0.048,0,0,0,0,0,0,0,0.000575066,-0.029303551,0.043955803,-0.003663063,-0.003663063,0,0,0,0
37:06.6,300.665,-0.079,-0.454,0.074,-0.403,-0.951,0.087,5.64,-5.17,-53.93,0.6484,-0.7218,-0.0062,-0.2416,0.044,0.006,-0.018,286.86,0.057,-0.14,-0.007,-0.242,-0.956,-0.159,23.23,-21.83,-76.38,-0.7117,0.5388,-0.3578,-0.2737,0.036,-0.008,-0.004,288.91,0.008,-0.112,0.003,-0.158,-1.009,-0.079,60.71,-11.51,-74.68,-0.4295,0.4773,0.506,0.5757,0.044,0.016,0.048,0,0,0,0,0,0,0,0.000575066,-0.029303551,0.043955803,-0.003663063,-0.003663063,0,0,0,0
37:06.6,300.67,-0.076,-0.452,0.081,-0.409,-0.949,0.084,5.64,-5.17,-53.93,0.6485,-0.722,-0.0052,-0.241,0.05,0.003,-0.015,286.86,0.057,-0.14,-0.007,-0.242,-0.956,-0.159,23.23,-21.83,-76.38,-0.7117,0.5388,-0.3578,-0.2737,0.036,-0.008,-0.004,288.91,0.008,-0.112,0.003,-0.158,-1.009,-0.079,60.71,-11.51,-74.68,-0.4295,0.4773,0.506,0.5757,0.044,0.016,0.048,0,0,0,0,0,0,0,0.000575066,-0.029303551,0.043955803,-0.003663063,-0.003663063,0,0,0,0
37:06.6,300.715,0.011,-0.329,0.084,-0.408,-0.928,0.058,5.49,-4.67,-53.66,0.6484,-0.7237,0.0019,-0.2361,0.046,-0.015,0.015,286.86,0.057,-0.14,-0.007,-0.242,-0.956,-0.159,23.23,-21.83,-76.38,-0.7117,0.5388,-0.3578,-0.2737,0.036,-0.008,-0.004,288.91,0.008,-0.112,0.003,-0.158,-1.009,-0.079,60.71,-11.51,-74.68,-0.4295,0.4773,0.506,0.5757,0.044,0.016,0.048,0,0,0,0,0,0,0,0.000575066,-0.029303551,0.043955803,-0.003663063,-0.003663063,0,0,0,0
37:06.6,300.76,-0.019,-0.276,0.094,-0.471,-0.963,0.089,5.02,-5.32,-54.04,0.6479,-0.7253,0.0075,-0.2324,0.106,0.02,-0.01,286.86,0.057,-0.14,-0.007,-0.242,-0.956,-0.159,23.23,-21.83,-76.38,-0.7117,0.5388,-0.3578,-0.2737,0.036,-0.008,-0.004,288.91,0.008,-0.112,0.003,-0.158,-1.009,-0.079,60.71,-11.51,-74.68,-0.4295,0.4773,0.506,0.5757,0.044,0.016,0.048,0,0,0,0,0,0,0,0.000575066,-0.029303551,0.043955803,-0.003663063,-0.003663063,0,0,0,0
37:06.6,300.725,0.018,-0.318,0.079,-0.411,-0.936,0.058,5.49,-4.67,-53.66,0.6482,-0.7241,0.0032,-0.2352,0.048,-0.008,0.017,286.86,0.057,-0.14,-0.007,-0.242,-0.956,-0.159,23.23,-21.83,-76.38,-0.7117,0.5388,-0.3578,-0.2737,0.036,-0.008,-0.004,288.91,0.008,-0.112,0.003,-0.158,-1.009,-0.079,60.71,-11.51,-74.68,-0.4295,0.4773,0.506,0.5757,0.044,0.016,0.048,0,0,0,0,0,0,0,0.000575066,-0.029303551,0.043955803,-0.003663063,-0.003663063,0,0,0,0
37:06.6,300.62,0.045,-0.573,-0.002,-0.365,-0.958,0.07,6.19,-4.91,-53.25,0.6476,-0.7197,-0.0142,-0.2497,0.006,0.012,-0.007,286.86,0.057,-0.14,-0.007,-0.242,-0.956,-0.159,23.23,-21.83,-76.38,-0.7117,0.5388,-0.3578,-0.2737,0.036,-0.008,-0.004,288.91,0.008,-0.112,0.003,-0.158,-1.009,-0.079,60.71,-11.51,-74.68,-0.4295,0.4773,0.506,0.5757,0.044,0.016,0.048,0,0,0,0,0,0,0,0.000575066,-0.029303551,0.043955803,-0.003663063,-0.003663063,0,0,0,0
37:06.6,300.765,-0.025,-0.259,0.099,-0.481,-0.964,0.099,5.02,-5.32,-54.04,0.6479,-0.7254,0.0081,-0.232,0.116,0.021,-0.019,286.86,0.057,-0.14,-0.007,-0.242,-0.956,-0.159,23.23,-21.83,-76.38,-0.7117,0.5388,-0.3578,-0.2737,0.036,-0.008,-0.004,288.91,0.008,-0.112,0.003,-0.158,-1.009,-0.079,60.71,-11.51,-74.68,-0.4295,0.4773,0.506,0.5757,0.044,0.016,0.048,0,0,0,0,0,0,0,0.000575066,-0.029303551,0.043955803,-0.003663063,-0.003663063,0,0,0,0
37:06.6,300.755,-0.011,-0.283,0.089,-0.462,-0.96,0.079,5.02,-5.32,-54.04,0.6479,-0.7252,0.0069,-0.2327,0.097,0.017,0,286.86,0.057,-0.14,-0.007,-0.242,-0.956,-0.159,23.23,-21.83,-76.38,-0.7117,0.5388,-0.3578,-0.2737,0.036,-0.008,-0.004,288.91,0.008,-0.112,0.003,-0.158,-1.009,-0.079,60.71,-11.51,-74.68,-0.4295,0.4773,0.506,0.5757,0.044,0.016,0.048,0,0,0,0,0,0,0,0.000575066,-0.029303551,0.043955803,-0.003663063,-0.003663063,0,0,0,0
37:06.6,300.74,0.011,-0.306,0.077,-0.431,-0.949,0.06,5.55,-5.26,-54.16,0.648,-0.7247,0.005,-0.2339,0.067,0.005,0.016,286.86,0.057,-0.14,-0.007,-0.242,-0.956,-0.159,23.23,-21.83,-76.38,-0.7117,0.5388,-0.3578,-0.2737,0.036,-0.008,-0.004,288.91,0.008,-0.112,0.003,-0.158,-1.009,-0.079,60.71,-11.51,-74.68,-0.4295,0.4773,0.506,0.5757,0.044,0.016,0.048,0,0,0,0,0,0,0,0.000575066,-0.029303551,0.043955803,-0.003663063,-0.003663063,0,0,0,0
37:06.6,300.745,0.002,-0.3,0.079,-0.445,-0.954,0.065,5.55,-5.26,-54.16,0.648,-0.7249,0.0057,-0.2335,0.082,0.011,0.012,286.86,0.057,-0.14,-0.007,-0.242,-0.956,-0.159,23.23,-21.83,-76.38,-0.7117,0.5388,-0.3578,-0.2737,0.036,-0.008,-0.004,288.91,0.008,-0.112,0.003,-0.158,-1.009,-0.079,60.71,-11.51,-74.68,-0.4295,0.4773,0.506,0.5757,0.044,0.016,0.048,0,0,0,0,0,0,0,0.000575066,-0.029303551,0.043955803,-0.003663063,-0.003663063,0,0,0,0
37:06.6,300.77,-0.031,-0.24,0.107,-0.487,-0.966,0.105,5.67,-5.4,-54.75,0.6479,-0.7255,0.0087,-0.2318,0.121,0.023,-0.025,286.86,0.057,-0.14,-0.007,-0.242,-0.956,-0.159,23.23,-21.83,-76.38,-0.7117,0.5388,-0.3578,-0.2737,0.036,-0.008,-0.004,288.91,0.008,-0.112,0.003,-0.158,-1.009,-0.079,60.71,-11.51,-74.68,-0.4295,0.4773,0.506,0.5757,0.044,0.016,0.048,0,0,0,0,0,0,0,0.000575066,-0.029303551,0.043955803,-0.003663063,-0.003663063,0,0,0,0
37:06.6,300.735,0.017,-0.313,0.078,-0.423,-0.944,0.057,6.48,-6.63,-53.75,0.6481,-0.7245,0.0044,-0.2343,0.059,0,0.018,286.86,0.057,-0.14,-0.007,-0.242,-0.956,-0.159,23.23,-21.83,-76.38,-0.7117,0.5388,-0.3578,-0.2737,0.036,-0.008,-0.004,288.91,0.008,-0.112,0.003,-0.158,-1.009,-0.079,60.71,-11.51,-74.68,-0.4295,0.4773,0.506,0.5757,0.044,0.016,0.048,0,0,0,0,0,0,0,0.000575066,-0.029303551,0.043955803,-0.003663063,-0.003663063,0,0,0,0
37:06.6,300.75,-0.004,-0.292,0.082,-0.452,-0.958,0.071,5.55,-5.26,-54.16,0.6479,-0.725,0.0063,-0.2331,0.088,0.015,0.006,286.86,0.057,-0.14,-0.007,-0.242,-0.956,-0.159,23.23,-21.83,-76.38,-0.7117,0.5388,-0.3578,-0.2737,0.036,-0.008,-0.004,288.91,0.008,-0.112,0.003,-0.158,-1.009,-0.079,60.71,-11.51,-74.68,-0.4295,0.4773,0.506,0.5757,0.044,0.016,0.048,0,0,0,0,0,0,0,0.000575066,-0.029303551,0.043955803,-0.003663063,-0.003663063,0,0,0,0
37:06.6,300.775,-0.037,-0.229,0.115,-0.49,-0.965,0.113,5.67,-5.4,-54.75,0.6479,-0.7255,0.0093,-0.2315,0.124,0.023,-0.033,286.86,0.057,-0.14,-0.007,-0.242,-0.956,-0.159,23.23,-21.83,-76.38,-0.7117,0.5388,-0.3578,-0.2737,0.036,-0.008,-0.004,288.91,0.008,-0.112,0.003,-0.158,-1.009,-0.079,60.71,-11.51,-74.68,-0.4295,0.4773,0.506,0.5757,0.044,0.016,0.048,0,0,0,0,0,0,0,0.000575066,-0.029303551,0.043955803,-0.003663063,-0.003663063,0,0,0,0
37:06.6,300.795,-0.055,-0.128,0.121,-0.454,-0.944,0.123,5.08,-4.56,-55.1,0.648,-0.7256,0.0114,-0.2311,0.086,0.003,-0.043,286.86,0.057,-0.14,-0.007,-0.242,-0.956,-0.159,23.23,-21.83,-76.38,-0.7117,0.5388,-0.3578,-0.2737,0.036,-0.008,-0.004,288.91,0.008,-0.112,0.003,-0.158,-1.009,-0.079,60.71,-11.51,-74.68,-0.4295,0.4773,0.506,0.5757,0.044,0.016,0.048,0,0,0,0,0,0,0,0.000575066,-0.029303551,0.043955803,-0.003663063,-0.003663063,0,0,0,0
37:06.6,300.79,-0.056,-0.159,0.119,-0.467,-0.949,0.124,4.94,-5.14,-54.6,0.648,-0.7256,0.0109,-0.2311,0.099,0.008,-0.044,286.86,0.057,-0.14,-0.007,-0.242,-0.956,-0.159,23.23,-21.83,-76.38,-0.7117,0.5388,-0.3578,-0.2737,0.036,-0.008,-0.004,288.91,0.008,-0.112,0.003,-0.158,-1.009,-0.079,60.71,-11.51,-74.68,-0.4295,0.4773,0.506,0.5757,0.044,0.016,0.048,0,0,0,0,0,0,0,0.000575066,-0.029303551,0.043955803,-0.003663063,-0.003663063,0,0,0,0
37:06.6,300.8,-0.046,-0.09,0.117,-0.441,-0.935,0.119,5.08,-4.56,-55.1,0.648,-0.7255,0.0118,-0.2311,0.072,-0.004,-0.039,286.86,0.057,-0.14,-0.007,-0.242,-0.956,-0.159,23.23,-21.83,-76.38,-0.7117,0.5388,-0.3578,-0.2737,0.036,-0.008,-0.004,288.91,0.008,-0.112,0.003,-0.158,-1.009,-0.079,60.71,-11.51,-74.68,-0.4295,0.4773,0.506,0.5757,0.044,0.016,0.048,0,0,0,0,0,0,0,0.000575066,-0.029303551,0.043955803,-0.003663063,-0.003663063,0,0,0,0
37:06.6,300.805,-0.032,-0.04,0.115,-0.419,-0.925,0.112,5.26,-4.94,-54.16,0.648,-0.7255,0.0121,-0.2312,0.049,-0.014,-0.032,286.86,0.057,-0.14,-0.007,-0.242,-0.956,-0.159,23.23,-21.83,-76.38,-0.7117,0.5388,-0.3578,-0.2737,0.036,-0.008,-0.004,288.91,0.008,-0.112,0.003,-0.158,-1.009,-0.079,60.71,-11.51,-74.68,-0.4295,0.4773,0.506,0.5757,0.044,0.016,0.048,0,0,0,0,0,0,0,0.000575066,-0.029303551,0.043955803,-0.003663063,-0.003663063,0,0,0,0
37:06.6,300.81,-0.026,-0.001,0.111,-0.411,-0.921,0.104,5.26,-4.94,-54.16,0.6479,-0.7255,0.0124,-0.2315,0.041,-0.019,-0.025,286.86,0.057,-0.14,-0.007,-0.242,-0.956,-0.159,23.23,-21.83,-76.38,-0.7117,0.5388,-0.3578,-0.2737,0.036,-0.008,-0.004,288.91,0.008,-0.112,0.003,-0.158,-1.009,-0.079,60.71,-11.51,-74.68,-0.4295,0.4773,0.506,0.5757,0.044,0.016,0.048,0,0,0,0,0,0,0,0.000575066,-0.029303551,0.043955803,-0.003663063,-0.003663063,0,0,0,0
37:06.6,300.815,-0.021,0.022,0.105,-0.405,-0.919,0.099,5.26,-4.94,-54.16,0.6478,-0.7255,0.0126,-0.2317,0.034,-0.02,-0.02,286.86,0.057,-0.14,-0.007,-0.242,-0.956,-0.159,23.23,-21.83,-76.38,-0.7117,0.5388,-0.3578,-0.2737,0.036,-0.008,-0.004,288.91,0.008,-0.112,0.003,-0.158,-1.009,-0.079,60.71,-11.51,-74.68,-0.4295,0.4773,0.506,0.5757,0.044,0.016,0.048,0,0,0,0,0,0,0,0.000575066,-0.029303551,0.043955803,-0.003663063,-0.003663063,0,0,0,0
37:06.6,300.73,0.017,-0.32,0.076,-0.416,-0.939,0.057,6.48,-6.63,-53.75,0.6482,-0.7243,0.0038,-0.2348,0.053,-0.004,0.018,286.86,0.057,-0.14,-0.007,-0.242,-0.956,-0.159,23.23,-21.83,-76.38,-0.7117,0.5388,-0.3578,-0.2737,0.036,-0.008,-0.004,288.91,0.008,-0.112,0.003,-0.158,-1.009,-0.079,60.71,-11.51,-74.68,-0.4295,0.4773,0.506,0.5757,0.044,0.016,0.048,0,0,0,0,0,0,0,0.000575066,-0.029303551,0.043955803,-0.003663063,-0.003663063,0,0,0,0
37:06.6,300.82,-0.015,0.044,0.101,-0.4,-0.92,0.098,5.4,-4.88,-54.54,0.6478,-0.7254,0.0127,-0.232,0.029,-0.019,-0.018,286.86,0.057,-0.14,-0.007,-0.242,-0.956,-0.159,23.23,-21.83,-76.38,-0.7117,0.5388,-0.3578,-0.2737,0.036,-0.008,-0.004,288.91,0.008,-0.112,0.003,-0.158,-1.009,-0.079,60.71,-11.51,-74.68,-0.4295,0.4773,0.506,0.5757,0.044,0.016,0.048,0,0,0,0,0,0,0,0.000575066,-0.029303551,0.043955803,-0.003663063,-0.003663063,0,0,0,0
37:06.6,300.825,-0.006,0.061,0.1,-0.394,-0.923,0.093,5.4,-4.88,-54.54,0.6477,-0.7254,0.0128,-0.2323,0.023,-0.016,-0.014,286.86,0.057,-0.14,-0.007,-0.242,-0.956,-0.159,23.23,-21.83,-76.38,-0.7117,0.5388,-0.3578,-0.2737,0.036,-0.008,-0.004,288.91,0.008,-0.112,0.003,-0.158,-1.009,-0.079,60.71,-11.51,-74.68,-0.4295,0.4773,0.506,0.5757,0.044,0.016,0.048,0,0,0,0,0,0,0,0.000575066,-0.029303551,0.043955803,-0.003663063,-0.003663063,0,0,0,0
37:06.6,300.78,-0.048,-0.201,0.117,-0.486,-0.962,0.119,4.94,-5.14,-54.6,0.6479,-0.7256,0.0099,-0.2314,0.119,0.02,-0.039,286.86,0.057,-0.14,-0.007,-0.242,-0.956,-0.159,23.23,-21.83,-76.38,-0.7117,0.5388,-0.3578,-0.2737,0.036,-0.008,-0.004,288.91,0.008,-0.112,0.003,-0.158,-1.009,-0.079,60.71,-11.51,-74.68,-0.4295,0.4773,0.506,0.5757,0.044,0.016,0.048,0,0,0,0,0,0,0,0.000575066,-0.029303551,0.043955803,-0.003663063,-0.003663063,0,0,0,0
37:06.6,300.785,-0.054,-0.183,0.118,-0.477,-0.957,0.122,4.94,-5.14,-54.6,0.6479,-0.7256,0.0104,-0.2312,0.11,0.016,-0.042,286.86,0.057,-0.14,-0.007,-0.242,-0.956,-0.159,23.23,-21.83,-76.38,-0.7117,0.5388,-0.3578,-0.2737,0.036,-0.008,-0.004,288.91,0.008,-0.112,0.003,-0.158,-1.009,-0.079,60.71,-11.51,-74.68,-0.4295,0.4773,0.506,0.5757,0.044,0.016,0.048,0,0,0,0,0,0,0,0.000575066,-0.029303551,0.043955803,-0.003663063,-0.003663063,0,0,0,0
37:06.6,300.835,-0.003,0.102,0.089,-0.394,-0.937,0.086,5.02,-4.99,-54.66,0.6476,-0.7253,0.0129,-0.2329,0.021,-0.002,-0.007,286.86,0.057,-0.14,-0.007,-0.242,-0.956,-0.159,23.23,-21.83,-76.38,-0.7117,0.5388,-0.3578,-0.2737,0.036,-0.008,-0.004,289.08,0.08,0.074,-0.066,-0.167,-0.981,0.027,60.88,-11.54,-74.91,-0.4339,0.5083,0.4838,0.565,0.013,-0.006,-0.043,0,0,0,0,0,0,0.000191689,0.000191689,0.007326126,-0.095237732,-0.003663063,-0.003663063,0,0,0,0
37:06.6,300.845,-0.021,0.12,0.088,-0.401,-0.948,0.086,4.82,-4.96,-54.69,0.6475,-0.7251,0.0129,-0.2336,0.027,0.009,-0.007,286.86,0.057,-0.14,-0.007,-0.242,-0.956,-0.159,23.23,-21.83,-76.38,-0.7117,0.5388,-0.3578,-0.2737,0.036,-0.008,-0.004,289.08,0.08,0.074,-0.066,-0.167,-0.981,0.027,60.88,-11.54,-74.91,-0.4339,0.5083,0.4838,0.565,0.013,-0.006,-0.043,0,0,0,0,0,0,0.000191689,0.000191689,0.007326126,-0.095237732,-0.003663063,-0.003663063,0,0,0,0
37:06.6,300.84,-0.009,0.111,0.089,-0.397,-0.942,0.085,5.02,-4.99,-54.66,0.6476,-0.7252,0.0129,-0.2333,0.024,0.002,-0.006,286.86,0.057,-0.14,-0.007,-0.242,-0.956,-0.159,23.23,-21.83,-76.38,-0.7117,0.5388,-0.3578,-0.2737,0.036,-0.008,-0.004,289.08,0.08,0.074,-0.066,-0.167,-0.981,0.027,60.88,-11.54,-74.91,-0.4339,0.5083,0.4838,0.565,0.013,-0.006,-0.043,0,0,0,0,0,0,0.000191689,0.000191689,0.007326126,-0.095237732,-0.003663063,-0.003663063,0,0,0,0
37:06.6,300.855,-0.055,0.131,0.093,-0.418,-0.955,0.091,5.2,-5.14,-54.66,0.6476,-0.7248,0.0129,-0.2344,0.043,0.016,-0.013,286.86,0.057,-0.14,-0.007,-0.242,-0.956,-0.159,23.23,-21.83,-76.38,-0.7117,0.5388,-0.3578,-0.2737,0.036,-0.008,-0.004,289.08,0.08,0.074,-0.066,-0.167,-0.981,0.027,60.88,-11.54,-74.91,-0.4339,0.5083,0.4838,0.565,0.013,-0.006,-0.043,0,0,0,0,0,0,0.000191689,0.000191689,0.007326126,-0.095237732,-0.003663063,-0.003663063,0,0,0,0
37:06.6,300.85,-0.035,0.126,0.09,-0.408,-0.952,0.088,4.82,-4.96,-54.69,0.6476,-0.725,0.0129,-0.234,0.035,0.013,-0.009,286.86,0.057,-0.14,-0.007,-0.242,-0.956,-0.159,23.23,-21.83,-76.38,-0.7117,0.5388,-0.3578,-0.2737,0.036,-0.008,-0.004,289.08,0.08,0.074,-0.066,-0.167,-0.981,0.027,60.88,-11.54,-74.91,-0.4339,0.5083,0.4838,0.565,0.013,-0.006,-0.043,0,0,0,0,0,0,0.000191689,0.000191689,0.007326126,-0.095237732,-0.003663063,-0.003663063,0,0,0,0
37:06.6,300.86,-0.076,0.128,0.099,-0.429,-0.955,0.091,5.2,-5.14,-54.66,0.6477,-0.7246,0.0129,-0.2348,0.054,0.016,-0.014,286.86,0.057,-0.14,-0.007,-0.242,-0.956,-0.159,23.23,-21.83,-76.38,-0.7117,0.5388,-0.3578,-0.2737,0.036,-0.008,-0.004,289.08,0.08,0.074,-0.066,-0.167,-0.981,0.027,60.88,-11.54,-74.91,-0.4339,0.5083,0.4838,0.565,0.013,-0.006,-0.043,0,0,0,0,0,0,0.000191689,0.000191689,0.007326126,-0.095237732,-0.003663063,-0.003663063,0,0,0,0
37:06.6,300.83,-0.003,0.077,0.093,-0.393,-0.929,0.089,5.02,-4.99,-54.66,0.6477,-0.7253,0.0129,-0.2326,0.021,-0.01,-0.01,286.86,0.057,-0.14,-0.007,-0.242,-0.956,-0.159,23.23,-21.83,-76.38,-0.7117,0.5388,-0.3578,-0.2737,0.036,-0.008,-0.004,289.08,0.08,0.074,-0.066,-0.167,-0.981,0.027,60.88,-11.54,-74.91,-0.4339,0.5083,0.4838,0.565,0.013,-0.006,-0.043,0,0,0,0,0,0,0.000191689,0.000191689,0.007326126,-0.095237732,-0.003663063,-0.003663063,0,0,0,0
37:06.6,300.865,-0.106,0.128,0.112,-0.439,-0.957,0.092,5.2,-5.14,-54.66,0.6478,-0.7243,0.013,-0.2352,0.064,0.019,-0.015,286.88,0.068,-0.069,-0.005,-0.269,-0.98,-0.142,23.09,-20.37,-76.55,-0.712,0.5383,-0.3633,-0.2667,0.046,0.018,-0.014,289.075,0.09,0.067,-0.063,-0.167,-0.978,0.03,62.02,-11.78,-74.86,-0.4346,0.5065,0.4834,0.5664,0.014,-0.009,-0.051,0,0,0,0,0,0,0,0.000191689,-0.058608055,-0.043955803,-0.003663063,-0.003663063,0,0,0,0
37:06.6,300.87,-0.121,0.118,0.123,-0.443,-0.957,0.091,5.78,-5.78,-54.25,0.648,-0.7241,0.0131,-0.2356,0.067,0.018,-0.015,286.88,0.068,-0.069,-0.005,-0.269,-0.98,-0.142,23.09,-20.37,-76.55,-0.712,0.5383,-0.3633,-0.2667,0.046,0.018,-0.014,289.075,0.09,0.067,-0.063,-0.167,-0.978,0.03,62.02,-11.78,-74.86,-0.4346,0.5065,0.4834,0.5664,0.014,-0.009,-0.051,0,0,0,0,0,0,0,0.000191689,-0.058608055,-0.043955803,-0.003663063,-0.003663063,0,0,0,0
37:06.6,300.875,-0.136,0.102,0.134,-0.447,-0.954,0.094,5.78,-5.78,-54.25,0.6481,-0.7238,0.0133,-0.236,0.071,0.016,-0.019,286.88,0.068,-0.069,-0.005,-0.269,-0.98,-0.142,23.09,-20.37,-76.55,-0.712,0.5383,-0.3633,-0.2667,0.046,0.018,-0.014,289.075,0.09,0.067,-0.063,-0.167,-0.978,0.03,62.02,-11.78,-74.86,-0.4346,0.5065,0.4834,0.5664,0.014,-0.009,-0.051,0,0,0,0,0,0,0,0.000191689,-0.058608055,-0.043955803,-0.003663063,-0.003663063,0,0,0,0
37:06.6,300.88,-0.151,0.094,0.145,-0.452,-0.953,0.098,4.96,-5.67,-54.13,0.6483,-0.7235,0.0135,-0.2364,0.074,0.015,-0.024,286.88,0.068,-0.069,-0.005,-0.269,-0.98,-0.142,23.09,-20.37,-76.55,-0.712,0.5383,-0.3633,-0.2667,0.046,0.018,-0.014,289.075,0.09,0.067,-0.063,-0.167,-0.978,0.03,62.02,-11.78,-74.86,-0.4346,0.5065,0.4834,0.5664,0.014,-0.009,-0.051,0,0,0,0,0,0,0,0.000191689,-0.058608055,-0.043955803,-0.003663063,-0.003663063,0,0,0,0
37:06.6,300.885,-0.158,0.091,0.156,-0.451,-0.949,0.096,4.96,-5.67,-54.13,0.6485,-0.7232,0.0137,-0.2368,0.072,0.011,-0.022,286.88,0.068,-0.069,-0.005,-0.269,-0.98,-0.142,23.09,-20.37,-76.55,-0.712,0.5383,-0.3633,-0.2667,0.046,0.018,-0.014,289.075,0.09,0.067,-0.063,-0.167,-0.978,0.03,62.02,-11.78,-74.86,-0.4346,0.5065,0.4834,0.5664,0.014,-0.009,-0.051,0,0,0,0,0,0,0,0.000191689,-0.058608055,-0.043955803,-0.003663063,-0.003663063,0,0,0,0
37:06.6,300.895,-0.133,0.111,0.184,-0.439,-0.933,0.084,5.2,-6.72,-54.54,0.6489,-0.7226,0.0142,-0.2378,0.059,-0.004,-0.013,286.91,0.101,0.093,0.015,-0.264,-0.942,-0.184,23.91,-20.16,-76.2,-0.7169,0.5381,-0.3629,-0.2543,0.025,-0.016,0.026,289.1,0.077,0.111,-0.056,-0.208,-0.943,-0.008,61.26,-11.57,-74.71,-0.4292,0.5111,0.484,0.5658,0.047,-0.043,0,0,0,0,0,0,0,0.000191689,0.000575066,-0.051282883,0.03663063,-0.003663063,-0.003663063,0,0,0,0
37:06.6,300.89,-0.154,0.093,0.167,-0.446,-0.941,0.09,4.96,-5.67,-54.13,0.6487,-0.7228,0.014,-0.2373,0.067,0.003,-0.018,286.91,0.101,0.093,0.015,-0.264,-0.942,-0.184,23.91,-20.16,-76.2,-0.7169,0.5381,-0.3629,-0.2543,0.025,-0.016,0.026,289.1,0.077,0.111,-0.056,-0.208,-0.943,-0.008,61.26,-11.57,-74.71,-0.4292,0.5111,0.484,0.5658,0.047,-0.043,0,0,0,0,0,0,0,0.000191689,0.000575066,-0.051282883,0.03663063,-0.003663063,-0.003663063,0,0,0,0
37:06.6,300.905,-0.086,0.131,0.198,-0.418,-0.92,0.074,4.56,-5.37,-54.13,0.649,-0.7221,0.0147,-0.2389,0.036,-0.016,-0.004,286.91,0.101,0.093,0.015,-0.264,-0.942,-0.184,23.91,-20.16,-76.2,-0.7169,0.5381,-0.3629,-0.2543,0.025,-0.016,0.026,289.1,0.077,0.111,-0.056,-0.208,-0.943,-0.008,61.26,-11.57,-74.71,-0.4292,0.5111,0.484,0.5658,0.047,-0.043,0,0,0,0,0,0,0,0.000191689,0.000575066,-0.051282883,0.03663063,-0.003663063,-0.003663063,0,0,0,0
37:06.6,300.9,-0.111,0.121,0.192,-0.43,-0.927,0.078,5.2,-6.72,-54.54,0.6489,-0.7223,0.0145,-0.2383,0.049,-0.01,-0.008,286.91,0.101,0.093,0.015,-0.264,-0.942,-0.184,23.91,-20.16,-76.2,-0.7169,0.5381,-0.3629,-0.2543,0.025,-0.016,0.026,289.1,0.077,0.111,-0.056,-0.208,-0.943,-0.008,61.26,-11.57,-74.71,-0.4292,0.5111,0.484,0.5658,0.047,-0.043,0,0,0,0,0,0,0,0.000191689,0.000575066,-0.051282883,0.03663063,-0.003663063,-0.003663063,0,0,0,0
37:06.6,300.91,-0.066,0.135,0.205,-0.407,-0.917,0.067,4.56,-5.37,-54.13,0.649,-0.7219,0.0149,-0.2395,0.024,-0.018,0.001,286.91,0.101,0.093,0.015,-0.264,-0.942,-0.184,23.91,-20.16,-76.2,-0.7169,0.5381,-0.3629,-0.2543,0.025,-0.016,0.026,289.105,0.096,0.116,-0.046,-0.246,-0.995,-0.004,60.56,-12.21,-74.39,-0.4261,0.512,0.4834,0.5678,0.078,0.01,-0.004,0,0,0,0,0,0,0.000191689,0.000191689,0.124542236,-0.139194489,-0.003663063,-0.003663063,0,0,0,0
