Youthstudy/imurecv/data/merged/merged_20251106_183740.csv
System_Time,Timestamp_1,Gyro_X_1,Gyro_Y_1,Gyro_Z_1,Acc_X_1,Acc_Y_1,Acc_Z_1,Mag_X_1,Mag_Y_1,Mag_Z_1,Quat_W_1,Quat_X_1,Quat_Y_1,Quat_Z_1,Linear_Acc_X_1,Linear_Acc_Y_1,Linear_Acc_Z_1,Timestamp_2,Gyro_X_2,Gyro_Y_2,Gyro_Z_2,Acc_X_2,Acc_Y_2,Acc_Z_2,Mag_X_2,Mag_Y_2,Mag_Z_2,Quat_W_2,Quat_X_2,Quat_Y_2,Quat_Z_2,Linear_Acc_X_2,Linear_Acc_Y_2,Linear_Acc_Z_2,Timestamp_3,Gyro_X_3,Gyro_Y_3,Gyro_Z_3,Acc_X_3,Acc_Y_3,Acc_Z_3,Mag_X_3,Mag_Y_3,Mag_Z_3,Quat_W_3,Quat_X_3,Quat_Y_3,Quat_Z_3,Linear_Acc_X_3,Linear_Acc_Y_3,Linear_Acc_Z_3,kd_joint1,kd_joint2,kp_joint1,kp_joint2,p_des_joint1,p_des_joint2,ret0_joint1,ret0_joint2,ret1_joint1,ret1_joint2,ret2_joint1,ret2_joint2,t_ff_joint1,t_ff_joint2,v_des_joint1,v_des_joint2
2025-11-06 18:37:40.231,323.95,-0.025,0.01,0.0,-0.348,-0.936,0.167,7.390000000000001,-6.46,-47.5,0.6053000000000001,-0.7508,-0.0484,-0.2596,0.0,-0.002,-0.008,310.165,-0.003,-0.003,0.0,-0.17,-0.956,-0.207,24.55,-22.68,-74.39,-0.5914,0.5459,0.3155,0.5025000000000001,0.002,-0.007,0.002,312.26,-0.017,-0.013,0.005,-0.183,-0.984,0.067,62.370000000000005,-15.28,-66.64,-0.2184,0.3568,0.6377,0.6466000000000001,0.0,0.003,0.0,0.0,0.0,0.0,0.0,0.0,0.0,-0.0001916885375976,0.0005750656127929,-0.0659332275390625,-0.1538467407226562,-0.0036630630493164,-0.0036630630493164,0.0,0.0,0.0,0.0
2025-11-06 18:37:40.232,323.955,-0.022,0.007,-0.002,-0.349,-0.936,0.165,7.390000000000001,-6.46,-47.5,0.6053000000000001,-0.7508,-0.0484,-0.2596,0.0,-0.001,-0.006,310.165,-0.003,-0.003,0.0,-0.17,-0.956,-0.207,24.55,-22.68,-74.39,-0.5914,0.5459,0.3155,0.5025000000000001,0.002,-0.007,0.002,312.26,-0.017,-0.013,0.005,-0.183,-0.984,0.067,62.370000000000005,-15.28,-66.64,-0.2184,0.3568,0.6377,0.6466000000000001,0.0,0.003,0.0,0.0,0.0,0.0,0.0,0.0,0.0,-0.0001916885375976,0.0005750656127929,-0.0659332275390625,-0.1538467407226562,-0.0036630630493164,-0.0036630630493164,0.0,0.0,0.0,0.0
2025-11-06 18:37:40.232,323.96,-0.021,0.0,0.0,-0.345,-0.937,0.165,7.62,-6.25,-47.29,0.6053000000000001,-0.7508,-0.0484,-0.2595,-0.003,0.0,-0.005,310.165,-0.003,-0.003,0.0,-0.17,-0.956,-0.207,24.55,-22.68,-74.39,-0.5914,0.5459,0.3155,0.5025000000000001,0.002,-0.007,0.002,312.26,-0.017,-0.013,0.005,-0.183,-0.984,0.067,62.370000000000005,-15.28,-66.64,-0.2184,0.3568,0.6377,0.6466000000000001,0.0,0.003,0.0,0.0,0.0,0.0,0.0,0.0,0.0,-0.0001916885375976,0.0005750656127929,-0.0659332275390625,-0.1538467407226562,-0.0036630630493164,-0.0036630630493164,0.0,0.0,0.0,0.0
2025-11-06 18:37:40.232,323.965,-0.02,-0.002,0.0,-0.344,-0.938,0.163,7.62,-6.25,-47.29,0.6053000000000001,-0.7508,-0.0484,-0.2595,-0.004,0.0,-0.004,310.165,-0.003,-0.003,0.0,-0.17,-0.956,-0.207,24.55,-22.68,-74.39,-0.5914,0.5459,0.3155,0.5025000000000001,0.002,-0.007,0.002,312.26,-0.017,-0.013,0.005,-0.183,-0.984,0.067,62.370000000000005,-15.28,-66.64,-0.2184,0.3568,0.6377,0.6466000000000001,0.0,0.003,0.0,0.0,0.0,0.0,0.0,0.0,0.0,-0.0001916885375976,0.0005750656127929,-0.0659332275390625,-0.1538467407226562,-0.0036630630493164,-0.0036630630493164,0.0,0.0,0.0,0.0
2025-11-06 18:37:40.232,323.97,-0.023,-0.001,-0.001,-0.345,-0.938,0.161,7.68,-6.4,-47.44,0.6054,-0.7508,-0.0484,-0.2594,-0.003,0.0,-0.001,310.165,-0.003,-0.003,0.0,-0.17,-0.956,-0.207,24.55,-22.68,-74.39,-0.5914,0.5459,0.3155,0.5025000000000001,0.002,-0.007,0.002,312.26,-0.017,-0.013,0.005,-0.183,-0.984,0.067,62.370000000000005,-15.28,-66.64,-0.2184,0.3568,0.6377,0.6466000000000001,0.0,0.003,0.0,0.0,0.0,0.0,0.0,0.0,0.0,-0.0001916885375976,0.0005750656127929,-0.0659332275390625,-0.1538467407226562,-0.0036630630493164,-0.0036630630493164,0.0,0.0,0.0,0.0
2025-11-06 18:37:40.232,323.98,-0.028,0.002,-0.001,-0.341,-0.939,0.156,7.68,-6.4,-47.44,0.6055,-0.7507,-0.0484,-0.2594,-0.006,0.0,0.001,310.165,-0.003,-0.003,0.0,-0.17,-0.956,-0.207,24.55,-22.68,-74.39,-0.5914,0.5459,0.3155,0.5025000000000001,0.002,-0.007,0.002,312.26,-0.017,-0.013,0.005,-0.183,-0.984,0.067,62.370000000000005,-15.28,-66.64,-0.2184,0.3568,0.6377,0.6466000000000001,0.0,0.003,0.0,0.0,0.0,0.0,0.0,0.0,0.0,-0.0001916885375976,0.0005750656127929,-0.0659332275390625,-0.1538467407226562,-0.0036630630493164,-0.0036630630493164,0.0,0.0,0.0,0.0
2025-11-06 18:37:40.232,323.985,-0.03,0.003,0.0,-0.342,-0.94,0.155,7.77,-7.01,-47.17,0.6056,-0.7506,-0.0484,-0.2594,-0.006,0.001,0.002,310.165,-0.003,-0.003,0.0,-0.17,-0.956,-0.207,24.55,-22.68,-74.39,-0.5914,0.5459,0.3155,0.5025000000000001,0.002,-0.007,0.002,312.26,-0.017,-0.013,0.005,-0.183,-0.984,0.067,62.370000000000005,-15.28,-66.64,-0.2184,0.3568,0.6377,0.6466000000000001,0.0,0.003,0.0,0.0,0.0,0.0,0.0,0.0,0.0,-0.0001916885375976,0.0005750656127929,-0.0659332275390625,-0.1538467407226562,-0.0036630630493164,-0.0036630630493164,0.0,0.0,0.0,0.0
2025-11-06 18:37:40.232,323.99,-0.029,0.005,-0.002,-0.342,-0.943,0.155,7.77,-7.01,-47.17,0.6057,-0.7506,-0.0484,-0.2594,-0.006,0.004,0.002,310.165,-0.003,-0.003,0.0,-0.17,-0.956,-0.207,24.55,-22.68,-74.39,-0.5914,0.5459,0.3155,0.5025000000000001,0.002,-0.007,0.002,312.26,-0.017,-0.013,0.005,-0.183,-0.984,0.067,62.370000000000005,-15.28,-66.64,-0.2184,0.3568,0.6377,0.6466000000000001,0.0,0.003,0.0,0.0,0.0,0.0,0.0,0.0,0.0,-0.0001916885375976,0.0005750656127929,-0.0659332275390625,-0.1538467407226562,-0.0036630630493164,-0.0036630630493164,0.0,0.0,0.0,0.0
2025-11-06 18:37:40.232,324.045,-0.032,0.013,-0.001,-0.352,-0.951,0.168,7.92,-6.43,-47.17,0.6063000000000001,-0.75,-0.0484,-0.2596,0.003,0.012,-0.011,310.165,-0.003,-0.003,0.0,-0.17,-0.956,-0.207,24.55,-22.68,-74.39,-0.5914,0.5459,0.3155,0.5025000000000001,0.002,-0.007,0.002,312.26,-0.017,-0.013,0.005,-0.183,-0.984,0.067,62.370000000000005,-15.28,-66.64,-0.2184,0.3568,0.6377,0.6466000000000001,0.0,0.003,0.0,0.0,0.0,0.0,0.0,0.0,0.0,-0.0001916885375976,0.0005750656127929,-0.0659332275390625,-0.1538467407226562,-0.0036630630493164,-0.0036630630493164,0.0,0.0,0.0,0.0
2025-11-06 18:37:40.232,323.975,-0.025,0.001,-0.002,-0.343,-0.939,0.159,7.68,-6.4,-47.44,0.6054,-0.7508,-0.0484,-0.2594,-0.005,0.0,0.0,310.165,-0.003,-0.003,0.0,-0.17,-0.956,-0.207,24.55,-22.68,-74.39,-0.5914,0.5459,0.3155,0.5025000000000001,0.002,-0.007,0.002,312.26,-0.017,-0.013,0.005,-0.183,-0.984,0.067,62.370000000000005,-15.28,-66.64,-0.2184,0.3568,0.6377,0.6466000000000001,0.0,0.003,0.0,0.0,0.0,0.0,0.0,0.0,0.0,-0.0001916885375976,0.0005750656127929,-0.0659332275390625,-0.1538467407226562,-0.0036630630493164,-0.0036630630493164,0.0,0.0,0.0,0.0
2025-11-06 18:37:40.232,324.01,-0.031,0.002,0.0,-0.347,-0.95,0.159,7.390000000000001,-6.22,-47.9,0.6059,-0.7504000000000001,-0.0484,-0.2594,-0.001,0.011,-0.001,310.165,-0.003,-0.003,0.0,-0.17,-0.956,-0.207,24.55,-22.68,-74.39,-0.5914,0.5459,0.3155,0.5025000000000001,0.002,-0.007,0.002,312.26,-0.017,-0.013,0.005,-0.183,-0.984,0.067,62.370000000000005,-15.28,-66.64,-0.2184,0.3568,0.6377,0.6466000000000001,0.0,0.003,0.0,0.0,0.0,0.0,0.0,0.0,0.0,-0.0001916885375976,0.0005750656127929,-0.0659332275390625,-0.1538467407226562,-0.0036630630493164,-0.0036630630493164,0.0,0.0,0.0,0.0
2025-11-06 18:37:40.232,324.015,-0.03,0.008,0.001,-0.348,-0.952,0.161,7.390000000000001,-6.22,-47.9,0.606,-0.7503000000000001,-0.0484,-0.2594,0.0,0.013,-0.003,310.165,-0.003,-0.003,0.0,-0.17,-0.956,-0.207,24.55,-22.68,-74.39,-0.5914,0.5459,0.3155,0.5025000000000001,0.002,-0.007,0.002,312.26,-0.017,-0.013,0.005,-0.183,-0.984,0.067,62.370000000000005,-15.28,-66.64,-0.2184,0.3568,0.6377,0.6466000000000001,0.0,0.003,0.0,0.0,0.0,0.0,0.0,0.0,0.0,-0.0001916885375976,0.0005750656127929,-0.0659332275390625,-0.1538467407226562,-0.0036630630493164,-0.0036630630493164,0.0,0.0,0.0,0.0
2025-11-06 18:37:40.232,324.02,-0.03,0.008,0.0,-0.352,-0.954,0.163,7.68,-6.25,-47.5,0.606,-0.7503000000000001,-0.0484,-0.2594,0.003,0.015,-0.005,310.165,-0.003,-0.003,0.0,-0.17,-0.956,-0.207,24.55,-22.68,-74.39,-0.5914,0.5459,0.3155,0.5025000000000001,0.002,-0.007,0.002,312.26,-0.017,-0.013,0.005,-0.183,-0.984,0.067,62.370000000000005,-15.28,-66.64,-0.2184,0.3568,0.6377,0.6466000000000001,0.0,0.003,0.0,0.0,0.0,0.0,0.0,0.0,0.0,-0.0001916885375976,0.0005750656127929,-0.0659332275390625,-0.1538467407226562,-0.0036630630493164,-0.0036630630493164,0.0,0.0,0.0,0.0
2025-11-06 18:37:40.232,324.025,-0.03,0.011,0.001,-0.353,-0.954,0.166,7.68,-6.25,-47.5,0.6061000000000001,-0.7502000000000001,-0.0484,-0.2594,0.004,0.015,-0.008,310.165,-0.003,-0.003,0.0,-0.17,-0.956,-0.207,24.55,-22.68,-74.39,-0.5914,0.5459,0.3155,0.5025000000000001,0.002,-0.007,0.002,312.26,-0.017,-0.013,0.005,-0.183,-0.984,0.067,62.370000000000005,-15.28,-66.64,-0.2184,0.3568,0.6377,0.6466000000000001,0.0,0.003,0.0,0.0,0.0,0.0,0.0,0.0,0.0,-0.0001916885375976,0.0005750656127929,-0.0659332275390625,-0.1538467407226562,-0.0036630630493164,-0.0036630630493164,0.0,0.0,0.0,0.0
2025-11-06 18:37:40.232,324.03,-0.027,0.015,0.0,-0.353,-0.955,0.166,7.68,-6.25,-47.5,0.6061000000000001,-0.7502000000000001,-0.0484,-0.2595,0.005,0.016,-0.008,310.165,-0.003,-0.003,0.0,-0.17,-0.956,-0.207,24.55,-22.68,-74.39,-0.5914,0.5459,0.3155,0.5025000000000001,0.002,-0.007,0.002,312.26,-0.017,-0.013,0.005,-0.183,-0.984,0.067,62.370000000000005,-15.28,-66.64,-0.2184,0.3568,0.6377,0.6466000000000001,0.0,0.003,0.0,0.0,0.0,0.0,0.0,0.0,0.0,-0.0001916885375976,0.0005750656127929,-0.0659332275390625,-0.1538467407226562,-0.0036630630493164,-0.0036630630493164,0.0,0.0,0.0,0.0
2025-11-06 18:37:40.232,323.995,-0.028,0.002,-0.001,-0.343,-0.946,0.155,8.15,-6.43,-46.82,0.6057,-0.7505000000000001,-0.0484,-0.2594,-0.005,0.007,0.003,310.165,-0.003,-0.003,0.0,-0.17,-0.956,-0.207,24.55,-22.68,-74.39,-0.5914,0.5459,0.3155,0.5025000000000001,0.002,-0.007,0.002,312.26,-0.017,-0.013,0.005,-0.183,-0.984,0.067,62.370000000000005,-15.28,-66.64,-0.2184,0.3568,0.6377,0.6466000000000001,0.0,0.003,0.0,0.0,0.0,0.0,0.0,0.0,0.0,-0.0001916885375976,0.0005750656127929,-0.0659332275390625,-0.1538467407226562,-0.0036630630493164,-0.0036630630493164,0.0,0.0,0.0,0.0
2025-11-06 18:37:40.232,324.035,-0.029,0.018,0.0,-0.354,-0.954,0.167,7.65,-6.3100000000000005,-47.38,0.6062000000000001,-0.7501,-0.0484,-0.2595,0.005,0.015,-0.009,310.165,-0.003,-0.003,0.0,-0.17,-0.956,-0.207,24.55,-22.68,-74.39,-0.5914,0.5459,0.3155,0.5025000000000001,0.002,-0.007,0.002,312.26,-0.017,-0.013,0.005,-0.183,-0.984,0.067,62.370000000000005,-15.28,-66.64,-0.2184,0.3568,0.6377,0.6466000000000001,0.0,0.003,0.0,0.0,0.0,0.0,0.0,0.0,0.0,-0.0001916885375976,0.0005750656127929,-0.0659332275390625,-0.1538467407226562,-0.0036630630493164,-0.0036630630493164,0.0,0.0,0.0,0.0
2025-11-06 18:37:40.232,324.0,-0.029,0.0,-0.001,-0.344,-0.947,0.155,8.15,-6.43,-46.82,0.6058,-0.7505000000000001,-0.0484,-0.2594,-0.004,0.008,0.002,310.165,-0.003,-0.003,0.0,-0.17,-0.956,-0.207,24.55,-22.68,-74.39,-0.5914,0.5459,0.3155,0.5025000000000001,0.002,-0.007,0.002,312.26,-0.017,-0.013,0.005,-0.183,-0.984,0.067,62.370000000000005,-15.28,-66.64,-0.2184,0.3568,0.6377,0.6466000000000001,0.0,0.003,0.0,0.0,0.0,0.0,0.0,0.0,0.0,-0.0001916885375976,0.0005750656127929,-0.0659332275390625,-0.1538467407226562,-0.0036630630493164,-0.0036630630493164,0.0,0.0,0.0,0.0
2025-11-06 18:37:40.232,324.04,-0.031,0.012,0.0,-0.353,-0.953,0.167,7.65,-6.3100000000000005,-47.38,0.6063000000000001,-0.7501,-0.0484,-0.2595,0.005,0.014,-0.01,310.165,-0.003,-0.003,0.0,-0.17,-0.956,-0.207,24.55,-22.68,-74.39,-0.5914,0.5459,0.3155,0.5025000000000001,0.002,-0.007,0.002,312.26,-0.017,-0.013,0.005,-0.183,-0.984,0.067,62.370000000000005,-15.28,-66.64,-0.2184,0.3568,0.6377,0.6466000000000001,0.0,0.003,0.0,0.0,0.0,0.0,0.0,0.0,0.0,-0.0001916885375976,0.0005750656127929,-0.0659332275390625,-0.1538467407226562,-0.0036630630493164,-0.0036630630493164,0.0,0.0,0.0,0.0
2025-11-06 18:37:40.232,324.005,-0.029,0.001,0.0,-0.345,-0.948,0.158,8.15,-6.43,-46.82,0.6059,-0.7504000000000001,-0.0484,-0.2594,-0.002,0.009,0.0,310.165,-0.003,-0.003,0.0,-0.17,-0.956,-0.207,24.55,-22.68,-74.39,-0.5914,0.5459,0.3155,0.5025000000000001,0.002,-0.007,0.002,312.26,-0.017,-0.013,0.005,-0.183,-0.984,0.067,62.370000000000005,-15.28,-66.64,-0.2184,0.3568,0.6377,0.6466000000000001,0.0,0.003,0.0,0.0,0.0,0.0,0.0,0.0,0.0,-0.0001916885375976,0.0005750656127929,-0.0659332275390625,-0.1538467407226562,-0.0036630630493164,-0.0036630630493164,0.0,0.0,0.0,0.0
2025-11-06 18:37:40.232,324.05,-0.033,0.004,0.0,-0.35,-0.95,0.168,7.92,-6.43,-47.17,0.6064,-0.75,-0.0484,-0.2596,0.002,0.011,-0.011,310.165,-0.003,-0.003,0.0,-0.17,-0.956,-0.207,24.55,-22.68,-74.39,-0.5914,0.5459,0.3155,0.5025000000000001,0.002,-0.007,0.002,312.26,-0.017,-0.013,0.005,-0.183,-0.984,0.067,62.370000000000005,-15.28,-66.64,-0.2184,0.3568,0.6377,0.6466000000000001,0.0,0.003,0.0,0.0,0.0,0.0,0.0,0.0,0.0,-0.0001916885375976,0.0005750656127929,-0.0659332275390625,-0.1538467407226562,-0.0036630630493164,-0.0036630630493164,0.0,0.0,0.0,0.0
2025-11-06 18:37:40.232,324.105,-0.021,0.009,0.0,-0.348,-0.937,0.154,8.15,-6.63,-47.58,0.6069,-0.7495,-0.0483,-0.2597,0.0,-0.001,0.001,310.165,-0.003,-0.003,0.0,-0.17,-0.956,-0.207,24.55,-22.68,-74.39,-0.5914,0.5459,0.3155,0.5025000000000001,0.002,-0.007,0.002,312.26,-0.017,-0.013,0.005,-0.183,-0.984,0.067,62.370000000000005,-15.28,-66.64,-0.2184,0.3568,0.6377,0.6466000000000001,0.0,0.003,0.0,0.0,0.0,0.0,0.0,0.0,0.0,-0.0001916885375976,0.0005750656127929,-0.0659332275390625,-0.1538467407226562,-0.0036630630493164,-0.0036630630493164,0.0,0.0,0.0,0.0
2025-11-06 18:37:40.232,324.06,-0.031,0.01,0.0,-0.348,-0.946,0.166,7.8,-6.3100000000000005,-46.56,0.6065,-0.7499,-0.0484,-0.2596,0.0,0.007,-0.009,310.165,-0.003,-0.003,0.0,-0.17,-0.956,-0.207,24.55,-22.68,-74.39,-0.5914,0.5459,0.3155,0.5025000000000001,0.002,-0.007,0.002,312.26,-0.017,-0.013,0.005,-0.183,-0.984,0.067,62.370000000000005,-15.28,-66.64,-0.2184,0.3568,0.6377,0.6466000000000001,0.0,0.003,0.0,0.0,0.0,0.0,0.0,0.0,0.0,-0.0001916885375976,0.0005750656127929,-0.0659332275390625,-0.1538467407226562,-0.0036630630493164,-0.0036630630493164,0.0,0.0,0.0,0.0
2025-11-06 18:37:40.232,324.065,-0.033,0.01,-0.001,-0.349,-0.944,0.164,7.8,-6.3100000000000005,-46.56,0.6065,-0.7498,-0.0484,-0.2596,0.0,0.005,-0.007,310.165,-0.003,-0.003,0.0,-0.17,-0.956,-0.207,24.55,-22.68,-74.39,-0.5914,0.5459,0.3155,0.5025000000000001,0.002,-0.007,0.002,312.26,-0.017,-0.013,0.005,-0.183,-0.984,0.067,62.370000000000005,-15.28,-66.64,-0.2184,0.3568,0.6377,0.6466000000000001,0.0,0.003,0.0,0.0,0.0,0.0,0.0,0.0,0.0,-0.0001916885375976,0.0005750656127929,-0.0659332275390625,-0.1538467407226562,-0.0036630630493164,-0.0036630630493164,0.0,0.0,0.0,0.0
2025-11-06 18:37:40.232,324.07,-0.033,0.004,-0.001,-0.348,-0.94,0.164,8.74,-7.74,-47.55,0.6066,-0.7498,-0.0483,-0.2596,0.0,0.002,-0.008,310.165,-0.003,-0.003,0.0,-0.17,-0.956,-0.207,24.55,-22.68,-74.39,-0.5914,0.5459,0.3155,0.5025000000000001,0.002,-0.007,0.002,312.26,-0.017,-0.013,0.005,-0.183,-0.984,0.067,62.370000000000005,-15.28,-66.64,-0.2184,0.3568,0.6377,0.6466000000000001,0.0,0.003,0.0,0.0,0.0,0.0,0.0,0.0,0.0,-0.0001916885375976,0.0005750656127929,-0.0659332275390625,-0.1538467407226562,-0.0036630630493164,-0.0036630630493164,0.0,0.0,0.0,0.0
2025-11-06 18:37:40.232,324.075,-0.029,0.008,-0.001,-0.349,-0.939,0.161,8.74,-7.74,-47.55,0.6066,-0.7497,-0.0483,-0.2596,0.0,0.0,-0.005,310.165,-0.003,-0.003,0.0,-0.17,-0.956,-0.207,24.55,-22.68,-74.39,-0.5914,0.5459,0.3155,0.5025000000000001,0.002,-0.007,0.002,312.26,-0.017,-0.013,0.005,-0.183,-0.984,0.067,62.370000000000005,-15.28,-66.64,-0.2184,0.3568,0.6377,0.6466000000000001,0.0,0.003,0.0,0.0,0.0,0.0,0.0,0.0,0.0,-0.0001916885375976,0.0005750656127929,-0.0659332275390625,-0.1538467407226562,-0.0036630630493164,-0.0036630630493164,0.0,0.0,0.0,0.0
2025-11-06 18:37:40.232,324.085,-0.028,0.001,0.0,-0.349,-0.939,0.159,7.48,-5.99,-47.58,0.6067,-0.7497,-0.0483,-0.2596,0.001,0.0,-0.003,310.165,-0.003,-0.003,0.0,-0.17,-0.956,-0.207,24.55,-22.68,-74.39,-0.5914,0.5459,0.3155,0.5025000000000001,0.002,-0.007,0.002,312.26,-0.017,-0.013,0.005,-0.183,-0.984,0.067,62.370000000000005,-15.28,-66.64,-0.2184,0.3568,0.6377,0.6466000000000001,0.0,0.003,0.0,0.0,0.0,0.0,0.0,0.0,0.0,-0.0001916885375976,0.0005750656127929,-0.0659332275390625,-0.1538467407226562,-0.0036630630493164,-0.0036630630493164,0.0,0.0,0.0,0.0
2025-11-06 18:37:40.232,324.09,-0.028,0.0,0.0,-0.349,-0.939,0.157,7.48,-5.99,-47.58,0.6067,-0.7496,-0.0483,-0.2596,0.0,0.0,-0.001,310.165,-0.003,-0.003,0.0,-0.17,-0.956,-0.207,24.55,-22.68,-74.39,-0.5914,0.5459,0.3155,0.5025000000000001,0.002,-0.007,0.002,312.26,-0.017,-0.013,0.005,-0.183,-0.984,0.067,62.370000000000005,-15.28,-66.64,-0.2184,0.3568,0.6377,0.6466000000000001,0.0,0.003,0.0,0.0,0.0,0.0,0.0,0.0,0.0,-0.0001916885375976,0.0005750656127929,-0.0659332275390625,-0.1538467407226562,-0.0036630630493164,-0.0036630630493164,0.0,0.0,0.0,0.0
2025-11-06 18:37:40.232,324.055,-0.033,0.01,0.0,-0.35,-0.946,0.169,7.92,-6.43,-47.17,0.6064,-0.7499,-0.0484,-0.2596,0.001,0.008,-0.012,310.165,-0.003,-0.003,0.0,-0.17,-0.956,-0.207,24.55,-22.68,-74.39,-0.5914,0.5459,0.3155,0.5025000000000001,0.002,-0.007,0.002,312.26,-0.017,-0.013,0.005,-0.183,-0.984,0.067,62.370000000000005,-15.28,-66.64,-0.2184,0.3568,0.6377,0.6466000000000001,0.0,0.003,0.0,0.0,0.0,0.0,0.0,0.0,0.0,-0.0001916885375976,0.0005750656127929,-0.0659332275390625,-0.1538467407226562,-0.0036630630493164,-0.0036630630493164,0.0,0.0,0.0,0.0
2025-11-06 18:37:40.232,324.08,-0.028,0.006,-0.002,-0.349,-0.938,0.16,8.74,-7.74,-47.55,0.6067,-0.7497,-0.0483,-0.2596,0.0,0.0,-0.004,310.165,-0.003,-0.003,0.0,-0.17,-0.956,-0.207,24.55,-22.68,-74.39,-0.5914,0.5459,0.3155,0.5025000000000001,0.002,-0.007,0.002,312.26,-0.017,-0.013,0.005,-0.183,-0.984,0.067,62.370000000000005,-15.28,-66.64,-0.2184,0.3568,0.6377,0.6466000000000001,0.0,0.003,0.0,0.0,0.0,0.0,0.0,0.0,0.0,-0.0001916885375976,0.0005750656127929,-0.0659332275390625,-0.1538467407226562,-0.0036630630493164,-0.0036630630493164,0.0,0.0,0.0,0.0
2025-11-06 18:37:40.232,324.11,-0.023,0.011,-0.002,-0.349,-0.937,0.154,7.92,-5.93,-47.52,0.6069,-0.7495,-0.0483,-0.2597,0.001,-0.001,0.0,310.165,-0.003,-0.003,0.0,-0.17,-0.956,-0.207,24.55,-22.68,-74.39,-0.5914,0.5459,0.3155,0.5025000000000001,0.002,-0.007,0.002,312.26,-0.017,-0.013,0.005,-0.183,-0.984,0.067,62.370000000000005,-15.28,-66.64,-0.2184,0.3568,0.6377,0.6466000000000001,0.0,0.003,0.0,0.0,0.0,0.0,0.0,0.0,0.0,-0.0001916885375976,0.0005750656127929,-0.0659332275390625,-0.1538467407226562,-0.0036630630493164,-0.0036630630493164,0.0,0.0,0.0,0.0
2025-11-06 18:37:40.232,324.115,-0.025,0.012,-0.002,-0.351,-0.936,0.154,7.92,-5.93,-47.52,0.607,-0.7494000000000001,-0.0483,-0.2598,0.002,-0.003,0.0,310.165,-0.003,-0.003,0.0,-0.17,-0.956,-0.207,24.55,-22.68,-74.39,-0.5914,0.5459,0.3155,0.5025000000000001,0.002,-0.007,0.002,312.26,-0.017,-0.013,0.005,-0.183,-0.984,0.067,62.370000000000005,-15.28,-66.64,-0.2184,0.3568,0.6377,0.6466000000000001,0.0,0.003,0.0,0.0,0.0,0.0,0.0,0.0,0.0,-0.0001916885375976,0.0005750656127929,-0.0659332275390625,-0.1538467407226562,-0.0036630630493164,-0.0036630630493164,0.0,0.0,0.0,0.0
2025-11-06 18:37:40.232,324.12,-0.028,0.012,-0.003,-0.351,-0.935,0.154,8.790000000000001,-6.1000000000000005,-47.47,0.607,-0.7494000000000001,-0.0483,-0.2598,0.003,-0.004,0.0,310.165,-0.003,-0.003,0.0,-0.17,-0.956,-0.207,24.55,-22.68,-74.39,-0.5914,0.5459,0.3155,0.5025000000000001,0.002,-0.007,0.002,312.26,-0.017,-0.013,0.005,-0.183,-0.984,0.067,62.370000000000005,-15.28,-66.64,-0.2184,0.3568,0.6377,0.6466000000000001,0.0,0.003,0.0,0.0,0.0,0.0,0.0,0.0,0.0,-0.0001916885375976,0.0005750656127929,-0.0659332275390625,-0.1538467407226562,-0.0036630630493164,-0.0036630630493164,0.0,0.0,0.0,0.0
2025-11-06 18:37:40.232,324.125,-0.027,0.015,0.0,-0.352,-0.934,0.154,8.790000000000001,-6.1000000000000005,-47.47,0.6071000000000001,-0.7493000000000001,-0.0483,-0.2598,0.003,-0.004,0.0,310.165,-0.003,-0.003,0.0,-0.17,-0.956,-0.207,24.55,-22.68,-74.39,-0.5914,0.5459,0.3155,0.5025000000000001,0.002,-0.007,0.002,312.26,-0.017,-0.013,0.005,-0.183,-0.984,0.067,62.370000000000005,-15.28,-66.64,-0.2184,0.3568,0.6377,0.6466000000000001,0.0,0.003,0.0,0.0,0.0,0.0,0.0,0.0,0.0,-0.0001916885375976,0.0005750656127929,-0.0659332275390625,-0.1538467407226562,-0.0036630630493164,-0.0036630630493164,0.0,0.0,0.0,0.0
2025-11-06 18:37:40.232,324.13,-0.026,0.008,-0.001,-0.352,-0.935,0.154,8.790000000000001,-6.1000000000000005,-47.47,0.6071000000000001,-0.7493000000000001,-0.0483,-0.2599,0.003,-0.004,0.0,310.165,-0.003,-0.003,0.0,-0.17,-0.956,-0.207,24.55,-22.68,-74.39,-0.5914,0.5459,0.3155,0.5025000000000001,0.002,-0.007,0.002,312.26,-0.017,-0.013,0.005,-0.183,-0.984,0.067,62.370000000000005,-15.28,-66.64,-0.2184,0.3568,0.6377,0.6466000000000001,0.0,0.003,0.0,0.0,0.0,0.0,0.0,0.0,0.0,-0.0001916885375976,0.0005750656127929,-0.0659332275390625,-0.1538467407226562,-0.0036630630493164,-0.0036630630493164,0.0,0.0,0.0,0.0
2025-11-06 18:37:40.232,324.135,-0.026,0.009,0.0,-0.353,-0.937,0.156,7.86,-6.34,-47.73,0.6071000000000001,-0.7492000000000001,-0.0482,-0.2599,0.004,-0.001,-0.002,310.165,-0.003,-0.003,0.0,-0.17,-0.956,-0.207,24.55,-22.68,-74.39,-0.5914,0.5459,0.3155,0.5025000000000001,0.002,-0.007,0.002,312.26,-0.017,-0.013,0.005,-0.183,-0.984,0.067,62.370000000000005,-15.28,-66.64,-0.2184,0.3568,0.6377,0.6466000000000001,0.0,0.003,0.0,0.0,0.0,0.0,0.0,0.0,0.0,-0.0001916885375976,0.0005750656127929,-0.0659332275390625,-0.1538467407226562,-0.0036630630493164,-0.0036630630493164,0.0,0.0,0.0,0.0
2025-11-06 18:37:40.232,324.14,-0.03,0.009,-0.002,-0.353,-0.94,0.157,7.86,-6.34,-47.73,0.6072000000000001,-0.7492000000000001,-0.0482,-0.2599,0.004,0.001,-0.002,310.165,-0.003,-0.003,0.0,-0.17,-0.956,-0.207,24.55,-22.68,-74.39,-0.5914,0.5459,0.3155,0.5025000000000001,0.002,-0.007,0.002,312.26,-0.017,-0.013,0.005,-0.183,-0.984,0.067,62.370000000000005,-15.28,-66.64,-0.2184,0.3568,0.6377,0.6466000000000001,0.0,0.003,0.0,0.0,0.0,0.0,0.0,0.0,0.0,-0.0001916885375976,0.0005750656127929,-0.0659332275390625,-0.1538467407226562,-0.0036630630493164,-0.0036630630493164,0.0,0.0,0.0,0.0
2025-11-06 18:37:40.232,324.095,-0.025,0.004,0.0,-0.348,-0.94,0.155,8.15,-6.63,-47.58,0.6068,-0.7496,-0.0483,-0.2596,0.0,0.001,0.0,310.165,-0.003,-0.003,0.0,-0.17,-0.956,-0.207,24.55,-22.68,-74.39,-0.5914,0.5459,0.3155,0.5025000000000001,0.002,-0.007,0.002,312.26,-0.017,-0.013,0.005,-0.183,-0.984,0.067,62.370000000000005,-15.28,-66.64,-0.2184,0.3568,0.6377,0.6466000000000001,0.0,0.003,0.0,0.0,0.0,0.0,0.0,0.0,0.0,-0.0001916885375976,0.0005750656127929,-0.0659332275390625,-0.1538467407226562,-0.0036630630493164,-0.0036630630493164,0.0,0.0,0.0,0.0
2025-11-06 18:37:40.232,324.1,-0.022,0.005,0.0,-0.348,-0.939,0.154,8.15,-6.63,-47.58,0.6068,-0.7496,-0.0483,-0.2597,0.0,0.0,0.0,310.165,-0.003,-0.003,0.0,-0.17,-0.956,-0.207,24.55,-22.68,-74.39,-0.5914,0.5459,0.3155,0.5025000000000001,0.002,-0.007,0.002,312.26,-0.017,-0.013,0.005,-0.183,-0.984,0.067,62.370000000000005,-15.28,-66.64,-0.2184,0.3568,0.6377,0.6466000000000001,0.0,0.003,0.0,0.0,0.0,0.0,0.0,0.0,0.0,-0.0001916885375976,0.0005750656127929,-0.0659332275390625,-0.1538467407226562,-0.0036630630493164,-0.0036630630493164,0.0,0.0,0.0,0.0
2025-11-06 18:37:40.233,324.185,-0.025,0.008,0.001,-0.352,-0.95,0.162,8.44,-7.27,-46.85,0.6075,-0.7488,-0.0481,-0.2601,0.003,0.01,-0.008,310.165,-0.003,-0.003,0.0,-0.17,-0.956,-0.207,24.55,-22.68,-74.39,-0.5914,0.5459,0.3155,0.5025000000000001,0.002,-0.007,0.002,312.26,-0.017,-0.013,0.005,-0.183,-0.984,0.067,62.370000000000005,-15.28,-66.64,-0.2184,0.3568,0.6377,0.6466000000000001,0.0,0.003,0.0,0.0,0.0,0.0,0.0,0.0,0.0,-0.0001916885375976,0.0005750656127929,-0.0659332275390625,-0.1538467407226562,-0.0036630630493164,-0.0036630630493164,0.0,0.0,0.0,0.0
2025-11-06 18:37:40.233,324.18,-0.022,0.013,0.002,-0.354,-0.952,0.162,8.88,-6.22,-47.88,0.6075,-0.7489,-0.0482,-0.2601,0.005,0.013,-0.008,310.165,-0.003,-0.003,0.0,-0.17,-0.956,-0.207,24.55,-22.68,-74.39,-0.5914,0.5459,0.3155,0.5025000000000001,0.002,-0.007,0.002,312.26,-0.017,-0.013,0.005,-0.183,-0.984,0.067,62.370000000000005,-15.28,-66.64,-0.2184,0.3568,0.6377,0.6466000000000001,0.0,0.003,0.0,0.0,0.0,0.0,0.0,0.0,0.0,-0.0001916885375976,0.0005750656127929,-0.0659332275390625,-0.1538467407226562,-0.0036630630493164,-0.0036630630493164,0.0,0.0,0.0,0.0
2025-11-06 18:37:40.233,324.175,-0.02,0.008,0.0,-0.356,-0.952,0.159,8.88,-6.22,-47.88,0.6074,-0.7489,-0.0482,-0.26,0.007,0.013,-0.005,310.165,-0.003,-0.003,0.0,-0.17,-0.956,-0.207,24.55,-22.68,-74.39,-0.5914,0.5459,0.3155,0.5025000000000001,0.002,-0.007,0.002,312.26,-0.017,-0.013,0.005,-0.183,-0.984,0.067,62.370000000000005,-15.28,-66.64,-0.2184,0.3568,0.6377,0.6466000000000001,0.0,0.003,0.0,0.0,0.0,0.0,0.0,0.0,0.0,-0.0001916885375976,0.0005750656127929,-0.0659332275390625,-0.1538467407226562,-0.0036630630493164,-0.0036630630493164,0.0,0.0,0.0,0.0
2025-11-06 18:37:40.233,324.17,-0.016,0.006,0.001,-0.356,-0.953,0.156,7.77,-6.08,-47.44,0.6074,-0.749,-0.0482,-0.26,0.007,0.013,-0.003,310.165,-0.003,-0.003,0.0,-0.17,-0.956,-0.207,24.55,-22.68,-74.39,-0.5914,0.5459,0.3155,0.5025000000000001,0.002,-0.007,0.002,312.26,-0.017,-0.013,0.005,-0.183,-0.984,0.067,62.370000000000005,-15.28,-66.64,-0.2184,0.3568,0.6377,0.6466000000000001,0.0,0.003,0.0,0.0,0.0,0.0,0.0,0.0,0.0,-0.0001916885375976,0.0005750656127929,-0.0659332275390625,-0.1538467407226562,-0.0036630630493164,-0.0036630630493164,0.0,0.0,0.0,0.0
2025-11-06 18:37:40.233,324.15,-0.029,0.005,0.001,-0.354,-0.943,0.16,7.890000000000001,-6.08,-47.23,0.6073000000000001,-0.7491,-0.0482,-0.26,0.005,0.004,-0.006,310.165,-0.003,-0.003,0.0,-0.17,-0.956,-0.207,24.55,-22.68,-74.39,-0.5914,0.5459,0.3155,0.5025000000000001,0.002,-0.007,0.002,312.26,-0.017,-0.013,0.005,-0.183,-0.984,0.067,62.370000000000005,-15.28,-66.64,-0.2184,0.3568,0.6377,0.6466000000000001,0.0,0.003,0.0,0.0,0.0,0.0,0.0,0.0,0.0,-0.0001916885375976,0.0005750656127929,-0.0659332275390625,-0.1538467407226562,-0.0036630630493164,-0.0036630630493164,0.0,0.0,0.0,0.0
2025-11-06 18:37:40.233,324.16,-0.023,-0.001,0.001,-0.356,-0.949,0.158,7.77,-6.08,-47.44,0.6074,-0.749,-0.0482,-0.26,0.007,0.009,-0.004,310.165,-0.003,-0.003,0.0,-0.17,-0.956,-0.207,24.55,-22.68,-74.39,-0.5914,0.5459,0.3155,0.5025000000000001,0.002,-0.007,0.002,312.26,-0.017,-0.013,0.005,-0.183,-0.984,0.067,62.370000000000005,-15.28,-66.64,-0.2184,0.3568,0.6377,0.6466000000000001,0.0,0.003,0.0,0.0,0.0,0.0,0.0,0.0,0.0,-0.0001916885375976,0.0005750656127929,-0.0659332275390625,-0.1538467407226562,-0.0036630630493164,-0.0036630630493164,0.0,0.0,0.0,0.0
2025-11-06 18:37:40.233,324.155,-0.025,0.004,0.0,-0.355,-0.947,0.16,7.890000000000001,-6.08,-47.23,0.6073000000000001,-0.7491,-0.0482,-0.26,0.006,0.008,-0.006,310.165,-0.003,-0.003,0.0,-0.17,-0.956,-0.207,24.55,-22.68,-74.39,-0.5914,0.5459,0.3155,0.5025000000000001,0.002,-0.007,0.002,312.26,-0.017,-0.013,0.005,-0.183,-0.984,0.067,62.370000000000005,-15.28,-66.64,-0.2184,0.3568,0.6377,0.6466000000000001,0.0,0.003,0.0,0.0,0.0,0.0,0.0,0.0,0.0,-0.0001916885375976,0.0005750656127929,-0.0659332275390625,-0.1538467407226562,-0.0036630630493164,-0.0036630630493164,0.0,0.0,0.0,0.0
2025-11-06 18:37:40.233,324.19,-0.025,0.016,0.002,-0.352,-0.95,0.161,8.44,-7.27,-46.85,0.6076,-0.7488,-0.0481,-0.2601,0.003,0.011,-0.008,310.165,-0.003,-0.003,0.0,-0.17,-0.956,-0.207,24.55,-22.68,-74.39,-0.5914,0.5459,0.3155,0.5025000000000001,0.002,-0.007,0.002,312.26,-0.017,-0.013,0.005,-0.183,-0.984,0.067,62.370000000000005,-15.28,-66.64,-0.2184,0.3568,0.6377,0.6466000000000001,0.0,0.003,0.0,0.0,0.0,0.0,0.0,0.0,0.0,-0.0001916885375976,0.0005750656127929,-0.0659332275390625,-0.1538467407226562,-0.0036630630493164,-0.0036630630493164,0.0,0.0,0.0,0.0
2025-11-06 18:37:40.233,324.26,-0.024,0.033,0.018,-0.352,-0.943,0.153,7.51,-8.21,-47.23,0.6081,-0.748,-0.0481,-0.2611,0.001,0.004,-0.002,310.165,-0.003,-0.003,0.0,-0.17,-0.956,-0.207,24.55,-22.68,-74.39,-0.5914,0.5459,0.3155,0.5025000000000001,0.002,-0.007,0.002,312.26,-0.017,-0.013,0.005,-0.183,-0.984,0.067,62.370000000000005,-15.28,-66.64,-0.2184,0.3568,0.6377,0.6466000000000001,0.0,0.003,0.0,0.0,0.0,0.0,0.0,0.0,0.0,-0.0001916885375976,0.0005750656127929,-0.0659332275390625,-0.1538467407226562,-0.0036630630493164,-0.0036630630493164,0.0,0.0,0.0,0.0
2025-11-06 18:37:40.233,324.165,-0.019,0.005,0.002,-0.357,-0.951,0.156,7.77,-6.08,-47.44,0.6074,-0.749,-0.0482,-0.26,0.008,0.011,-0.003,310.165,-0.003,-0.003,0.0,-0.17,-0.956,-0.207,24.55,-22.68,-74.39,-0.5914,0.5459,0.3155,0.5025000000000001,0.002,-0.007,0.002,312.26,-0.017,-0.013,0.005,-0.183,-0.984,0.067,62.370000000000005,-15.28,-66.64,-0.2184,0.3568,0.6377,0.6466000000000001,0.0,0.003,0.0,0.0,0.0,0.0,0.0,0.0,0.0,-0.0001916885375976,0.0005750656127929,-0.0659332275390625,-0.1538467407226562,-0.0036630630493164,-0.0036630630493164,0.0,0.0,0.0,0.0
2025-11-06 18:37:40.233,324.195,-0.028,0.018,0.004,-0.35,-0.947,0.16,8.44,-7.27,-46.85,0.6076,-0.7487,-0.0482,-0.2602,0.001,0.007,-0.007,310.165,-0.003,-0.003,0.0,-0.17,-0.956,-0.207,24.55,-22.68,-74.39,-0.5914,0.5459,0.3155,0.5025000000000001,0.002,-0.007,0.002,312.26,-0.017,-0.013,0.005,-0.183,-0.984,0.067,62.370000000000005,-15.28,-66.64,-0.2184,0.3568,0.6377,0.6466000000000001,0.0,0.003,0.0,0.0,0.0,0.0,0.0,0.0,0.0,-0.0001916885375976,0.0005750656127929,-0.0659332275390625,-0.1538467407226562,-0.0036630630493164,-0.0036630630493164,0.0,0.0,0.0,0.0
2025-11-06 18:37:40.233,324.215,-0.041,0.026,0.013,-0.343,-0.941,0.155,7.86,-6.22,-47.44,0.6079,-0.7485,-0.0482,-0.2604,-0.005,0.001,-0.003,310.165,-0.003,-0.003,0.0,-0.17,-0.956,-0.207,24.55,-22.68,-74.39,-0.5914,0.5459,0.3155,0.5025000000000001,0.002,-0.007,0.002,312.26,-0.017,-0.013,0.005,-0.183,-0.984,0.067,62.370000000000005,-15.28,-66.64,-0.2184,0.3568,0.6377,0.6466000000000001,0.0,0.003,0.0,0.0,0.0,0.0,0.0,0.0,0.0,-0.0001916885375976,0.0005750656127929,-0.0659332275390625,-0.1538467407226562,-0.0036630630493164,-0.0036630630493164,0.0,0.0,0.0,0.0
2025-11-06 18:37:40.233,324.205,-0.034,0.027,0.008,-0.346,-0.943,0.158,7.71,-6.25,-47.26,0.6077,-0.7486,-0.0482,-0.2603,-0.002,0.004,-0.006,310.165,-0.003,-0.003,0.0,-0.17,-0.956,-0.207,24.55,-22.68,-74.39,-0.5914,0.5459,0.3155,0.5025000000000001,0.002,-0.007,0.002,312.26,-0.017,-0.013,0.005,-0.183,-0.984,0.067,62.370000000000005,-15.28,-66.64,-0.2184,0.3568,0.6377,0.6466000000000001,0.0,0.003,0.0,0.0,0.0,0.0,0.0,0.0,0.0,-0.0001916885375976,0.0005750656127929,-0.0659332275390625,-0.1538467407226562,-0.0036630630493164,-0.0036630630493164,0.0,0.0,0.0,0.0
2025-11-06 18:37:40.233,324.2,-0.034,0.026,0.004,-0.347,-0.945,0.158,7.71,-6.25,-47.26,0.6077,-0.7487,-0.0482,-0.2602,-0.001,0.005,-0.005,310.165,-0.003,-0.003,0.0,-0.17,-0.956,-0.207,24.55,-22.68,-74.39,-0.5914,0.5459,0.3155,0.5025000000000001,0.002,-0.007,0.002,312.26,-0.017,-0.013,0.005,-0.183,-0.984,0.067,62.370000000000005,-15.28,-66.64,-0.2184,0.3568,0.6377,0.6466000000000001,0.0,0.003,0.0,0.0,0.0,0.0,0.0,0.0,0.0,-0.0001916885375976,0.0005750656127929,-0.0659332275390625,-0.1538467407226562,-0.0036630630493164,-0.0036630630493164,0.0,0.0,0.0,0.0
2025-11-06 18:37:40.233,324.245,-0.017,0.026,0.023,-0.347,-0.943,0.156,8.03,-6.84,-47.67,0.6081,-0.7482000000000001,-0.0481,-0.2608,-0.002,0.004,-0.005,310.165,-0.003,-0.003,0.0,-0.17,-0.956,-0.207,24.55,-22.68,-74.39,-0.5914,0.5459,0.3155,0.5025000000000001,0.002,-0.007,0.002,312.26,-0.017,-0.013,0.005,-0.183,-0.984,0.067,62.370000000000005,-15.28,-66.64,-0.2184,0.3568,0.6377,0.6466000000000001,0.0,0.003,0.0,0.0,0.0,0.0,0.0,0.0,0.0,-0.0001916885375976,0.0005750656127929,-0.0659332275390625,-0.1538467407226562,-0.0036630630493164,-0.0036630630493164,0.0,0.0,0.0,0.0
2025-11-06 18:37:40.233,324.24,-0.024,0.023,0.024,-0.345,-0.942,0.157,8.03,-6.84,-47.67,0.6081,-0.7482000000000001,-0.0481,-0.2607,-0.004,0.002,-0.006,310.165,-0.003,-0.003,0.0,-0.17,-0.956,-0.207,24.55,-22.68,-74.39,-0.5914,0.5459,0.3155,0.5025000000000001,0.002,-0.007,0.002,312.26,-0.017,-0.013,0.005,-0.183,-0.984,0.067,62.370000000000005,-15.28,-66.64,-0.2184,0.3568,0.6377,0.6466000000000001,0.0,0.003,0.0,0.0,0.0,0.0,0.0,0.0,0.0,-0.0001916885375976,0.0005750656127929,-0.0659332275390625,-0.1538467407226562,-0.0036630630493164,-0.0036630630493164,0.0,0.0,0.0,0.0
2025-11-06 18:37:40.233,324.235,-0.025,0.026,0.022,-0.343,-0.942,0.159,8.03,-6.84,-47.67,0.608,-0.7482000000000001,-0.0481,-0.2607,-0.005,0.002,-0.008,310.165,-0.003,-0.003,0.0,-0.17,-0.956,-0.207,24.55,-22.68,-74.39,-0.5914,0.5459,0.3155,0.5025000000000001,0.002,-0.007,0.002,312.26,-0.017,-0.013,0.005,-0.183,-0.984,0.067,62.370000000000005,-15.28,-66.64,-0.2184,0.3568,0.6377,0.6466000000000001,0.0,0.003,0.0,0.0,0.0,0.0,0.0,0.0,0.0,-0.0001916885375976,0.0005750656127929,-0.0659332275390625,-0.1538467407226562,-0.0036630630493164,-0.0036630630493164,0.0,0.0,0.0,0.0
2025-11-06 18:37:40.233,324.25,-0.016,0.032,0.024,-0.348,-0.944,0.155,7.42,-6.3100000000000005,-47.32,0.6081,-0.7481,-0.0481,-0.2609,0.0,0.005,-0.004,310.165,-0.003,-0.003,0.0,-0.17,-0.956,-0.207,24.55,-22.68,-74.39,-0.5914,0.5459,0.3155,0.5025000000000001,0.002,-0.007,0.002,312.26,-0.017,-0.013,0.005,-0.183,-0.984,0.067,62.370000000000005,-15.28,-66.64,-0.2184,0.3568,0.6377,0.6466000000000001,0.0,0.003,0.0,0.0,0.0,0.0,0.0,0.0,0.0,-0.0001916885375976,0.0005750656127929,-0.0659332275390625,-0.1538467407226562,-0.0036630630493164,-0.0036630630493164,0.0,0.0,0.0,0.0
2025-11-06 18:37:40.233,324.225,-0.039,0.026,0.018,-0.343,-0.942,0.158,7.62,-6.08,-47.52,0.608,-0.7483000000000001,-0.0481,-0.2606,-0.005,0.003,-0.006,310.165,-0.003,-0.003,0.0,-0.17,-0.956,-0.207,24.55,-22.68,-74.39,-0.5914,0.5459,0.3155,0.5025000000000001,0.002,-0.007,0.002,312.26,-0.017,-0.013,0.005,-0.183,-0.984,0.067,62.370000000000005,-15.28,-66.64,-0.2184,0.3568,0.6377,0.6466000000000001,0.0,0.003,0.0,0.0,0.0,0.0,0.0,0.0,0.0,-0.0001916885375976,0.0005750656127929,-0.0659332275390625,-0.1538467407226562,-0.0036630630493164,-0.0036630630493164,0.0,0.0,0.0,0.0
2025-11-06 18:37:40.233,324.21,-0.04,0.027,0.011,-0.344,-0.942,0.156,7.86,-6.22,-47.44,0.6078,-0.7485,-0.0482,-0.2604,-0.004,0.003,-0.004,310.165,-0.003,-0.003,0.0,-0.17,-0.956,-0.207,24.55,-22.68,-74.39,-0.5914,0.5459,0.3155,0.5025000000000001,0.002,-0.007,0.002,312.26,-0.017,-0.013,0.005,-0.183,-0.984,0.067,62.370000000000005,-15.28,-66.64,-0.2184,0.3568,0.6377,0.6466000000000001,0.0,0.003,0.0,0.0,0.0,0.0,0.0,0.0,0.0,-0.0001916885375976,0.0005750656127929,-0.0659332275390625,-0.1538467407226562,-0.0036630630493164,-0.0036630630493164,0.0,0.0,0.0,0.0
2025-11-06 18:37:40.233,324.23,-0.032,0.022,0.023,-0.342,-0.941,0.158,7.62,-6.08,-47.52,0.608,-0.7483000000000001,-0.0481,-0.2606,-0.006,0.002,-0.006,310.165,-0.003,-0.003,0.0,-0.17,-0.956,-0.207,24.55,-22.68,-74.39,-0.5914,0.5459,0.3155,0.5025000000000001,0.002,-0.007,0.002,312.26,-0.017,-0.013,0.005,-0.183,-0.984,0.067,62.370000000000005,-15.28,-66.64,-0.2184,0.3568,0.6377,0.6466000000000001,0.0,0.003,0.0,0.0,0.0,0.0,0.0,0.0,0.0,-0.0001916885375976,0.0005750656127929,-0.0659332275390625,-0.1538467407226562,-0.0036630630493164,-0.0036630630493164,0.0,0.0,0.0,0.0
2025-11-06 18:37:40.233,324.255,-0.02,0.033,0.019,-0.351,-0.944,0.154,7.42,-6.3100000000000005,-47.32,0.6081,-0.7481,-0.0481,-0.261,0.001,0.004,-0.003,310.165,-0.003,-0.003,0.0,-0.17,-0.956,-0.207,24.55,-22.68,-74.39,-0.5914,0.5459,0.3155,0.5025000000000001,0.002,-0.007,0.002,312.26,-0.017,-0.013,0.005,-0.183,-0.984,0.067,62.370000000000005,-15.28,-66.64,-0.2184,0.3568,0.6377,0.6466000000000001,0.0,0.003,0.0,0.0,0.0,0.0,0.0,0.0,0.0,-0.0001916885375976,0.0005750656127929,-0.0659332275390625,-0.1538467407226562,-0.0036630630493164,-0.0036630630493164,0.0,0.0,0.0,0.0
2025-11-06 18:37:40.233,324.145,-0.029,0.008,0.001,-0.355,-0.941,0.158,7.86,-6.34,-47.73,0.6072000000000001,-0.7491,-0.0482,-0.26,0.006,0.002,-0.004,310.165,-0.003,-0.003,0.0,-0.17,-0.956,-0.207,24.55,-22.68,-74.39,-0.5914,0.5459,0.3155,0.5025000000000001,0.002,-0.007,0.002,312.26,-0.017,-0.013,0.005,-0.183,-0.984,0.067,62.370000000000005,-15.28,-66.64,-0.2184,0.3568,0.6377,0.6466000000000001,0.0,0.003,0.0,0.0,0.0,0.0,0.0,0.0,0.0,-0.0001916885375976,0.0005750656127929,-0.0659332275390625,-0.1538467407226562,-0.0036630630493164,-0.0036630630493164,0.0,0.0,0.0,0.0
2025-11-06 18:37:40.233,324.22,-0.041,0.026,0.016,-0.342,-0.94,0.156,7.86,-6.22,-47.44,0.6079,-0.7484000000000001,-0.0482,-0.2605,-0.007,0.001,-0.004,310.165,-0.003,-0.003,0.0,-0.17,-0.956,-0.207,24.55,-22.68,-74.39,-0.5914,0.5459,0.3155,0.5025000000000001,0.002,-0.007,0.002,312.26,-0.017,-0.013,0.005,-0.183,-0.984,0.067,62.370000000000005,-15.28,-66.64,-0.2184,0.3568,0.6377,0.6466000000000001,0.0,0.003,0.0,0.0,0.0,0.0,0.0,0.0,0.0,-0.0001916885375976,0.0005750656127929,-0.0659332275390625,-0.1538467407226562,-0.0036630630493164,-0.0036630630493164,0.0,0.0,0.0,0.0
2025-11-06 18:37:40.233,324.35,-0.02,0.013,0.018,-0.341,-0.95,0.152,7.8,-6.08,-47.85,0.6087,-0.7473000000000001,-0.048,-0.2621,-0.009,0.011,-0.004,310.165,-0.003,-0.003,0.0,-0.17,-0.956,-0.207,24.55,-22.68,-74.39,-0.5914,0.5459,0.3155,0.5025000000000001,0.002,-0.007,0.002,312.26,-0.017,-0.013,0.005,-0.183,-0.984,0.067,62.370000000000005,-15.28,-66.64,-0.2184,0.3568,0.6377,0.6466000000000001,0.0,0.003,0.0,0.0,0.0,0.0,0.0,0.0,0.0,-0.0001916885375976,0.0005750656127929,-0.0659332275390625,-0.1538467407226562,-0.0036630630493164,-0.0036630630493164,0.0,0.0,0.0,0.0
2025-11-06 18:37:40.233,324.33,-0.012,0.009,0.018,-0.34,-0.949,0.152,7.57,-6.4,-47.47,0.6086,-0.7474000000000001,-0.0481,-0.2619,-0.01,0.01,-0.003,310.165,-0.003,-0.003,0.0,-0.17,-0.956,-0.207,24.55,-22.68,-74.39,-0.5914,0.5459,0.3155,0.5025000000000001,0.002,-0.007,0.002,312.26,-0.017,-0.013,0.005,-0.183,-0.984,0.067,62.370000000000005,-15.28,-66.64,-0.2184,0.3568,0.6377,0.6466000000000001,0.0,0.003,0.0,0.0,0.0,0.0,0.0,0.0,0.0,-0.0001916885375976,0.0005750656127929,-0.0659332275390625,-0.1538467407226562,-0.0036630630493164,-0.0036630630493164,0.0,0.0,0.0,0.0
2025-11-06 18:37:40.233,324.265,-0.026,0.032,0.016,-0.353,-0.943,0.152,7.51,-8.21,-47.23,0.6082000000000001,-0.748,-0.0481,-0.2612,0.003,0.004,-0.001,310.165,-0.003,-0.003,0.0,-0.17,-0.956,-0.207,24.55,-22.68,-74.39,-0.5914,0.5459,0.3155,0.5025000000000001,0.002,-0.007,0.002,312.26,-0.017,-0.013,0.005,-0.183,-0.984,0.067,62.370000000000005,-15.28,-66.64,-0.2184,0.3568,0.6377,0.6466000000000001,0.0,0.003,0.0,0.0,0.0,0.0,0.0,0.0,0.0,-0.0001916885375976,0.0005750656127929,-0.0659332275390625,-0.1538467407226562,-0.0036630630493164,-0.0036630630493164,0.0,0.0,0.0,0.0
2025-11-06 18:37:40.233,324.31,-0.018,0.012,0.01,-0.346,-0.949,0.15,7.71,-6.43,-47.06,0.6085,-0.7475,-0.0481,-0.2618,-0.004,0.01,0.0,310.165,-0.003,-0.003,0.0,-0.17,-0.956,-0.207,24.55,-22.68,-74.39,-0.5914,0.5459,0.3155,0.5025000000000001,0.002,-0.007,0.002,312.26,-0.017,-0.013,0.005,-0.183,-0.984,0.067,62.370000000000005,-15.28,-66.64,-0.2184,0.3568,0.6377,0.6466000000000001,0.0,0.003,0.0,0.0,0.0,0.0,0.0,0.0,0.0,-0.0001916885375976,0.0005750656127929,-0.0659332275390625,-0.1538467407226562,-0.0036630630493164,-0.0036630630493164,0.0,0.0,0.0,0.0
2025-11-06 18:37:40.233,324.305,-0.02,0.013,0.012,-0.348,-0.948,0.151,7.890000000000001,-6.3100000000000005,-47.32,0.6084,-0.7475,-0.0481,-0.2618,-0.002,0.008,-0.001,310.165,-0.003,-0.003,0.0,-0.17,-0.956,-0.207,24.55,-22.68,-74.39,-0.5914,0.5459,0.3155,0.5025000000000001,0.002,-0.007,0.002,312.26,-0.017,-0.013,0.005,-0.183,-0.984,0.067,62.370000000000005,-15.28,-66.64,-0.2184,0.3568,0.6377,0.6466000000000001,0.0,0.003,0.0,0.0,0.0,0.0,0.0,0.0,0.0,-0.0001916885375976,0.0005750656127929,-0.0659332275390625,-0.1538467407226562,-0.0036630630493164,-0.0036630630493164,0.0,0.0,0.0,0.0
2025-11-06 18:37:40.233,324.3,-0.018,0.018,0.008,-0.35,-0.945,0.149,7.890000000000001,-6.3100000000000005,-47.32,0.6084,-0.7475,-0.0482,-0.2617,0.0,0.005,0.0,310.165,-0.003,-0.003,0.0,-0.17,-0.956,-0.207,24.55,-22.68,-74.39,-0.5914,0.5459,0.3155,0.5025000000000001,0.002,-0.007,0.002,312.26,-0.017,-0.013,0.005,-0.183,-0.984,0.067,62.370000000000005,-15.28,-66.64,-0.2184,0.3568,0.6377,0.6466000000000001,0.0,0.003,0.0,0.0,0.0,0.0,0.0,0.0,0.0,-0.0001916885375976,0.0005750656127929,-0.0659332275390625,-0.1538467407226562,-0.0036630630493164,-0.0036630630493164,0.0,0.0,0.0,0.0
2025-11-06 18:37:40.233,324.28,-0.026,0.039,0.008,-0.351,-0.943,0.147,7.95,-6.13,-48.11,0.6083000000000001,-0.7477,-0.0481,-0.2615,0.001,0.004,0.002,310.165,-0.003,-0.003,0.0,-0.17,-0.956,-0.207,24.55,-22.68,-74.39,-0.5914,0.5459,0.3155,0.5025000000000001,0.002,-0.007,0.002,312.26,-0.017,-0.013,0.005,-0.183,-0.984,0.067,62.370000000000005,-15.28,-66.64,-0.2184,0.3568,0.6377,0.6466000000000001,0.0,0.003,0.0,0.0,0.0,0.0,0.0,0.0,0.0,-0.0001916885375976,0.0005750656127929,-0.0659332275390625,-0.1538467407226562,-0.0036630630493164,-0.0036630630493164,0.0,0.0,0.0,0.0
2025-11-06 18:37:40.233,324.29,-0.022,0.03,0.008,-0.353,-0.945,0.149,7.45,-6.19,-47.12,0.6084,-0.7476,-0.0481,-0.2616,0.003,0.005,0.0,310.165,-0.003,-0.003,0.0,-0.17,-0.956,-0.207,24.55,-22.68,-74.39,-0.5914,0.5459,0.3155,0.5025000000000001,0.002,-0.007,0.002,312.26,-0.017,-0.013,0.005,-0.183,-0.984,0.067,62.370000000000005,-15.28,-66.64,-0.2184,0.3568,0.6377,0.6466000000000001,0.0,0.003,0.0,0.0,0.0,0.0,0.0,0.0,0.0,-0.0001916885375976,0.0005750656127929,-0.0659332275390625,-0.1538467407226562,-0.0036630630493164,-0.0036630630493164,0.0,0.0,0.0,0.0
2025-11-06 18:37:40.233,324.285,-0.023,0.032,0.007,-0.352,-0.944,0.147,7.45,-6.19,-47.12,0.6083000000000001,-0.7477,-0.0481,-0.2616,0.002,0.005,0.002,310.165,-0.003,-0.003,0.0,-0.17,-0.956,-0.207,24.55,-22.68,-74.39,-0.5914,0.5459,0.3155,0.5025000000000001,0.002,-0.007,0.002,312.26,-0.017,-0.013,0.005,-0.183,-0.984,0.067,62.370000000000005,-15.28,-66.64,-0.2184,0.3568,0.6377,0.6466000000000001,0.0,0.003,0.0,0.0,0.0,0.0,0.0,0.0,0.0,-0.0001916885375976,0.0005750656127929,-0.0659332275390625,-0.1538467407226562,-0.0036630630493164,-0.0036630630493164,0.0,0.0,0.0,0.0
2025-11-06 18:37:40.233,324.32,-0.017,0.01,0.016,-0.342,-0.95,0.152,7.71,-6.43,-47.06,0.6085,-0.7474000000000001,-0.0481,-0.2619,-0.008,0.011,-0.003,310.165,-0.003,-0.003,0.0,-0.17,-0.956,-0.207,24.55,-22.68,-74.39,-0.5914,0.5459,0.3155,0.5025000000000001,0.002,-0.007,0.002,312.26,-0.017,-0.013,0.005,-0.183,-0.984,0.067,62.370000000000005,-15.28,-66.64,-0.2184,0.3568,0.6377,0.6466000000000001,0.0,0.003,0.0,0.0,0.0,0.0,0.0,0.0,0.0,-0.0001916885375976,0.0005750656127929,-0.0659332275390625,-0.1538467407226562,-0.0036630630493164,-0.0036630630493164,0.0,0.0,0.0,0.0
2025-11-06 18:37:40.233,324.275,-0.028,0.042,0.011,-0.352,-0.942,0.149,7.95,-6.13,-48.11,0.6082000000000001,-0.7478,-0.0481,-0.2614,0.001,0.003,0.0,310.165,-0.003,-0.003,0.0,-0.17,-0.956,-0.207,24.55,-22.68,-74.39,-0.5914,0.5459,0.3155,0.5025000000000001,0.002,-0.007,0.002,312.26,-0.017,-0.013,0.005,-0.183,-0.984,0.067,62.370000000000005,-15.28,-66.64,-0.2184,0.3568,0.6377,0.6466000000000001,0.0,0.003,0.0,0.0,0.0,0.0,0.0,0.0,0.0,-0.0001916885375976,0.0005750656127929,-0.0659332275390625,-0.1538467407226562,-0.0036630630493164,-0.0036630630493164,0.0,0.0,0.0,0.0
2025-11-06 18:37:40.233,324.295,-0.019,0.023,0.007,-0.35,-0.946,0.15,7.45,-6.19,-47.12,0.6084,-0.7476,-0.0482,-0.2617,0.0,0.006,0.0,310.165,-0.003,-0.003,0.0,-0.17,-0.956,-0.207,24.55,-22.68,-74.39,-0.5914,0.5459,0.3155,0.5025000000000001,0.002,-0.007,0.002,312.26,-0.017,-0.013,0.005,-0.183,-0.984,0.067,62.370000000000005,-15.28,-66.64,-0.2184,0.3568,0.6377,0.6466000000000001,0.0,0.003,0.0,0.0,0.0,0.0,0.0,0.0,0.0,-0.0001916885375976,0.0005750656127929,-0.0659332275390625,-0.1538467407226562,-0.0036630630493164,-0.0036630630493164,0.0,0.0,0.0,0.0
2025-11-06 18:37:40.233,324.325,-0.016,0.008,0.017,-0.341,-0.95,0.152,7.57,-6.4,-47.47,0.6086,-0.7474000000000001,-0.0481,-0.2619,-0.009,0.01,-0.003,310.165,-0.003,-0.003,0.0,-0.17,-0.956,-0.207,24.55,-22.68,-74.39,-0.5914,0.5459,0.3155,0.5025000000000001,0.002,-0.007,0.002,312.26,-0.017,-0.013,0.005,-0.183,-0.984,0.067,62.370000000000005,-15.28,-66.64,-0.2184,0.3568,0.6377,0.6466000000000001,0.0,0.003,0.0,0.0,0.0,0.0,0.0,0.0,0.0,-0.0001916885375976,0.0005750656127929,-0.0659332275390625,-0.1538467407226562,-0.0036630630493164,-0.0036630630493164,0.0,0.0,0.0,0.0
2025-11-06 18:37:40.233,324.315,-0.02,0.005,0.013,-0.345,-0.95,0.15,7.71,-6.43,-47.06,0.6085,-0.7474000000000001,-0.0481,-0.2619,-0.005,0.01,-0.001,310.165,-0.003,-0.003,0.0,-0.17,-0.956,-0.207,24.55,-22.68,-74.39,-0.5914,0.5459,0.3155,0.5025000000000001,0.002,-0.007,0.002,312.26,-0.017,-0.013,0.005,-0.183,-0.984,0.067,62.370000000000005,-15.28,-66.64,-0.2184,0.3568,0.6377,0.6466000000000001,0.0,0.003,0.0,0.0,0.0,0.0,0.0,0.0,0.0,-0.0001916885375976,0.0005750656127929,-0.0659332275390625,-0.1538467407226562,-0.0036630630493164,-0.0036630630493164,0.0,0.0,0.0,0.0
2025-11-06 18:37:40.233,324.335,-0.014,0.007,0.018,-0.339,-0.95,0.154,7.74,-6.51,-47.55,0.6086,-0.7473000000000001,-0.048,-0.262,-0.011,0.01,-0.005,310.165,-0.003,-0.003,0.0,-0.17,-0.956,-0.207,24.55,-22.68,-74.39,-0.5914,0.5459,0.3155,0.5025000000000001,0.002,-0.007,0.002,312.26,-0.017,-0.013,0.005,-0.183,-0.984,0.067,62.370000000000005,-15.28,-66.64,-0.2184,0.3568,0.6377,0.6466000000000001,0.0,0.003,0.0,0.0,0.0,0.0,0.0,0.0,0.0,-0.0001916885375976,0.0005750656127929,-0.0659332275390625,-0.1538467407226562,-0.0036630630493164,-0.0036630630493164,0.0,0.0,0.0,0.0
2025-11-06 18:37:40.233,324.37,-0.022,0.012,0.014,-0.347,-0.947,0.142,7.45,-6.22,-47.47,0.6088,-0.7471,-0.0479,-0.2623,-0.004,0.007,0.005,310.165,-0.003,-0.003,0.0,-0.17,-0.956,-0.207,24.55,-22.68,-74.39,-0.5914,0.5459,0.3155,0.5025000000000001,0.002,-0.007,0.002,312.26,-0.017,-0.013,0.005,-0.183,-0.984,0.067,62.370000000000005,-15.28,-66.64,-0.2184,0.3568,0.6377,0.6466000000000001,0.0,0.003,0.0,0.0,0.0,0.0,0.0,0.0,0.0,-0.0001916885375976,0.0005750656127929,-0.0659332275390625,-0.1538467407226562,-0.0036630630493164,-0.0036630630493164,0.0,0.0,0.0,0.0
2025-11-06 18:37:40.233,324.38,-0.019,0.008,0.012,-0.348,-0.945,0.138,7.65,-6.08,-47.35,0.6089,-0.747,-0.0479,-0.2623,-0.002,0.005,0.009,310.165,-0.003,-0.003,0.0,-0.17,-0.956,-0.207,24.55,-22.68,-74.39,-0.5914,0.5459,0.3155,0.5025000000000001,0.002,-0.007,0.002,312.26,-0.017,-0.013,0.005,-0.183,-0.984,0.067,62.370000000000005,-15.28,-66.64,-0.2184,0.3568,0.6377,0.6466000000000001,0.0,0.003,0.0,0.0,0.0,0.0,0.0,0.0,0.0,-0.0001916885375976,0.0005750656127929,-0.0659332275390625,-0.1538467407226562,-0.0036630630493164,-0.0036630630493164,0.0,0.0,0.0,0.0
2025-11-06 18:37:40.233,324.375,-0.022,0.012,0.012,-0.347,-0.946,0.14,7.65,-6.08,-47.35,0.6088,-0.747,-0.0479,-0.2623,-0.003,0.007,0.007,310.165,-0.003,-0.003,0.0,-0.17,-0.956,-0.207,24.55,-22.68,-74.39,-0.5914,0.5459,0.3155,0.5025000000000001,0.002,-0.007,0.002,312.26,-0.017,-0.013,0.005,-0.183,-0.984,0.067,62.370000000000005,-15.28,-66.64,-0.2184,0.3568,0.6377,0.6466000000000001,0.0,0.003,0.0,0.0,0.0,0.0,0.0,0.0,0.0,-0.0001916885375976,0.0005750656127929,-0.0659332275390625,-0.1538467407226562,-0.0036630630493164,-0.0036630630493164,0.0,0.0,0.0,0.0
2025-11-06 18:37:40.233,324.365,-0.022,0.012,0.016,-0.346,-0.948,0.147,7.45,-6.22,-47.47,0.6087,-0.7471,-0.0479,-0.2622,-0.004,0.008,0.0,310.165,-0.003,-0.003,0.0,-0.17,-0.956,-0.207,24.55,-22.68,-74.39,-0.5914,0.5459,0.3155,0.5025000000000001,0.002,-0.007,0.002,312.26,-0.017,-0.013,0.005,-0.183,-0.984,0.067,62.370000000000005,-15.28,-66.64,-0.2184,0.3568,0.6377,0.6466000000000001,0.0,0.003,0.0,0.0,0.0,0.0,0.0,0.0,0.0,-0.0001916885375976,0.0005750656127929,-0.0659332275390625,-0.1538467407226562,-0.0036630630493164,-0.0036630630493164,0.0,0.0,0.0,0.0
2025-11-06 18:37:40.233,324.27,-0.031,0.041,0.012,-0.353,-0.943,0.15,7.51,-8.21,-47.23,0.6082000000000001,-0.7479,-0.0481,-0.2613,0.003,0.004,0.0,310.165,-0.003,-0.003,0.0,-0.17,-0.956,-0.207,24.55,-22.68,-74.39,-0.5914,0.5459,0.3155,0.5025000000000001,0.002,-0.007,0.002,312.26,-0.017,-0.013,0.005,-0.183,-0.984,0.067,62.370000000000005,-15.28,-66.64,-0.2184,0.3568,0.6377,0.6466000000000001,0.0,0.003,0.0,0.0,0.0,0.0,0.0,0.0,0.0,-0.0001916885375976,0.0005750656127929,-0.0659332275390625,-0.1538467407226562,-0.0036630630493164,-0.0036630630493164,0.0,0.0,0.0,0.0
2025-11-06 18:37:40.233,324.355,-0.019,0.013,0.018,-0.341,-0.949,0.151,7.8,-6.08,-47.85,0.6087,-0.7472000000000001,-0.048,-0.2621,-0.009,0.01,-0.002,310.165,-0.003,-0.003,0.0,-0.17,-0.956,-0.207,24.55,-22.68,-74.39,-0.5914,0.5459,0.3155,0.5025000000000001,0.002,-0.007,0.002,312.26,-0.017,-0.013,0.005,-0.183,-0.984,0.067,62.370000000000005,-15.28,-66.64,-0.2184,0.3568,0.6377,0.6466000000000001,0.0,0.003,0.0,0.0,0.0,0.0,0.0,0.0,0.0,-0.0001916885375976,0.0005750656127929,-0.0659332275390625,-0.1538467407226562,-0.0036630630493164,-0.0036630630493164,0.0,0.0,0.0,0.0
2025-11-06 18:37:40.233,324.345,-0.017,0.01,0.018,-0.339,-0.951,0.152,7.74,-6.51,-47.55,0.6086,-0.7473000000000001,-0.048,-0.262,-0.011,0.011,-0.004,310.165,-0.003,-0.003,0.0,-0.17,-0.956,-0.207,24.55,-22.68,-74.39,-0.5914,0.5459,0.3155,0.5025000000000001,0.002,-0.007,0.002,312.26,-0.017,-0.013,0.005,-0.183,-0.984,0.067,62.370000000000005,-15.28,-66.64,-0.2184,0.3568,0.6377,0.6466000000000001,0.0,0.003,0.0,0.0,0.0,0.0,0.0,0.0,0.0,-0.0001916885375976,0.0005750656127929,-0.0659332275390625,-0.1538467407226562,-0.0036630630493164,-0.0036630630493164,0.0,0.0,0.0,0.0
2025-11-06 18:37:40.233,324.34,-0.014,0.013,0.017,-0.34,-0.95,0.153,7.74,-6.51,-47.55,0.6086,-0.7473000000000001,-0.048,-0.262,-0.011,0.011,-0.004,310.165,-0.003,-0.003,0.0,-0.17,-0.956,-0.207,24.55,-22.68,-74.39,-0.5914,0.5459,0.3155,0.5025000000000001,0.002,-0.007,0.002,312.26,-0.017,-0.013,0.005,-0.183,-0.984,0.067,62.370000000000005,-15.28,-66.64,-0.2184,0.3568,0.6377,0.6466000000000001,0.0,0.003,0.0,0.0,0.0,0.0,0.0,0.0,0.0,-0.0001916885375976,0.0005750656127929,-0.0659332275390625,-0.1538467407226562,-0.0036630630493164,-0.0036630630493164,0.0,0.0,0.0,0.0
2025-11-06 18:37:40.233,324.36,-0.02,0.014,0.016,-0.343,-0.949,0.15,7.45,-6.22,-47.47,0.6087,-0.7472000000000001,-0.0479,-0.2622,-0.007,0.01,-0.001,310.165,-0.003,-0.003,0.0,-0.17,-0.956,-0.207,24.55,-22.68,-74.39,-0.5914,0.5459,0.3155,0.5025000000000001,0.002,-0.007,0.002,312.26,-0.017,-0.013,0.005,-0.183,-0.984,0.067,62.370000000000005,-15.28,-66.64,-0.2184,0.3568,0.6377,0.6466000000000001,0.0,0.003,0.0,0.0,0.0,0.0,0.0,0.0,0.0,-0.0001916885375976,0.0005750656127929,-0.0659332275390625,-0.1538467407226562,-0.0036630630493164,-0.0036630630493164,0.0,0.0,0.0,0.0
2025-11-06 18:37:40.234,324.395,-0.019,0.003,0.01,-0.352,-0.944,0.14,7.24,-7.86,-48.43,0.609,-0.7468,-0.0478,-0.2624,0.001,0.005,0.006,310.165,-0.003,-0.003,0.0,-0.17,-0.956,-0.207,24.55,-22.68,-74.39,-0.5914,0.5459,0.3155,0.5025000000000001,0.002,-0.007,0.002,312.26,-0.017,-0.013,0.005,-0.183,-0.984,0.067,62.370000000000005,-15.28,-66.64,-0.2184,0.3568,0.6377,0.6466000000000001,0.0,0.003,0.0,0.0,0.0,0.0,0.0,0.0,0.0,-0.0001916885375976,0.0005750656127929,-0.0659332275390625,-0.1538467407226562,-0.0036630630493164,-0.0036630630493164,0.0,0.0,0.0,0.0
2025-11-06 18:37:40.234,324.435,-0.015,-0.016,0.0,-0.351,-0.943,0.144,7.62,-6.4,-47.7,0.6094,-0.7466,-0.0475,-0.2624,0.0,0.004,0.002,310.165,-0.003,-0.003,0.0,-0.17,-0.956,-0.207,24.55,-22.68,-74.39,-0.5914,0.5459,0.3155,0.5025000000000001,0.002,-0.007,0.002,312.26,-0.017,-0.013,0.005,-0.183,-0.984,0.067,62.370000000000005,-15.28,-66.64,-0.2184,0.3568,0.6377,0.6466000000000001,0.0,0.003,0.0,0.0,0.0,0.0,0.0,0.0,0.0,-0.0001916885375976,0.0005750656127929,-0.0659332275390625,-0.1538467407226562,-0.0036630630493164,-0.0036630630493164,0.0,0.0,0.0,0.0
2025-11-06 18:37:40.234,324.4,-0.019,0.004,0.007,-0.354,-0.945,0.141,7.51,-6.72,-48.23,0.6091,-0.7468,-0.0478,-0.2625,0.002,0.006,0.005,310.165,-0.003,-0.003,0.0,-0.17,-0.956,-0.207,24.55,-22.68,-74.39,-0.5914,0.5459,0.3155,0.5025000000000001,0.002,-0.007,0.002,312.26,-0.017,-0.013,0.005,-0.183,-0.984,0.067,62.370000000000005,-15.28,-66.64,-0.2184,0.3568,0.6377,0.6466000000000001,0.0,0.003,0.0,0.0,0.0,0.0,0.0,0.0,0.0,-0.0001916885375976,0.0005750656127929,-0.0659332275390625,-0.1538467407226562,-0.0036630630493164,-0.0036630630493164,0.0,0.0,0.0,0.0
2025-11-06 18:37:40.234,324.405,-0.018,-0.002,0.007,-0.354,-0.943,0.141,7.51,-6.72,-48.23,0.6091,-0.7468,-0.0477,-0.2625,0.003,0.004,0.005,310.165,-0.003,-0.003,0.0,-0.17,-0.956,-0.207,24.55,-22.68,-74.39,-0.5914,0.5459,0.3155,0.5025000000000001,0.002,-0.007,0.002,312.26,-0.017,-0.013,0.005,-0.183,-0.984,0.067,62.370000000000005,-15.28,-66.64,-0.2184,0.3568,0.6377,0.6466000000000001,0.0,0.003,0.0,0.0,0.0,0.0,0.0,0.0,0.0,-0.0001916885375976,0.0005750656127929,-0.0659332275390625,-0.1538467407226562,-0.0036630630493164,-0.0036630630493164,0.0,0.0,0.0,0.0
2025-11-06 18:37:40.234,324.41,-0.015,-0.003,0.007,-0.355,-0.943,0.141,7.51,-6.72,-48.23,0.6091,-0.7467,-0.0477,-0.2625,0.003,0.003,0.005,310.165,-0.003,-0.003,0.0,-0.17,-0.956,-0.207,24.55,-22.68,-74.39,-0.5914,0.5459,0.3155,0.5025000000000001,0.002,-0.007,0.002,312.26,-0.017,-0.013,0.005,-0.183,-0.984,0.067,62.370000000000005,-15.28,-66.64,-0.2184,0.3568,0.6377,0.6466000000000001,0.0,0.003,0.0,0.0,0.0,0.0,0.0,0.0,0.0,-0.0001916885375976,0.0005750656127929,-0.0659332275390625,-0.1538467407226562,-0.0036630630493164,-0.0036630630493164,0.0,0.0,0.0,0.0
2025-11-06 18:37:40.234,324.415,-0.017,-0.01,0.005,-0.353,-0.944,0.14,8.59,-6.66,-47.88,0.6092000000000001,-0.7467,-0.0477,-0.2625,0.002,0.004,0.005,310.165,-0.003,-0.003,0.0,-0.17,-0.956,-0.207,24.55,-22.68,-74.39,-0.5914,0.5459,0.3155,0.5025000000000001,0.002,-0.007,0.002,312.26,-0.017,-0.013,0.005,-0.183,-0.984,0.067,62.370000000000005,-15.28,-66.64,-0.2184,0.3568,0.6377,0.6466000000000001,0.0,0.003,0.0,0.0,0.0,0.0,0.0,0.0,0.0,-0.0001916885375976,0.0005750656127929,-0.0659332275390625,-0.1538467407226562,-0.0036630630493164,-0.0036630630493164,0.0,0.0,0.0,0.0
2025-11-06 18:37:40.234,324.42,-0.016,-0.009,0.005,-0.353,-0.943,0.142,8.59,-6.66,-47.88,0.6092000000000001,-0.7467,-0.0476,-0.2625,0.001,0.004,0.004,310.165,-0.003,-0.003,0.0,-0.17,-0.956,-0.207,24.55,-22.68,-74.39,-0.5914,0.5459,0.3155,0.5025000000000001,0.002,-0.007,0.002,312.26,-0.017,-0.013,0.005,-0.183,-0.984,0.067,62.370000000000005,-15.28,-66.64,-0.2184,0.3568,0.6377,0.6466000000000001,0.0,0.003,0.0,0.0,0.0,0.0,0.0,0.0,0.0,-0.0001916885375976,0.0005750656127929,-0.0659332275390625,-0.1538467407226562,-0.0036630630493164,-0.0036630630493164,0.0,0.0,0.0,0.0
2025-11-06 18:37:40.234,324.425,-0.017,-0.014,0.002,-0.353,-0.943,0.142,7.62,-6.4,-47.7,0.6093000000000001,-0.7466,-0.0476,-0.2625,0.001,0.003,0.004,310.165,-0.003,-0.003,0.0,-0.17,-0.956,-0.207,24.55,-22.68,-74.39,-0.5914,0.5459,0.3155,0.5025000000000001,0.002,-0.007,0.002,312.26,-0.017,-0.013,0.005,-0.183,-0.984,0.067,62.370000000000005,-15.28,-66.64,-0.2184,0.3568,0.6377,0.6466000000000001,0.0,0.003,0.0,0.0,0.0,0.0,0.0,0.0,0.0,-0.0001916885375976,0.0005750656127929,-0.0659332275390625,-0.1538467407226562,-0.0036630630493164,-0.0036630630493164,0.0,0.0,0.0,0.0
2025-11-06 18:37:40.234,324.43,-0.015,-0.015,0.001,-0.352,-0.943,0.144,7.62,-6.4,-47.7,0.6093000000000001,-0.7466,-0.0476,-0.2625,0.0,0.003,0.002,310.165,-0.003,-0.003,0.0,-0.17,-0.956,-0.207,24.55,-22.68,-74.39,-0.5914,0.5459,0.3155,0.5025000000000001,0.002,-0.007,0.002,312.26,-0.017,-0.013,0.005,-0.183,-0.984,0.067,62.370000000000005,-15.28,-66.64,-0.2184,0.3568,0.6377,0.6466000000000001,0.0,0.003,0.0,0.0,0.0,0.0,0.0,0.0,0.0,-0.0001916885375976,0.0005750656127929,-0.0659332275390625,-0.1538467407226562,-0.0036630630493164,-0.0036630630493164,0.0,0.0,0.0,0.0
2025-11-06 18:37:40.234,324.385,-0.019,0.009,0.012,-0.348,-0.947,0.138,7.24,-7.86,-48.43,0.6089,-0.7469,-0.0479,-0.2624,-0.002,0.007,0.008,310.165,-0.003,-0.003,0.0,-0.17,-0.956,-0.207,24.55,-22.68,-74.39,-0.5914,0.5459,0.3155,0.5025000000000001,0.002,-0.007,0.002,312.26,-0.017,-0.013,0.005,-0.183,-0.984,0.067,62.370000000000005,-15.28,-66.64,-0.2184,0.3568,0.6377,0.6466000000000001,0.0,0.003,0.0,0.0,0.0,0.0,0.0,0.0,0.0,-0.0001916885375976,0.0005750656127929,-0.0659332275390625,-0.1538467407226562,-0.0036630630493164,-0.0036630630493164,0.0,0.0,0.0,0.0
2025-11-06 18:37:40.234,324.465,-0.008,-0.02,-0.002,-0.346,-0.944,0.145,7.54,-6.890000000000001,-47.41,0.6096,-0.7465,-0.0474,-0.2621,-0.005,0.004,0.0,310.165,-0.003,-0.003,0.0,-0.17,-0.956,-0.207,24.55,-22.68,-74.39,-0.5914,0.5459,0.3155,0.5025000000000001,0.002,-0.007,0.002,312.26,-0.017,-0.013,0.005,-0.183,-0.984,0.067,62.370000000000005,-15.28,-66.64,-0.2184,0.3568,0.6377,0.6466000000000001,0.0,0.003,0.0,0.0,0.0,0.0,0.0,0.0,0.0,-0.0001916885375976,0.0005750656127929,-0.0659332275390625,-0.1538467407226562,-0.0036630630493164,-0.0036630630493164,0.0,0.0,0.0,0.0
2025-11-06 18:37:40.234,324.45,-0.015,-0.022,-0.002,-0.348,-0.946,0.145,7.71,-6.69,-48.4,0.6095,-0.7465,-0.0474,-0.2623,-0.002,0.007,0.001,310.165,-0.003,-0.003,0.0,-0.17,-0.956,-0.207,24.55,-22.68,-74.39,-0.5914,0.5459,0.3155,0.5025000000000001,0.002,-0.007,0.002,312.26,-0.017,-0.013,0.005,-0.183,-0.984,0.067,62.370000000000005,-15.28,-66.64,-0.2184,0.3568,0.6377,0.6466000000000001,0.0,0.003,0.0,0.0,0.0,0.0,0.0,0.0,0.0,-0.0001916885375976,0.0005750656127929,-0.0659332275390625,-0.1538467407226562,-0.0036630630493164,-0.0036630630493164,0.0,0.0,0.0,0.0
2025-11-06 18:37:40.234,324.455,-0.014,-0.025,0.0,-0.347,-0.945,0.144,7.71,-6.69,-48.4,0.6095,-0.7465,-0.0474,-0.2622,-0.003,0.005,0.001,310.165,-0.003,-0.003,0.0,-0.17,-0.956,-0.207,24.55,-22.68,-74.39,-0.5914,0.5459,0.3155,0.5025000000000001,0.002,-0.007,0.002,312.26,-0.017,-0.013,0.005,-0.183,-0.984,0.067,62.370000000000005,-15.28,-66.64,-0.2184,0.3568,0.6377,0.6466000000000001,0.0,0.003,0.0,0.0,0.0,0.0,0.0,0.0,0.0,-0.0001916885375976,0.0005750656127929,-0.0659332275390625,-0.1538467407226562,-0.0036630630493164,-0.0036630630493164,0.0,0.0,0.0,0.0
2025-11-06 18:37:40.234,324.46,-0.012,-0.022,-0.001,-0.346,-0.944,0.146,7.71,-6.69,-48.4,0.6096,-0.7465,-0.0474,-0.2622,-0.005,0.004,0.0,310.165,-0.003,-0.003,0.0,-0.17,-0.956,-0.207,24.55,-22.68,-74.39,-0.5914,0.5459,0.3155,0.5025000000000001,0.002,-0.007,0.002,312.26,-0.017,-0.013,0.005,-0.183,-0.984,0.067,62.370000000000005,-15.28,-66.64,-0.2184,0.3568,0.6377,0.6466000000000001,0.0,0.003,0.0,0.0,0.0,0.0,0.0,0.0,0.0,-0.0001916885375976,0.0005750656127929,-0.0659332275390625,-0.1538467407226562,-0.0036630630493164,-0.0036630630493164,0.0,0.0,0.0,0.0
2025-11-06 18:37:40.234,324.47,-0.008,-0.024,0.0,-0.346,-0.943,0.146,7.54,-6.890000000000001,-47.41,0.6096,-0.7465,-0.0473,-0.262,-0.004,0.003,0.0,310.165,-0.003,-0.003,0.0,-0.17,-0.956,-0.207,24.55,-22.68,-74.39,-0.5914,0.5459,0.3155,0.5025000000000001,0.002,-0.007,0.002,312.26,-0.017,-0.013,0.005,-0.183,-0.984,0.067,62.370000000000005,-15.28,-66.64,-0.2184,0.3568,0.6377,0.6466000000000001,0.0,0.003,0.0,0.0,0.0,0.0,0.0,0.0,0.0,-0.0001916885375976,0.0005750656127929,-0.0659332275390625,-0.1538467407226562,-0.0036630630493164,-0.0036630630493164,0.0,0.0,0.0,0.0
2025-11-06 18:37:40.234,324.475,-0.006,-0.019,-0.002,-0.348,-0.943,0.146,8.65,-8.06,-47.76,0.6096,-0.7465,-0.0473,-0.262,-0.003,0.003,0.0,310.165,-0.003,-0.003,0.0,-0.17,-0.956,-0.207,24.55,-22.68,-74.39,-0.5914,0.5459,0.3155,0.5025000000000001,0.002,-0.007,0.002,312.26,-0.017,-0.013,0.005,-0.183,-0.984,0.067,62.370000000000005,-15.28,-66.64,-0.2184,0.3568,0.6377,0.6466000000000001,0.0,0.003,0.0,0.0,0.0,0.0,0.0,0.0,0.0,-0.0001916885375976,0.0005750656127929,-0.0659332275390625,-0.1538467407226562,-0.0036630630493164,-0.0036630630493164,0.0,0.0,0.0,0.0
2025-11-06 18:37:40.234,324.48,0.0,-0.022,0.0,-0.35,-0.943,0.146,8.65,-8.06,-47.76,0.6096,-0.7465,-0.0473,-0.2619,-0.001,0.003,0.0,310.165,-0.003,-0.003,0.0,-0.17,-0.956,-0.207,24.55,-22.68,-74.39,-0.5914,0.5459,0.3155,0.5025000000000001,0.002,-0.007,0.002,312.26,-0.017,-0.013,0.005,-0.183,-0.984,0.067,62.370000000000005,-15.28,-66.64,-0.2184,0.3568,0.6377,0.6466000000000001,0.0,0.003,0.0,0.0,0.0,0.0,0.0,0.0,0.0,-0.0001916885375976,0.0005750656127929,-0.0659332275390625,-0.1538467407226562,-0.0036630630493164,-0.0036630630493164,0.0,0.0,0.0,0.0
2025-11-06 18:37:40.234,324.485,-0.001,-0.022,-0.002,-0.349,-0.944,0.145,8.65,-8.06,-47.76,0.6097,-0.7466,-0.0473,-0.2619,-0.002,0.004,0.0,310.165,-0.003,-0.003,0.0,-0.17,-0.956,-0.207,24.55,-22.68,-74.39,-0.5914,0.5459,0.3155,0.5025000000000001,0.002,-0.007,0.002,312.26,-0.017,-0.013,0.005,-0.183,-0.984,0.067,62.370000000000005,-15.28,-66.64,-0.2184,0.3568,0.6377,0.6466000000000001,0.0,0.003,0.0,0.0,0.0,0.0,0.0,0.0,0.0,-0.0001916885375976,0.0005750656127929,-0.0659332275390625,-0.1538467407226562,-0.0036630630493164,-0.0036630630493164,0.0,0.0,0.0,0.0
2025-11-06 18:37:40.234,324.44,-0.013,-0.019,-0.003,-0.35,-0.944,0.144,8.18,-6.86,-48.28,0.6094,-0.7466,-0.0475,-0.2624,-0.001,0.004,0.002,310.165,-0.003,-0.003,0.0,-0.17,-0.956,-0.207,24.55,-22.68,-74.39,-0.5914,0.5459,0.3155,0.5025000000000001,0.002,-0.007,0.002,312.26,-0.017,-0.013,0.005,-0.183,-0.984,0.067,62.370000000000005,-15.28,-66.64,-0.2184,0.3568,0.6377,0.6466000000000001,0.0,0.003,0.0,0.0,0.0,0.0,0.0,0.0,0.0,-0.0001916885375976,0.0005750656127929,-0.0659332275390625,-0.1538467407226562,-0.0036630630493164,-0.0036630630493164,0.0,0.0,0.0,0.0
2025-11-06 18:37:40.234,324.39,-0.017,0.009,0.011,-0.352,-0.944,0.139,7.24,-7.86,-48.43,0.609,-0.7469,-0.0478,-0.2624,0.001,0.005,0.007,310.165,-0.003,-0.003,0.0,-0.17,-0.956,-0.207,24.55,-22.68,-74.39,-0.5914,0.5459,0.3155,0.5025000000000001,0.002,-0.007,0.002,312.26,-0.017,-0.013,0.005,-0.183,-0.984,0.067,62.370000000000005,-15.28,-66.64,-0.2184,0.3568,0.6377,0.6466000000000001,0.0,0.003,0.0,0.0,0.0,0.0,0.0,0.0,0.0,-0.0001916885375976,0.0005750656127929,-0.0659332275390625,-0.1538467407226562,-0.0036630630493164,-0.0036630630493164,0.0,0.0,0.0,0.0
2025-11-06 18:37:40.234,324.495,0.004,-0.02,0.0,-0.354,-0.944,0.144,7.65,-6.6000000000000005,-48.23,0.6097,-0.7466,-0.0472,-0.2618,0.003,0.005,0.001,310.165,-0.003,-0.003,0.0,-0.17,-0.956,-0.207,24.55,-22.68,-74.39,-0.5914,0.5459,0.3155,0.5025000000000001,0.002,-0.007,0.002,312.26,-0.017,-0.013,0.005,-0.183,-0.984,0.067,62.370000000000005,-15.28,-66.64,-0.2184,0.3568,0.6377,0.6466000000000001,0.0,0.003,0.0,0.0,0.0,0.0,0.0,0.0,0.0,-0.0001916885375976,0.0005750656127929,-0.0659332275390625,-0.1538467407226562,-0.0036630630493164,-0.0036630630493164,0.0,0.0,0.0,0.0
2025-11-06 18:37:40.234,324.49,0.001,-0.025,-0.001,-0.352,-0.944,0.144,7.65,-6.6000000000000005,-48.23,0.6097,-0.7466,-0.0472,-0.2618,0.0,0.004,0.002,310.165,-0.003,-0.003,0.0,-0.17,-0.956,-0.207,24.55,-22.68,-74.39,-0.5914,0.5459,0.3155,0.5025000000000001,0.002,-0.007,0.002,312.26,-0.017,-0.013,0.005,-0.183,-0.984,0.067,62.370000000000005,-15.28,-66.64,-0.2184,0.3568,0.6377,0.6466000000000001,0.0,0.003,0.0,0.0,0.0,0.0,0.0,0.0,0.0,-0.0001916885375976,0.0005750656127929,-0.0659332275390625,-0.1538467407226562,-0.0036630630493164,-0.0036630630493164,0.0,0.0,0.0,0.0
2025-11-06 18:37:40.234,324.57,0.0,-0.026,0.01,-0.353,-0.944,0.146,7.95,-7.92,-48.05,0.6097,-0.7468,-0.0466,-0.2612,0.002,0.004,0.0,310.165,-0.003,-0.003,0.0,-0.17,-0.956,-0.207,24.55,-22.68,-74.39,-0.5914,0.5459,0.3155,0.5025000000000001,0.002,-0.007,0.002,312.26,-0.017,-0.013,0.005,-0.183,-0.984,0.067,62.370000000000005,-15.28,-66.64,-0.2184,0.3568,0.6377,0.6466000000000001,0.0,0.003,0.0,0.0,0.0,0.0,0.0,0.0,0.0,-0.0001916885375976,0.0005750656127929,-0.0659332275390625,-0.1538467407226562,-0.0036630630493164,-0.0036630630493164,0.0,0.0,0.0,0.0
2025-11-06 18:37:40.234,324.5,0.004,-0.02,-0.002,-0.354,-0.945,0.143,8.21,-7.33,-48.28,0.6097,-0.7466,-0.0472,-0.2617,0.003,0.005,0.002,310.165,-0.003,-0.003,0.0,-0.17,-0.956,-0.207,24.55,-22.68,-74.39,-0.5914,0.5459,0.3155,0.5025000000000001,0.002,-0.007,0.002,312.26,-0.017,-0.013,0.005,-0.183,-0.984,0.067,62.370000000000005,-15.28,-66.64,-0.2184,0.3568,0.6377,0.6466000000000001,0.0,0.003,0.0,0.0,0.0,0.0,0.0,0.0,0.0,-0.0001916885375976,0.0005750656127929,-0.0659332275390625,-0.1538467407226562,-0.0036630630493164,-0.0036630630493164,0.0,0.0,0.0,0.0
2025-11-06 18:37:40.234,324.55,0.001,-0.032,0.004,-0.357,-0.947,0.144,8.3,-6.890000000000001,-47.67,0.6097,-0.7467,-0.0469,-0.2613,0.006,0.007,0.001,310.165,-0.003,-0.003,0.0,-0.17,-0.956,-0.207,24.55,-22.68,-74.39,-0.5914,0.5459,0.3155,0.5025000000000001,0.002,-0.007,0.002,312.26,-0.017,-0.013,0.005,-0.183,-0.984,0.067,62.370000000000005,-15.28,-66.64,-0.2184,0.3568,0.6377,0.6466000000000001,0.0,0.003,0.0,0.0,0.0,0.0,0.0,0.0,0.0,-0.0001916885375976,0.0005750656127929,-0.0659332275390625,-0.1538467407226562,-0.0036630630493164,-0.0036630630493164,0.0,0.0,0.0,0.0
2025-11-06 18:37:40.234,324.515,0.004,-0.02,-0.003,-0.356,-0.943,0.141,7.65,-6.98,-47.99,0.6097,-0.7466,-0.0471,-0.2617,0.004,0.003,0.004,310.165,-0.003,-0.003,0.0,-0.17,-0.956,-0.207,24.55,-22.68,-74.39,-0.5914,0.5459,0.3155,0.5025000000000001,0.002,-0.007,0.002,312.26,-0.017,-0.013,0.005,-0.183,-0.984,0.067,62.370000000000005,-15.28,-66.64,-0.2184,0.3568,0.6377,0.6466000000000001,0.0,0.003,0.0,0.0,0.0,0.0,0.0,0.0,0.0,-0.0001916885375976,0.0005750656127929,-0.0659332275390625,-0.1538467407226562,-0.0036630630493164,-0.0036630630493164,0.0,0.0,0.0,0.0
2025-11-06 18:37:40.234,324.52,0.002,-0.021,-0.005,-0.357,-0.944,0.141,7.65,-6.98,-47.99,0.6097,-0.7466,-0.0471,-0.2616,0.006,0.005,0.004,310.165,-0.003,-0.003,0.0,-0.17,-0.956,-0.207,24.55,-22.68,-74.39,-0.5914,0.5459,0.3155,0.5025000000000001,0.002,-0.007,0.002,312.26,-0.017,-0.013,0.005,-0.183,-0.984,0.067,62.370000000000005,-15.28,-66.64,-0.2184,0.3568,0.6377,0.6466000000000001,0.0,0.003,0.0,0.0,0.0,0.0,0.0,0.0,0.0,-0.0001916885375976,0.0005750656127929,-0.0659332275390625,-0.1538467407226562,-0.0036630630493164,-0.0036630630493164,0.0,0.0,0.0,0.0
2025-11-06 18:37:40.234,324.525,0.002,-0.021,-0.003,-0.358,-0.944,0.142,7.74,-6.72,-47.73,0.6097,-0.7466,-0.0471,-0.2616,0.007,0.004,0.003,310.165,-0.003,-0.003,0.0,-0.17,-0.956,-0.207,24.55,-22.68,-74.39,-0.5914,0.5459,0.3155,0.5025000000000001,0.002,-0.007,0.002,312.26,-0.017,-0.013,0.005,-0.183,-0.984,0.067,62.370000000000005,-15.28,-66.64,-0.2184,0.3568,0.6377,0.6466000000000001,0.0,0.003,0.0,0.0,0.0,0.0,0.0,0.0,0.0,-0.0001916885375976,0.0005750656127929,-0.0659332275390625,-0.1538467407226562,-0.0036630630493164,-0.0036630630493164,0.0,0.0,0.0,0.0
2025-11-06 18:37:40.234,324.53,0.001,-0.024,-0.005,-0.358,-0.944,0.143,7.74,-6.72,-47.73,0.6097,-0.7467,-0.047,-0.2615,0.007,0.005,0.003,310.165,-0.003,-0.003,0.0,-0.17,-0.956,-0.207,24.55,-22.68,-74.39,-0.5914,0.5459,0.3155,0.5025000000000001,0.002,-0.007,0.002,312.26,-0.017,-0.013,0.005,-0.183,-0.984,0.067,62.370000000000005,-15.28,-66.64,-0.2184,0.3568,0.6377,0.6466000000000001,0.0,0.003,0.0,0.0,0.0,0.0,0.0,0.0,0.0,-0.0001916885375976,0.0005750656127929,-0.0659332275390625,-0.1538467407226562,-0.0036630630493164,-0.0036630630493164,0.0,0.0,0.0,0.0
2025-11-06 18:37:40.234,324.535,0.002,-0.022,-0.002,-0.357,-0.947,0.144,7.74,-6.72,-47.73,0.6097,-0.7467,-0.047,-0.2615,0.006,0.007,0.002,310.165,-0.003,-0.003,0.0,-0.17,-0.956,-0.207,24.55,-22.68,-74.39,-0.5914,0.5459,0.3155,0.5025000000000001,0.002,-0.007,0.002,312.26,-0.017,-0.013,0.005,-0.183,-0.984,0.067,62.370000000000005,-15.28,-66.64,-0.2184,0.3568,0.6377,0.6466000000000001,0.0,0.003,0.0,0.0,0.0,0.0,0.0,0.0,0.0,-0.0001916885375976,0.0005750656127929,-0.0659332275390625,-0.1538467407226562,-0.0036630630493164,-0.0036630630493164,0.0,0.0,0.0,0.0
2025-11-06 18:37:40.234,324.54,0.001,-0.026,0.0,-0.357,-0.948,0.144,7.3,-6.25,-48.23,0.6097,-0.7467,-0.047,-0.2614,0.006,0.008,0.001,310.165,-0.003,-0.003,0.0,-0.17,-0.956,-0.207,24.55,-22.68,-74.39,-0.5914,0.5459,0.3155,0.5025000000000001,0.002,-0.007,0.002,312.26,-0.017,-0.013,0.005,-0.183,-0.984,0.067,62.370000000000005,-15.28,-66.64,-0.2184,0.3568,0.6377,0.6466000000000001,0.0,0.003,0.0,0.0,0.0,0.0,0.0,0.0,0.0,-0.0001916885375976,0.0005750656127929,-0.0659332275390625,-0.1538467407226562,-0.0036630630493164,-0.0036630630493164,0.0,0.0,0.0,0.0
2025-11-06 18:37:40.234,324.545,0.001,-0.03,0.001,-0.359,-0.947,0.144,7.3,-6.25,-48.23,0.6097,-0.7467,-0.0469,-0.2614,0.008,0.007,0.001,310.165,-0.003,-0.003,0.0,-0.17,-0.956,-0.207,24.55,-22.68,-74.39,-0.5914,0.5459,0.3155,0.5025000000000001,0.002,-0.007,0.002,312.26,-0.017,-0.013,0.005,-0.183,-0.984,0.067,62.370000000000005,-15.28,-66.64,-0.2184,0.3568,0.6377,0.6466000000000001,0.0,0.003,0.0,0.0,0.0,0.0,0.0,0.0,0.0,-0.0001916885375976,0.0005750656127929,-0.0659332275390625,-0.1538467407226562,-0.0036630630493164,-0.0036630630493164,0.0,0.0,0.0,0.0
2025-11-06 18:37:40.234,324.555,0.001,-0.032,0.004,-0.356,-0.947,0.146,8.3,-6.890000000000001,-47.67,0.6097,-0.7468,-0.0468,-0.2613,0.005,0.007,0.0,310.165,-0.003,-0.003,0.0,-0.17,-0.956,-0.207,24.55,-22.68,-74.39,-0.5914,0.5459,0.3155,0.5025000000000001,0.002,-0.007,0.002,312.26,-0.017,-0.013,0.005,-0.183,-0.984,0.067,62.370000000000005,-15.28,-66.64,-0.2184,0.3568,0.6377,0.6466000000000001,0.0,0.003,0.0,0.0,0.0,0.0,0.0,0.0,0.0,-0.0001916885375976,0.0005750656127929,-0.0659332275390625,-0.1538467407226562,-0.0036630630493164,-0.0036630630493164,0.0,0.0,0.0,0.0
2025-11-06 18:37:40.234,324.58,0.004,-0.025,0.013,-0.353,-0.941,0.147,7.83,-6.75,-47.32,0.6097,-0.7469,-0.0465,-0.2611,0.002,0.001,0.0,310.165,-0.003,-0.003,0.0,-0.17,-0.956,-0.207,24.55,-22.68,-74.39,-0.5914,0.5459,0.3155,0.5025000000000001,0.002,-0.007,0.002,312.26,-0.017,-0.013,0.005,-0.183,-0.984,0.067,62.370000000000005,-15.28,-66.64,-0.2184,0.3568,0.6377,0.6466000000000001,0.0,0.003,0.0,0.0,0.0,0.0,0.0,0.0,0.0,-0.0001916885375976,0.0005750656127929,-0.0659332275390625,-0.1538467407226562,-0.0036630630493164,-0.0036630630493164,0.0,0.0,0.0,0.0
2025-11-06 18:37:40.234,324.51,0.002,-0.017,-0.003,-0.356,-0.943,0.141,8.21,-7.33,-48.28,0.6097,-0.7466,-0.0471,-0.2617,0.005,0.003,0.004,310.165,-0.003,-0.003,0.0,-0.17,-0.956,-0.207,24.55,-22.68,-74.39,-0.5914,0.5459,0.3155,0.5025000000000001,0.002,-0.007,0.002,312.26,-0.017,-0.013,0.005,-0.183,-0.984,0.067,62.370000000000005,-15.28,-66.64,-0.2184,0.3568,0.6377,0.6466000000000001,0.0,0.003,0.0,0.0,0.0,0.0,0.0,0.0,0.0,-0.0001916885375976,0.0005750656127929,-0.0659332275390625,-0.1538467407226562,-0.0036630630493164,-0.0036630630493164,0.0,0.0,0.0,0.0
2025-11-06 18:37:40.234,324.445,-0.016,-0.022,-0.003,-0.348,-0.945,0.145,8.18,-6.86,-48.28,0.6094,-0.7466,-0.0475,-0.2623,-0.003,0.005,0.001,310.165,-0.003,-0.003,0.0,-0.17,-0.956,-0.207,24.55,-22.68,-74.39,-0.5914,0.5459,0.3155,0.5025000000000001,0.002,-0.007,0.002,312.26,-0.017,-0.013,0.005,-0.183,-0.984,0.067,62.370000000000005,-15.28,-66.64,-0.2184,0.3568,0.6377,0.6466000000000001,0.0,0.003,0.0,0.0,0.0,0.0,0.0,0.0,0.0,-0.0001916885375976,0.0005750656127929,-0.0659332275390625,-0.1538467407226562,-0.0036630630493164,-0.0036630630493164,0.0,0.0,0.0,0.0
2025-11-06 18:37:40.234,324.575,0.001,-0.028,0.01,-0.353,-0.943,0.147,7.83,-6.75,-47.32,0.6097,-0.7468,-0.0466,-0.2611,0.002,0.004,0.0,310.165,-0.003,-0.003,0.0,-0.17,-0.956,-0.207,24.55,-22.68,-74.39,-0.5914,0.5459,0.3155,0.5025000000000001,0.002,-0.007,0.002,312.26,-0.017,-0.013,0.005,-0.183,-0.984,0.067,62.370000000000005,-15.28,-66.64,-0.2184,0.3568,0.6377,0.6466000000000001,0.0,0.003,0.0,0.0,0.0,0.0,0.0,0.0,0.0,-0.0001916885375976,0.0005750656127929,-0.0659332275390625,-0.1538467407226562,-0.0036630630493164,-0.0036630630493164,0.0,0.0,0.0,0.0
2025-11-06 18:37:40.234,324.585,0.007,-0.026,0.012,-0.354,-0.941,0.148,7.83,-6.75,-47.32,0.6096,-0.7469,-0.0464,-0.2611,0.003,0.002,-0.001,310.165,-0.003,-0.003,0.0,-0.17,-0.956,-0.207,24.55,-22.68,-74.39,-0.5914,0.5459,0.3155,0.5025000000000001,0.002,-0.007,0.002,312.26,-0.017,-0.013,0.005,-0.183,-0.984,0.067,62.370000000000005,-15.28,-66.64,-0.2184,0.3568,0.6377,0.6466000000000001,0.0,0.003,0.0,0.0,0.0,0.0,0.0,0.0,0.0,-0.0001916885375976,0.0005750656127929,-0.0659332275390625,-0.1538467407226562,-0.0036630630493164,-0.0036630630493164,0.0,0.0,0.0,0.0
2025-11-06 18:37:40.234,324.59,0.011,-0.025,0.014,-0.353,-0.94,0.148,7.42,-6.4,-47.44,0.6096,-0.7469,-0.0464,-0.2611,0.002,0.0,-0.001,310.165,-0.003,-0.003,0.0,-0.17,-0.956,-0.207,24.55,-22.68,-74.39,-0.5914,0.5459,0.3155,0.5025000000000001,0.002,-0.007,0.002,312.26,-0.017,-0.013,0.005,-0.183,-0.984,0.067,62.370000000000005,-15.28,-66.64,-0.2184,0.3568,0.6377,0.6466000000000001,0.0,0.003,0.0,0.0,0.0,0.0,0.0,0.0,0.0,-0.0001916885375976,0.0005750656127929,-0.0659332275390625,-0.1538467407226562,-0.0036630630493164,-0.0036630630493164,0.0,0.0,0.0,0.0
2025-11-06 18:37:40.234,324.595,0.017,-0.03,0.013,-0.356,-0.94,0.149,7.42,-6.4,-47.44,0.6096,-0.747,-0.0463,-0.261,0.004,0.001,-0.002,310.165,-0.003,-0.003,0.0,-0.17,-0.956,-0.207,24.55,-22.68,-74.39,-0.5914,0.5459,0.3155,0.5025000000000001,0.002,-0.007,0.002,312.26,-0.017,-0.013,0.005,-0.183,-0.984,0.067,62.370000000000005,-15.28,-66.64,-0.2184,0.3568,0.6377,0.6466000000000001,0.0,0.003,0.0,0.0,0.0,0.0,0.0,0.0,0.0,-0.0001916885375976,0.0005750656127929,-0.0659332275390625,-0.1538467407226562,-0.0036630630493164,-0.0036630630493164,0.0,0.0,0.0,0.0
2025-11-06 18:37:40.234,324.6,0.019,-0.028,0.014,-0.356,-0.939,0.15,7.22,-6.66,-47.47,0.6095,-0.747,-0.0462,-0.261,0.004,0.0,-0.003,310.165,-0.003,-0.003,0.0,-0.17,-0.956,-0.207,24.55,-22.68,-74.39,-0.5914,0.5459,0.3155,0.5025000000000001,0.002,-0.007,0.002,312.26,-0.017,-0.013,0.005,-0.183,-0.984,0.067,62.370000000000005,-15.28,-66.64,-0.2184,0.3568,0.6377,0.6466000000000001,0.0,0.003,0.0,0.0,0.0,0.0,0.0,0.0,0.0,-0.0001916885375976,0.0005750656127929,-0.0659332275390625,-0.1538467407226562,-0.0036630630493164,-0.0036630630493164,0.0,0.0,0.0,0.0
2025-11-06 18:37:40.234,324.605,0.024,-0.024,0.013,-0.357,-0.939,0.151,7.22,-6.66,-47.47,0.6095,-0.7471,-0.0462,-0.261,0.005,0.0,-0.004,310.165,-0.003,-0.003,0.0,-0.17,-0.956,-0.207,24.55,-22.68,-74.39,-0.5914,0.5459,0.3155,0.5025000000000001,0.002,-0.007,0.002,312.26,-0.017,-0.013,0.005,-0.183,-0.984,0.067,62.370000000000005,-15.28,-66.64,-0.2184,0.3568,0.6377,0.6466000000000001,0.0,0.003,0.0,0.0,0.0,0.0,0.0,0.0,0.0,-0.0001916885375976,0.0005750656127929,-0.0659332275390625,-0.1538467407226562,-0.0036630630493164,-0.0036630630493164,0.0,0.0,0.0,0.0
2025-11-06 18:37:40.234,324.505,0.004,-0.019,-0.002,-0.354,-0.944,0.142,8.21,-7.33,-48.28,0.6097,-0.7466,-0.0472,-0.2617,0.002,0.004,0.004,310.165,-0.003,-0.003,0.0,-0.17,-0.956,-0.207,24.55,-22.68,-74.39,-0.5914,0.5459,0.3155,0.5025000000000001,0.002,-0.007,0.002,312.26,-0.017,-0.013,0.005,-0.183,-0.984,0.067,62.370000000000005,-15.28,-66.64,-0.2184,0.3568,0.6377,0.6466000000000001,0.0,0.003,0.0,0.0,0.0,0.0,0.0,0.0,0.0,-0.0001916885375976,0.0005750656127929,-0.0659332275390625,-0.1538467407226562,-0.0036630630493164,-0.0036630630493164,0.0,0.0,0.0,0.0
2025-11-06 18:37:40.234,324.56,0.001,-0.027,0.007,-0.355,-0.945,0.145,8.3,-6.890000000000001,-47.67,0.6097,-0.7468,-0.0467,-0.2613,0.004,0.005,0.0,310.165,-0.003,-0.003,0.0,-0.17,-0.956,-0.207,24.55,-22.68,-74.39,-0.5914,0.5459,0.3155,0.5025000000000001,0.002,-0.007,0.002,312.26,-0.017,-0.013,0.005,-0.183,-0.984,0.067,62.370000000000005,-15.28,-66.64,-0.2184,0.3568,0.6377,0.6466000000000001,0.0,0.003,0.0,0.0,0.0,0.0,0.0,0.0,0.0,-0.0001916885375976,0.0005750656127929,-0.0659332275390625,-0.1538467407226562,-0.0036630630493164,-0.0036630630493164,0.0,0.0,0.0,0.0
2025-11-06 18:37:40.234,324.565,-0.001,-0.033,0.008,-0.354,-0.946,0.144,7.95,-7.92,-48.05,0.6097,-0.7468,-0.0467,-0.2612,0.003,0.006,0.002,310.165,-0.003,-0.003,0.0,-0.17,-0.956,-0.207,24.55,-22.68,-74.39,-0.5914,0.5459,0.3155,0.5025000000000001,0.002,-0.007,0.002,312.26,-0.017,-0.013,0.005,-0.183,-0.984,0.067,62.370000000000005,-15.28,-66.64,-0.2184,0.3568,0.6377,0.6466000000000001,0.0,0.003,0.0,0.0,0.0,0.0,0.0,0.0,0.0,-0.0001916885375976,0.0005750656127929,-0.0659332275390625,-0.1538467407226562,-0.0036630630493164,-0.0036630630493164,0.0,0.0,0.0,0.0
2025-11-06 18:37:40.236,324.645,0.064,-0.041,0.021,-0.35,-0.937,0.146,7.390000000000001,-6.3100000000000005,-47.67,0.6087,-0.7479,-0.0458,-0.2607,-0.001,0.0,0.002,310.165,-0.003,-0.003,0.0,-0.17,-0.956,-0.207,24.55,-22.68,-74.39,-0.5914,0.5459,0.3155,0.5025000000000001,0.002,-0.007,0.002,312.26,-0.017,-0.013,0.005,-0.183,-0.984,0.067,62.370000000000005,-15.28,-66.64,-0.2184,0.3568,0.6377,0.6466000000000001,0.0,0.003,0.0,0.0,0.0,0.0,0.0,0.0,0.0,-0.0001916885375976,0.0005750656127929,-0.0659332275390625,-0.1538467407226562,-0.0036630630493164,-0.0036630630493164,0.0,0.0,0.0,0.0
2025-11-06 18:37:40.236,324.64,0.059,-0.038,0.018,-0.353,-0.937,0.146,7.390000000000001,-6.3100000000000005,-47.67,0.6088,-0.7478,-0.0458,-0.2607,0.001,-0.001,0.003,310.165,-0.003,-0.003,0.0,-0.17,-0.956,-0.207,24.55,-22.68,-74.39,-0.5914,0.5459,0.3155,0.5025000000000001,0.002,-0.007,0.002,312.26,-0.017,-0.013,0.005,-0.183,-0.984,0.067,62.370000000000005,-15.28,-66.64,-0.2184,0.3568,0.6377,0.6466000000000001,0.0,0.003,0.0,0.0,0.0,0.0,0.0,0.0,0.0,-0.0001916885375976,0.0005750656127929,-0.0659332275390625,-0.1538467407226562,-0.0036630630493164,-0.0036630630493164,0.0,0.0,0.0,0.0
2025-11-06 18:37:40.236,324.635,0.054,-0.035,0.014,-0.355,-0.936,0.146,7.71,-6.75,-47.52,0.6089,-0.7476,-0.0459,-0.2608,0.003,-0.002,0.002,310.165,-0.003,-0.003,0.0,-0.17,-0.956,-0.207,24.55,-22.68,-74.39,-0.5914,0.5459,0.3155,0.5025000000000001,0.002,-0.007,0.002,312.26,-0.017,-0.013,0.005,-0.183,-0.984,0.067,62.370000000000005,-15.28,-66.64,-0.2184,0.3568,0.6377,0.6466000000000001,0.0,0.003,0.0,0.0,0.0,0.0,0.0,0.0,0.0,-0.0001916885375976,0.0005750656127929,-0.0659332275390625,-0.1538467407226562,-0.0036630630493164,-0.0036630630493164,0.0,0.0,0.0,0.0
2025-11-06 18:37:40.236,324.61,0.031,-0.025,0.012,-0.359,-0.937,0.152,7.22,-6.66,-47.47,0.6094,-0.7472000000000001,-0.0461,-0.2609,0.007,-0.001,-0.004,310.165,-0.003,-0.003,0.0,-0.17,-0.956,-0.207,24.55,-22.68,-74.39,-0.5914,0.5459,0.3155,0.5025000000000001,0.002,-0.007,0.002,312.26,-0.017,-0.013,0.005,-0.183,-0.984,0.067,62.370000000000005,-15.28,-66.64,-0.2184,0.3568,0.6377,0.6466000000000001,0.0,0.003,0.0,0.0,0.0,0.0,0.0,0.0,0.0,-0.0001916885375976,0.0005750656127929,-0.0659332275390625,-0.1538467407226562,-0.0036630630493164,-0.0036630630493164,0.0,0.0,0.0,0.0
2025-11-06 18:37:40.236,324.62,0.039,-0.025,0.012,-0.359,-0.936,0.15,7.62,-6.8100000000000005,-47.26,0.6092000000000001,-0.7473000000000001,-0.046,-0.2609,0.007,-0.002,-0.002,310.165,-0.003,-0.003,0.0,-0.17,-0.956,-0.207,24.55,-22.68,-74.39,-0.5914,0.5459,0.3155,0.5025000000000001,0.002,-0.007,0.002,312.26,-0.017,-0.013,0.005,-0.183,-0.984,0.067,62.370000000000005,-15.28,-66.64,-0.2184,0.3568,0.6377,0.6466000000000001,0.0,0.003,0.0,0.0,0.0,0.0,0.0,0.0,0.0,-0.0001916885375976,0.0005750656127929,-0.0659332275390625,-0.1538467407226562,-0.0036630630493164,-0.0036630630493164,0.0,0.0,0.0,0.0
2025-11-06 18:37:40.236,324.615,0.033,-0.032,0.012,-0.359,-0.937,0.15,7.62,-6.8100000000000005,-47.26,0.6093000000000001,-0.7473000000000001,-0.0461,-0.2609,0.007,-0.002,-0.002,310.165,-0.003,-0.003,0.0,-0.17,-0.956,-0.207,24.55,-22.68,-74.39,-0.5914,0.5459,0.3155,0.5025000000000001,0.002,-0.007,0.002,312.26,-0.017,-0.013,0.005,-0.183,-0.984,0.067,62.370000000000005,-15.28,-66.64,-0.2184,0.3568,0.6377,0.6466000000000001,0.0,0.003,0.0,0.0,0.0,0.0,0.0,0.0,0.0,-0.0001916885375976,0.0005750656127929,-0.0659332275390625,-0.1538467407226562,-0.0036630630493164,-0.0036630630493164,0.0,0.0,0.0,0.0
2025-11-06 18:37:40.236,324.65,0.068,-0.042,0.023,-0.347,-0.939,0.145,7.62,-6.6000000000000005,-47.99,0.6085,-0.748,-0.0457,-0.2606,-0.004,0.0,0.004,310.165,-0.003,-0.003,0.0,-0.17,-0.956,-0.207,24.55,-22.68,-74.39,-0.5914,0.5459,0.3155,0.5025000000000001,0.002,-0.007,0.002,312.26,-0.017,-0.013,0.005,-0.183,-0.984,0.067,62.370000000000005,-15.28,-66.64,-0.2184,0.3568,0.6377,0.6466000000000001,0.0,0.003,0.0,0.0,0.0,0.0,0.0,0.0,0.0,-0.0001916885375976,0.0005750656127929,-0.0659332275390625,-0.1538467407226562,-0.0036630630493164,-0.0036630630493164,0.0,0.0,0.0,0.0
2025-11-06 18:37:40.236,324.625,0.04,-0.03,0.015,-0.359,-0.935,0.15,7.71,-6.75,-47.52,0.6091,-0.7474000000000001,-0.046,-0.2609,0.007,-0.003,-0.001,310.165,-0.003,-0.003,0.0,-0.17,-0.956,-0.207,24.55,-22.68,-74.39,-0.5914,0.5459,0.3155,0.5025000000000001,0.002,-0.007,0.002,312.26,-0.017,-0.013,0.005,-0.183,-0.984,0.067,62.370000000000005,-15.28,-66.64,-0.2184,0.3568,0.6377,0.6466000000000001,0.0,0.003,0.0,0.0,0.0,0.0,0.0,0.0,0.0,-0.0001916885375976,0.0005750656127929,-0.0659332275390625,-0.1538467407226562,-0.0036630630493164,-0.0036630630493164,0.0,0.0,0.0,0.0
2025-11-06 18:37:40.236,324.655,0.068,-0.046,0.023,-0.347,-0.939,0.146,7.62,-6.6000000000000005,-47.99,0.6084,-0.7482000000000001,-0.0456,-0.2606,-0.004,0.001,0.003,310.165,-0.003,-0.003,0.0,-0.17,-0.956,-0.207,24.55,-22.68,-74.39,-0.5914,0.5459,0.3155,0.5025000000000001,0.002,-0.007,0.002,312.26,-0.017,-0.013,0.005,-0.183,-0.984,0.067,62.370000000000005,-15.28,-66.64,-0.2184,0.3568,0.6377,0.6466000000000001,0.0,0.003,0.0,0.0,0.0,0.0,0.0,0.0,0.0,-0.0001916885375976,0.0005750656127929,-0.0659332275390625,-0.1538467407226562,-0.0036630630493164,-0.0036630630493164,0.0,0.0,0.0,0.0
2025-11-06 18:37:40.236,324.685,0.072,-0.044,0.025,-0.345,-0.949,0.158,7.65,-6.86,-47.76,0.6075,-0.749,-0.0452,-0.2602,-0.006,0.011,-0.004,310.165,-0.003,-0.003,0.0,-0.17,-0.956,-0.207,24.55,-22.68,-74.39,-0.5914,0.5459,0.3155,0.5025000000000001,0.002,-0.007,0.002,312.26,-0.017,-0.013,0.005,-0.183,-0.984,0.067,62.370000000000005,-15.28,-66.64,-0.2184,0.3568,0.6377,0.6466000000000001,0.0,0.003,0.0,0.0,0.0,0.0,0.0,0.0,0.0,-0.0001916885375976,0.0005750656127929,-0.0659332275390625,-0.1538467407226562,-0.0036630630493164,-0.0036630630493164,0.0,0.0,0.0,0.0
2025-11-06 18:37:40.236,324.665,0.071,-0.047,0.027,-0.344,-0.941,0.152,7.74,-6.8100000000000005,-47.82,0.6081,-0.7484000000000001,-0.0455,-0.2604,-0.008,0.003,0.0,310.165,-0.003,-0.003,0.0,-0.17,-0.956,-0.207,24.55,-22.68,-74.39,-0.5914,0.5459,0.3155,0.5025000000000001,0.002,-0.007,0.002,312.26,-0.017,-0.013,0.005,-0.183,-0.984,0.067,62.370000000000005,-15.28,-66.64,-0.2184,0.3568,0.6377,0.6466000000000001,0.0,0.003,0.0,0.0,0.0,0.0,0.0,0.0,0.0,-0.0001916885375976,0.0005750656127929,-0.0659332275390625,-0.1538467407226562,-0.0036630630493164,-0.0036630630493164,0.0,0.0,0.0,0.0
2025-11-06 18:37:40.236,324.66,0.068,-0.046,0.024,-0.345,-0.94,0.149,7.62,-6.6000000000000005,-47.99,0.6082000000000001,-0.7483000000000001,-0.0456,-0.2605,-0.007,0.001,0.001,310.165,-0.003,-0.003,0.0,-0.17,-0.956,-0.207,24.55,-22.68,-74.39,-0.5914,0.5459,0.3155,0.5025000000000001,0.002,-0.007,0.002,312.26,-0.017,-0.013,0.005,-0.183,-0.984,0.067,62.370000000000005,-15.28,-66.64,-0.2184,0.3568,0.6377,0.6466000000000001,0.0,0.003,0.0,0.0,0.0,0.0,0.0,0.0,0.0,-0.0001916885375976,0.0005750656127929,-0.0659332275390625,-0.1538467407226562,-0.0036630630493164,-0.0036630630493164,0.0,0.0,0.0,0.0
2025-11-06 18:37:40.236,324.7,0.071,-0.045,0.02,-0.353,-0.951,0.158,7.27,-6.75,-47.47,0.6071000000000001,-0.7495,-0.0451,-0.26,0.001,0.013,-0.003,310.165,-0.003,-0.003,0.0,-0.17,-0.956,-0.207,24.55,-22.68,-74.39,-0.5914,0.5459,0.3155,0.5025000000000001,0.002,-0.007,0.002,312.26,-0.017,-0.013,0.005,-0.183,-0.984,0.067,62.370000000000005,-15.28,-66.64,-0.2184,0.3568,0.6377,0.6466000000000001,0.0,0.003,0.0,0.0,0.0,0.0,0.0,0.0,0.0,-0.0001916885375976,0.0005750656127929,-0.0659332275390625,-0.1538467407226562,-0.0036630630493164,-0.0036630630493164,0.0,0.0,0.0,0.0
2025-11-06 18:37:40.236,324.69,0.071,-0.044,0.021,-0.348,-0.95,0.158,7.27,-6.75,-47.47,0.6074,-0.7492000000000001,-0.0452,-0.2601,-0.003,0.012,-0.004,310.165,-0.003,-0.003,0.0,-0.17,-0.956,-0.207,24.55,-22.68,-74.39,-0.5914,0.5459,0.3155,0.5025000000000001,0.002,-0.007,0.002,312.26,-0.017,-0.013,0.005,-0.183,-0.984,0.067,62.370000000000005,-15.28,-66.64,-0.2184,0.3568,0.6377,0.6466000000000001,0.0,0.003,0.0,0.0,0.0,0.0,0.0,0.0,0.0,-0.0001916885375976,0.0005750656127929,-0.0659332275390625,-0.1538467407226562,-0.0036630630493164,-0.0036630630493164,0.0,0.0,0.0,0.0
2025-11-06 18:37:40.236,324.705,0.075,-0.051,0.017,-0.356,-0.951,0.156,7.48,-6.63,-47.58,0.6069,-0.7496,-0.045,-0.2599,0.003,0.013,-0.001,310.165,-0.003,-0.003,0.0,-0.17,-0.956,-0.207,24.55,-22.68,-74.39,-0.5914,0.5459,0.3155,0.5025000000000001,0.002,-0.007,0.002,312.26,-0.017,-0.013,0.005,-0.183,-0.984,0.067,62.370000000000005,-15.28,-66.64,-0.2184,0.3568,0.6377,0.6466000000000001,0.0,0.003,0.0,0.0,0.0,0.0,0.0,0.0,0.0,-0.0001916885375976,0.0005750656127929,-0.0659332275390625,-0.1538467407226562,-0.0036630630493164,-0.0036630630493164,0.0,0.0,0.0,0.0
2025-11-06 18:37:40.236,324.68,0.072,-0.043,0.025,-0.345,-0.948,0.157,7.65,-6.86,-47.76,0.6077,-0.7489,-0.0453,-0.2602,-0.007,0.01,-0.004,310.165,-0.003,-0.003,0.0,-0.17,-0.956,-0.207,24.55,-22.68,-74.39,-0.5914,0.5459,0.3155,0.5025000000000001,0.002,-0.007,0.002,312.26,-0.017,-0.013,0.005,-0.183,-0.984,0.067,62.370000000000005,-15.28,-66.64,-0.2184,0.3568,0.6377,0.6466000000000001,0.0,0.003,0.0,0.0,0.0,0.0,0.0,0.0,0.0,-0.0001916885375976,0.0005750656127929,-0.0659332275390625,-0.1538467407226562,-0.0036630630493164,-0.0036630630493164,0.0,0.0,0.0,0.0
2025-11-06 18:37:40.236,324.675,0.07,-0.047,0.027,-0.343,-0.946,0.155,7.74,-6.8100000000000005,-47.76,0.6078,-0.7487,-0.0454,-0.2603,-0.008,0.008,-0.002,310.165,-0.003,-0.003,0.0,-0.17,-0.956,-0.207,24.55,-22.68,-74.39,-0.5914,0.5459,0.3155,0.5025000000000001,0.002,-0.007,0.002,312.26,-0.017,-0.013,0.005,-0.183,-0.984,0.067,62.370000000000005,-15.28,-66.64,-0.2184,0.3568,0.6377,0.6466000000000001,0.0,0.003,0.0,0.0,0.0,0.0,0.0,0.0,0.0,-0.0001916885375976,0.0005750656127929,-0.0659332275390625,-0.1538467407226562,-0.0036630630493164,-0.0036630630493164,0.0,0.0,0.0,0.0
2025-11-06 18:37:40.236,324.67,0.07,-0.049,0.027,-0.343,-0.942,0.154,7.74,-6.8100000000000005,-47.82,0.608,-0.7486,-0.0454,-0.2603,-0.009,0.004,-0.003,310.165,-0.003,-0.003,0.0,-0.17,-0.956,-0.207,24.55,-22.68,-74.39,-0.5914,0.5459,0.3155,0.5025000000000001,0.002,-0.007,0.002,312.26,-0.017,-0.013,0.005,-0.183,-0.984,0.067,62.370000000000005,-15.28,-66.64,-0.2184,0.3568,0.6377,0.6466000000000001,0.0,0.003,0.0,0.0,0.0,0.0,0.0,0.0,0.0,-0.0001916885375976,0.0005750656127929,-0.0659332275390625,-0.1538467407226562,-0.0036630630493164,-0.0036630630493164,0.0,0.0,0.0,0.0
2025-11-06 18:37:40.236,324.715,0.077,-0.049,0.019,-0.357,-0.95,0.154,7.22,-6.54,-47.67,0.6066,-0.7499,-0.0449,-0.2597,0.004,0.012,0.001,310.165,-0.003,-0.003,0.0,-0.17,-0.956,-0.207,24.55,-22.68,-74.39,-0.5914,0.5459,0.3155,0.5025000000000001,0.002,-0.007,0.002,312.26,-0.017,-0.013,0.005,-0.183,-0.984,0.067,62.370000000000005,-15.28,-66.64,-0.2184,0.3568,0.6377,0.6466000000000001,0.0,0.003,0.0,0.0,0.0,0.0,0.0,0.0,0.0,-0.0001916885375976,0.0005750656127929,-0.0659332275390625,-0.1538467407226562,-0.0036630630493164,-0.0036630630493164,0.0,0.0,0.0,0.0
2025-11-06 18:37:40.236,324.63,0.047,-0.035,0.014,-0.357,-0.935,0.148,7.71,-6.75,-47.52,0.609,-0.7475,-0.0459,-0.2608,0.005,-0.003,0.0,310.165,-0.003,-0.003,0.0,-0.17,-0.956,-0.207,24.55,-22.68,-74.39,-0.5914,0.5459,0.3155,0.5025000000000001,0.002,-0.007,0.002,312.26,-0.017,-0.013,0.005,-0.183,-0.984,0.067,62.370000000000005,-15.28,-66.64,-0.2184,0.3568,0.6377,0.6466000000000001,0.0,0.003,0.0,0.0,0.0,0.0,0.0,0.0,0.0,-0.0001916885375976,0.0005750656127929,-0.0659332275390625,-0.1538467407226562,-0.0036630630493164,-0.0036630630493164,0.0,0.0,0.0,0.0
2025-11-06 18:37:40.236,324.695,0.074,-0.042,0.019,-0.35,-0.95,0.158,7.27,-6.75,-47.47,0.6072000000000001,-0.7493000000000001,-0.0451,-0.26,-0.001,0.012,-0.004,310.165,-0.003,-0.003,0.0,-0.17,-0.956,-0.207,24.55,-22.68,-74.39,-0.5914,0.5459,0.3155,0.5025000000000001,0.002,-0.007,0.002,312.26,-0.017,-0.013,0.005,-0.183,-0.984,0.067,62.370000000000005,-15.28,-66.64,-0.2184,0.3568,0.6377,0.6466000000000001,0.0,0.003,0.0,0.0,0.0,0.0,0.0,0.0,0.0,-0.0001916885375976,0.0005750656127929,-0.0659332275390625,-0.1538467407226562,-0.0036630630493164,-0.0036630630493164,0.0,0.0,0.0,0.0
2025-11-06 18:37:40.236,324.71,0.076,-0.051,0.017,-0.354,-0.95,0.156,7.48,-6.63,-47.58,0.6068,-0.7498,-0.045,-0.2598,0.001,0.012,-0.001,310.165,-0.003,-0.003,0.0,-0.17,-0.956,-0.207,24.55,-22.68,-74.39,-0.5914,0.5459,0.3155,0.5025000000000001,0.002,-0.007,0.002,312.26,-0.017,-0.013,0.005,-0.183,-0.984,0.067,62.370000000000005,-15.28,-66.64,-0.2184,0.3568,0.6377,0.6466000000000001,0.0,0.003,0.0,0.0,0.0,0.0,0.0,0.0,0.0,-0.0001916885375976,0.0005750656127929,-0.0659332275390625,-0.1538467407226562,-0.0036630630493164,-0.0036630630493164,0.0,0.0,0.0,0.0
2025-11-06 18:37:40.236,324.795,0.079,-0.067,0.013,-0.346,-0.941,0.161,7.42,-6.4,-47.7,0.604,-0.7526,-0.0435,-0.2583,-0.007,0.005,0.001,310.165,-0.003,-0.003,0.0,-0.17,-0.956,-0.207,24.55,-22.68,-74.39,-0.5914,0.5459,0.3155,0.5025000000000001,0.002,-0.007,0.002,312.26,-0.017,-0.013,0.005,-0.183,-0.984,0.067,62.370000000000005,-15.28,-66.64,-0.2184,0.3568,0.6377,0.6466000000000001,0.0,0.003,0.0,0.0,0.0,0.0,0.0,0.0,0.0,-0.0001916885375976,0.0005750656127929,-0.0659332275390625,-0.1538467407226562,-0.0036630630493164,-0.0036630630493164,0.0,0.0,0.0,0.0
2025-11-06 18:37:40.236,324.72,0.08,-0.052,0.021,-0.356,-0.947,0.155,7.22,-6.54,-47.67,0.6065,-0.7501,-0.0448,-0.2597,0.003,0.01,0.0,310.165,-0.003,-0.003,0.0,-0.17,-0.956,-0.207,24.55,-22.68,-74.39,-0.5914,0.5459,0.3155,0.5025000000000001,0.002,-0.007,0.002,312.26,-0.017,-0.013,0.005,-0.183,-0.984,0.067,62.370000000000005,-15.28,-66.64,-0.2184,0.3568,0.6377,0.6466000000000001,0.0,0.003,0.0,0.0,0.0,0.0,0.0,0.0,0.0,-0.0001916885375976,0.0005750656127929,-0.0659332275390625,-0.1538467407226562,-0.0036630630493164,-0.0036630630493164,0.0,0.0,0.0,0.0
2025-11-06 18:37:40.236,324.76,0.078,-0.063,0.032,-0.353,-0.932,0.158,7.19,-6.51,-46.91,0.6051000000000001,-0.7514000000000001,-0.0441,-0.2591,0.0,-0.004,0.0,310.165,-0.003,-0.003,0.0,-0.17,-0.956,-0.207,24.55,-22.68,-74.39,-0.5914,0.5459,0.3155,0.5025000000000001,0.002,-0.007,0.002,312.26,-0.017,-0.013,0.005,-0.183,-0.984,0.067,62.370000000000005,-15.28,-66.64,-0.2184,0.3568,0.6377,0.6466000000000001,0.0,0.003,0.0,0.0,0.0,0.0,0.0,0.0,0.0,-0.0001916885375976,0.0005750656127929,-0.0659332275390625,-0.1538467407226562,-0.0036630630493164,-0.0036630630493164,0.0,0.0,0.0,0.0
2025-11-06 18:37:40.236,324.755,0.079,-0.061,0.033,-0.355,-0.934,0.159,7.19,-6.51,-46.91,0.6053000000000001,-0.7512000000000001,-0.0442,-0.2592,0.001,-0.002,0.0,310.165,-0.003,-0.003,0.0,-0.17,-0.956,-0.207,24.55,-22.68,-74.39,-0.5914,0.5459,0.3155,0.5025000000000001,0.002,-0.007,0.002,312.26,-0.017,-0.013,0.005,-0.183,-0.984,0.067,62.370000000000005,-15.28,-66.64,-0.2184,0.3568,0.6377,0.6466000000000001,0.0,0.003,0.0,0.0,0.0,0.0,0.0,0.0,0.0,-0.0001916885375976,0.0005750656127929,-0.0659332275390625,-0.1538467407226562,-0.0036630630493164,-0.0036630630493164,0.0,0.0,0.0,0.0
2025-11-06 18:37:40.236,324.75,0.081,-0.059,0.033,-0.357,-0.935,0.157,7.42,-7.390000000000001,-46.97,0.6054,-0.7511,-0.0443,-0.2592,0.003,-0.001,0.0,310.165,-0.003,-0.003,0.0,-0.17,-0.956,-0.207,24.55,-22.68,-74.39,-0.5914,0.5459,0.3155,0.5025000000000001,0.002,-0.007,0.002,312.26,-0.017,-0.013,0.005,-0.183,-0.984,0.067,62.370000000000005,-15.28,-66.64,-0.2184,0.3568,0.6377,0.6466000000000001,0.0,0.003,0.0,0.0,0.0,0.0,0.0,0.0,0.0,-0.0001916885375976,0.0005750656127929,-0.0659332275390625,-0.1538467407226562,-0.0036630630493164,-0.0036630630493164,0.0,0.0,0.0,0.0
2025-11-06 18:37:40.236,324.73,0.08,-0.053,0.026,-0.355,-0.945,0.159,8.71,-7.27,-47.41,0.6061000000000001,-0.7504000000000001,-0.0447,-0.2595,0.002,0.007,-0.002,310.165,-0.003,-0.003,0.0,-0.17,-0.956,-0.207,24.55,-22.68,-74.39,-0.5914,0.5459,0.3155,0.5025000000000001,0.002,-0.007,0.002,312.26,-0.017,-0.013,0.005,-0.183,-0.984,0.067,62.370000000000005,-15.28,-66.64,-0.2184,0.3568,0.6377,0.6466000000000001,0.0,0.003,0.0,0.0,0.0,0.0,0.0,0.0,0.0,-0.0001916885375976,0.0005750656127929,-0.0659332275390625,-0.1538467407226562,-0.0036630630493164,-0.0036630630493164,0.0,0.0,0.0,0.0
2025-11-06 18:37:40.236,324.735,0.079,-0.057,0.029,-0.356,-0.943,0.159,8.71,-7.27,-47.41,0.606,-0.7506,-0.0446,-0.2594,0.003,0.006,-0.001,310.165,-0.003,-0.003,0.0,-0.17,-0.956,-0.207,24.55,-22.68,-74.39,-0.5914,0.5459,0.3155,0.5025000000000001,0.002,-0.007,0.002,312.26,-0.017,-0.013,0.005,-0.183,-0.984,0.067,62.370000000000005,-15.28,-66.64,-0.2184,0.3568,0.6377,0.6466000000000001,0.0,0.003,0.0,0.0,0.0,0.0,0.0,0.0,0.0,-0.0001916885375976,0.0005750656127929,-0.0659332275390625,-0.1538467407226562,-0.0036630630493164,-0.0036630630493164,0.0,0.0,0.0,0.0
2025-11-06 18:37:40.236,324.765,0.079,-0.063,0.03,-0.352,-0.932,0.158,7.33,-6.86,-47.29,0.6049,-0.7516,-0.044,-0.259,-0.001,-0.003,0.001,310.165,-0.003,-0.003,0.0,-0.17,-0.956,-0.207,24.55,-22.68,-74.39,-0.5914,0.5459,0.3155,0.5025000000000001,0.002,-0.007,0.002,312.26,-0.017,-0.013,0.005,-0.183,-0.984,0.067,62.370000000000005,-15.28,-66.64,-0.2184,0.3568,0.6377,0.6466000000000001,0.0,0.003,0.0,0.0,0.0,0.0,0.0,0.0,0.0,-0.0001916885375976,0.0005750656127929,-0.0659332275390625,-0.1538467407226562,-0.0036630630493164,-0.0036630630493164,0.0,0.0,0.0,0.0
2025-11-06 18:37:40.236,324.745,0.084,-0.054,0.032,-0.357,-0.938,0.158,7.42,-7.390000000000001,-46.97,0.6056,-0.7509,-0.0444,-0.2593,0.003,0.001,0.0,310.165,-0.003,-0.003,0.0,-0.17,-0.956,-0.207,24.55,-22.68,-74.39,-0.5914,0.5459,0.3155,0.5025000000000001,0.002,-0.007,0.002,312.26,-0.017,-0.013,0.005,-0.183,-0.984,0.067,62.370000000000005,-15.28,-66.64,-0.2184,0.3568,0.6377,0.6466000000000001,0.0,0.003,0.0,0.0,0.0,0.0,0.0,0.0,0.0,-0.0001916885375976,0.0005750656127929,-0.0659332275390625,-0.1538467407226562,-0.0036630630493164,-0.0036630630493164,0.0,0.0,0.0,0.0
2025-11-06 18:37:40.236,324.77,0.081,-0.066,0.029,-0.35,-0.934,0.158,7.33,-6.86,-47.29,0.6048,-0.7517,-0.0439,-0.2589,-0.003,-0.002,0.002,310.165,-0.003,-0.003,0.0,-0.17,-0.956,-0.207,24.55,-22.68,-74.39,-0.5914,0.5459,0.3155,0.5025000000000001,0.002,-0.007,0.002,312.26,-0.017,-0.013,0.005,-0.183,-0.984,0.067,62.370000000000005,-15.28,-66.64,-0.2184,0.3568,0.6377,0.6466000000000001,0.0,0.003,0.0,0.0,0.0,0.0,0.0,0.0,0.0,-0.0001916885375976,0.0005750656127929,-0.0659332275390625,-0.1538467407226562,-0.0036630630493164,-0.0036630630493164,0.0,0.0,0.0,0.0
2025-11-06 18:37:40.236,324.825,0.061,-0.057,0.011,-0.352,-0.952,0.16,7.48,-6.72,-47.0,0.6032000000000001,-0.7535000000000001,-0.0431,-0.2577,-0.001,0.016,0.005,310.165,-0.003,-0.003,0.0,-0.17,-0.956,-0.207,24.55,-22.68,-74.39,-0.5914,0.5459,0.3155,0.5025000000000001,0.002,-0.007,0.002,312.26,-0.017,-0.013,0.005,-0.183,-0.984,0.067,62.370000000000005,-15.28,-66.64,-0.2184,0.3568,0.6377,0.6466000000000001,0.0,0.003,0.0,0.0,0.0,0.0,0.0,0.0,0.0,-0.0001916885375976,0.0005750656127929,-0.0659332275390625,-0.1538467407226562,-0.0036630630493164,-0.0036630630493164,0.0,0.0,0.0,0.0
2025-11-06 18:37:40.236,324.74,0.082,-0.051,0.03,-0.357,-0.939,0.159,7.42,-7.390000000000001,-46.97,0.6058,-0.7507,-0.0445,-0.2594,0.004,0.002,-0.001,310.165,-0.003,-0.003,0.0,-0.17,-0.956,-0.207,24.55,-22.68,-74.39,-0.5914,0.5459,0.3155,0.5025000000000001,0.002,-0.007,0.002,312.26,-0.017,-0.013,0.005,-0.183,-0.984,0.067,62.370000000000005,-15.28,-66.64,-0.2184,0.3568,0.6377,0.6466000000000001,0.0,0.003,0.0,0.0,0.0,0.0,0.0,0.0,0.0,-0.0001916885375976,0.0005750656127929,-0.0659332275390625,-0.1538467407226562,-0.0036630630493164,-0.0036630630493164,0.0,0.0,0.0,0.0
2025-11-06 18:37:40.236,324.785,0.084,-0.074,0.021,-0.347,-0.938,0.154,7.6,-6.4,-47.0,0.6043000000000001,-0.7523000000000001,-0.0436,-0.2586,-0.006,0.002,0.007,310.165,-0.003,-0.003,0.0,-0.17,-0.956,-0.207,24.55,-22.68,-74.39,-0.5914,0.5459,0.3155,0.5025000000000001,0.002,-0.007,0.002,312.26,-0.017,-0.013,0.005,-0.183,-0.984,0.067,62.370000000000005,-15.28,-66.64,-0.2184,0.3568,0.6377,0.6466000000000001,0.0,0.003,0.0,0.0,0.0,0.0,0.0,0.0,0.0,-0.0001916885375976,0.0005750656127929,-0.0659332275390625,-0.1538467407226562,-0.0036630630493164,-0.0036630630493164,0.0,0.0,0.0,0.0
2025-11-06 18:37:40.236,324.78,0.084,-0.071,0.025,-0.348,-0.936,0.156,7.6,-6.4,-47.0,0.6045,-0.7521,-0.0437,-0.2587,-0.006,0.0,0.005,310.165,-0.003,-0.003,0.0,-0.17,-0.956,-0.207,24.55,-22.68,-74.39,-0.5914,0.5459,0.3155,0.5025000000000001,0.002,-0.007,0.002,312.26,-0.017,-0.013,0.005,-0.183,-0.984,0.067,62.370000000000005,-15.28,-66.64,-0.2184,0.3568,0.6377,0.6466000000000001,0.0,0.003,0.0,0.0,0.0,0.0,0.0,0.0,0.0,-0.0001916885375976,0.0005750656127929,-0.0659332275390625,-0.1538467407226562,-0.0036630630493164,-0.0036630630493164,0.0,0.0,0.0,0.0
2025-11-06 18:37:40.236,324.725,0.081,-0.053,0.023,-0.357,-0.946,0.158,7.22,-6.54,-47.67,0.6063000000000001,-0.7502000000000001,-0.0448,-0.2596,0.004,0.009,-0.001,310.165,-0.003,-0.003,0.0,-0.17,-0.956,-0.207,24.55,-22.68,-74.39,-0.5914,0.5459,0.3155,0.5025000000000001,0.002,-0.007,0.002,312.26,-0.017,-0.013,0.005,-0.183,-0.984,0.067,62.370000000000005,-15.28,-66.64,-0.2184,0.3568,0.6377,0.6466000000000001,0.0,0.003,0.0,0.0,0.0,0.0,0.0,0.0,0.0,-0.0001916885375976,0.0005750656127929,-0.0659332275390625,-0.1538467407226562,-0.0036630630493164,-0.0036630630493164,0.0,0.0,0.0,0.0
2025-11-06 18:37:40.236,324.82,0.067,-0.057,0.012,-0.351,-0.949,0.16,7.48,-6.72,-47.0,0.6033000000000001,-0.7534000000000001,-0.0432,-0.2578,-0.002,0.013,0.005,310.165,-0.003,-0.003,0.0,-0.17,-0.956,-0.207,24.55,-22.68,-74.39,-0.5914,0.5459,0.3155,0.5025000000000001,0.002,-0.007,0.002,312.26,-0.017,-0.013,0.005,-0.183,-0.984,0.067,62.370000000000005,-15.28,-66.64,-0.2184,0.3568,0.6377,0.6466000000000001,0.0,0.003,0.0,0.0,0.0,0.0,0.0,0.0,0.0,-0.0001916885375976,0.0005750656127929,-0.0659332275390625,-0.1538467407226562,-0.0036630630493164,-0.0036630630493164,0.0,0.0,0.0,0.0
2025-11-06 18:37:40.236,324.815,0.073,-0.058,0.011,-0.349,-0.948,0.161,7.48,-6.72,-47.0,0.6034,-0.7532,-0.0433,-0.2579,-0.004,0.013,0.004,310.165,-0.003,-0.003,0.0,-0.17,-0.956,-0.207,24.55,-22.68,-74.39,-0.5914,0.5459,0.3155,0.5025000000000001,0.002,-0.007,0.002,312.26,-0.017,-0.013,0.005,-0.183,-0.984,0.067,62.370000000000005,-15.28,-66.64,-0.2184,0.3568,0.6377,0.6466000000000001,0.0,0.003,0.0,0.0,0.0,0.0,0.0,0.0,0.0,-0.0001916885375976,0.0005750656127929,-0.0659332275390625,-0.1538467407226562,-0.0036630630493164,-0.0036630630493164,0.0,0.0,0.0,0.0
2025-11-06 18:37:40.236,324.775,0.079,-0.069,0.026,-0.349,-0.935,0.156,7.33,-6.86,-47.29,0.6046,-0.7519,-0.0438,-0.2588,-0.004,0.0,0.004,310.165,-0.003,-0.003,0.0,-0.17,-0.956,-0.207,24.55,-22.68,-74.39,-0.5914,0.5459,0.3155,0.5025000000000001,0.002,-0.007,0.002,312.26,-0.017,-0.013,0.005,-0.183,-0.984,0.067,62.370000000000005,-15.28,-66.64,-0.2184,0.3568,0.6377,0.6466000000000001,0.0,0.003,0.0,0.0,0.0,0.0,0.0,0.0,0.0,-0.0001916885375976,0.0005750656127929,-0.0659332275390625,-0.1538467407226562,-0.0036630630493164,-0.0036630630493164,0.0,0.0,0.0,0.0
2025-11-06 18:37:40.236,324.805,0.076,-0.061,0.013,-0.346,-0.944,0.163,7.33,-6.43,-47.55,0.6037,-0.7529,-0.0434,-0.2581,-0.007,0.008,0.0,310.165,-0.003,-0.003,0.0,-0.17,-0.956,-0.207,24.55,-22.68,-74.39,-0.5914,0.5459,0.3155,0.5025000000000001,0.002,-0.007,0.002,312.26,-0.017,-0.013,0.005,-0.183,-0.984,0.067,62.370000000000005,-15.28,-66.64,-0.2184,0.3568,0.6377,0.6466000000000001,0.0,0.003,0.0,0.0,0.0,0.0,0.0,0.0,0.0,-0.0001916885375976,0.0005750656127929,-0.0659332275390625,-0.1538467407226562,-0.0036630630493164,-0.0036630630493164,0.0,0.0,0.0,0.0
2025-11-06 18:37:40.236,324.8,0.078,-0.062,0.013,-0.344,-0.943,0.162,7.42,-6.4,-47.7,0.6038,-0.7528,-0.0434,-0.2582,-0.009,0.007,0.001,310.165,-0.003,-0.003,0.0,-0.17,-0.956,-0.207,24.55,-22.68,-74.39,-0.5914,0.5459,0.3155,0.5025000000000001,0.002,-0.007,0.002,312.26,-0.017,-0.013,0.005,-0.183,-0.984,0.067,62.370000000000005,-15.28,-66.64,-0.2184,0.3568,0.6377,0.6466000000000001,0.0,0.003,0.0,0.0,0.0,0.0,0.0,0.0,0.0,-0.0001916885375976,0.0005750656127929,-0.0659332275390625,-0.1538467407226562,-0.0036630630493164,-0.0036630630493164,0.0,0.0,0.0,0.0
2025-11-06 18:37:40.236,324.79,0.082,-0.071,0.018,-0.345,-0.94,0.159,7.42,-6.4,-47.7,0.6041000000000001,-0.7524000000000001,-0.0436,-0.2584,-0.008,0.004,0.003,310.165,-0.003,-0.003,0.0,-0.17,-0.956,-0.207,24.55,-22.68,-74.39,-0.5914,0.5459,0.3155,0.5025000000000001,0.002,-0.007,0.002,312.26,-0.017,-0.013,0.005,-0.183,-0.984,0.067,62.370000000000005,-15.28,-66.64,-0.2184,0.3568,0.6377,0.6466000000000001,0.0,0.003,0.0,0.0,0.0,0.0,0.0,0.0,0.0,-0.0001916885375976,0.0005750656127929,-0.0659332275390625,-0.1538467407226562,-0.0036630630493164,-0.0036630630493164,0.0,0.0,0.0,0.0
