Youthstudy/imurecv/data/merged/merged_20251106_183723.csv
System_Time,Timestamp_1,Gyro_X_1,Gyro_Y_1,Gyro_Z_1,Acc_X_1,Acc_Y_1,Acc_Z_1,Mag_X_1,Mag_Y_1,Mag_Z_1,Quat_W_1,Quat_X_1,Quat_Y_1,Quat_Z_1,Linear_Acc_X_1,Linear_Acc_Y_1,Linear_Acc_Z_1,Timestamp_2,Gyro_X_2,Gyro_Y_2,Gyro_Z_2,Acc_X_2,Acc_Y_2,Acc_Z_2,Mag_X_2,Mag_Y_2,Mag_Z_2,Quat_W_2,Quat_X_2,Quat_Y_2,Quat_Z_2,Linear_Acc_X_2,Linear_Acc_Y_2,Linear_Acc_Z_2,Timestamp_3,Gyro_X_3,Gyro_Y_3,Gyro_Z_3,Acc_X_3,Acc_Y_3,Acc_Z_3,Mag_X_3,Mag_Y_3,Mag_Z_3,Quat_W_3,Quat_X_3,Quat_Y_3,Quat_Z_3,Linear_Acc_X_3,Linear_Acc_Y_3,Linear_Acc_Z_3,kd_joint1,kd_joint2,kp_joint1,kp_joint2,p_des_joint1,p_des_joint2,ret0_joint1,ret0_joint2,ret1_joint1,ret1_joint2,ret2_joint1,ret2_joint2,t_ff_joint1,t_ff_joint2,v_des_joint1,v_des_joint2
2025-11-06 18:37:23.997,309.065,0.041,-0.021,-0.005,-0.362,-0.939,0.201,6.28,-8.38,-48.61,0.5995,-0.7609,-0.0226,-0.2468,-0.004,0.012,-0.015,295.3,-0.004,0.002,-0.006,-0.121,-0.956,-0.232,25.72,-20.05,-77.60000000000001,-0.7854,0.6147,-0.0693,0.0172,-0.001,-0.007,-0.003,297.365,-0.007,-0.008,0.004,-0.194,-0.981,0.021,61.88,-14.84,-69.21000000000001,-0.3072,0.4323,0.5705,0.627,0.003,0.0,0.003,0.0,0.0,0.0,0.0,0.0,0.0,-0.0001916885375976,0.0001916885375976,0.0073261260986328,-0.0219783782958984,-0.0036630630493164,-0.0036630630493164,0.0,0.0,0.0,0.0
2025-11-06 18:37:23.997,309.095,0.042,-0.033,0.0,-0.365,-0.939,0.187,5.93,-6.84,-48.26,0.599,-0.7614000000000001,-0.0226,-0.2464,0.0,0.012,0.0,295.3,-0.004,0.002,-0.006,-0.121,-0.956,-0.232,25.72,-20.05,-77.60000000000001,-0.7854,0.6147,-0.0693,0.0172,-0.001,-0.007,-0.003,297.365,-0.007,-0.008,0.004,-0.194,-0.981,0.021,61.88,-14.84,-69.21000000000001,-0.3072,0.4323,0.5705,0.627,0.003,0.0,0.003,0.0,0.0,0.0,0.0,0.0,0.0,-0.0001916885375976,0.0001916885375976,0.0073261260986328,-0.0219783782958984,-0.0036630630493164,-0.0036630630493164,0.0,0.0,0.0,0.0
2025-11-06 18:37:23.997,309.075,0.039,-0.02,-0.002,-0.362,-0.941,0.196,6.19,-6.69,-47.99,0.5993,-0.7611,-0.0226,-0.2467,-0.003,0.014,-0.01,295.3,-0.004,0.002,-0.006,-0.121,-0.956,-0.232,25.72,-20.05,-77.60000000000001,-0.7854,0.6147,-0.0693,0.0172,-0.001,-0.007,-0.003,297.365,-0.007,-0.008,0.004,-0.194,-0.981,0.021,61.88,-14.84,-69.21000000000001,-0.3072,0.4323,0.5705,0.627,0.003,0.0,0.003,0.0,0.0,0.0,0.0,0.0,0.0,-0.0001916885375976,0.0001916885375976,0.0073261260986328,-0.0219783782958984,-0.0036630630493164,-0.0036630630493164,0.0,0.0,0.0,0.0
2025-11-06 18:37:23.997,309.08,0.039,-0.025,-0.001,-0.363,-0.94,0.193,6.19,-6.69,-47.99,0.5993,-0.7612,-0.0226,-0.2466,-0.003,0.013,-0.007,295.3,-0.004,0.002,-0.006,-0.121,-0.956,-0.232,25.72,-20.05,-77.60000000000001,-0.7854,0.6147,-0.0693,0.0172,-0.001,-0.007,-0.003,297.365,-0.007,-0.008,0.004,-0.194,-0.981,0.021,61.88,-14.84,-69.21000000000001,-0.3072,0.4323,0.5705,0.627,0.003,0.0,0.003,0.0,0.0,0.0,0.0,0.0,0.0,-0.0001916885375976,0.0001916885375976,0.0073261260986328,-0.0219783782958984,-0.0036630630493164,-0.0036630630493164,0.0,0.0,0.0,0.0
2025-11-06 18:37:23.997,309.085,0.042,-0.027,0.0,-0.363,-0.942,0.192,6.95,-6.8100000000000005,-48.11,0.5992000000000001,-0.7613000000000001,-0.0226,-0.2466,-0.003,0.015,-0.005,295.3,-0.004,0.002,-0.006,-0.121,-0.956,-0.232,25.72,-20.05,-77.60000000000001,-0.7854,0.6147,-0.0693,0.0172,-0.001,-0.007,-0.003,297.365,-0.007,-0.008,0.004,-0.194,-0.981,0.021,61.88,-14.84,-69.21000000000001,-0.3072,0.4323,0.5705,0.627,0.003,0.0,0.003,0.0,0.0,0.0,0.0,0.0,0.0,-0.0001916885375976,0.0001916885375976,0.0073261260986328,-0.0219783782958984,-0.0036630630493164,-0.0036630630493164,0.0,0.0,0.0,0.0
2025-11-06 18:37:23.997,309.09,0.042,-0.029,0.001,-0.365,-0.941,0.189,6.95,-6.8100000000000005,-48.11,0.5991000000000001,-0.7613000000000001,-0.0226,-0.2465,0.0,0.014,-0.002,295.3,-0.004,0.002,-0.006,-0.121,-0.956,-0.232,25.72,-20.05,-77.60000000000001,-0.7854,0.6147,-0.0693,0.0172,-0.001,-0.007,-0.003,297.365,-0.007,-0.008,0.004,-0.194,-0.981,0.021,61.88,-14.84,-69.21000000000001,-0.3072,0.4323,0.5705,0.627,0.003,0.0,0.003,0.0,0.0,0.0,0.0,0.0,0.0,-0.0001916885375976,0.0001916885375976,0.0073261260986328,-0.0219783782958984,-0.0036630630493164,-0.0036630630493164,0.0,0.0,0.0,0.0
2025-11-06 18:37:23.997,309.07,0.04,-0.016,-0.002,-0.363,-0.941,0.199,6.19,-6.69,-47.99,0.5994,-0.761,-0.0226,-0.2467,-0.002,0.014,-0.013,295.3,-0.004,0.002,-0.006,-0.121,-0.956,-0.232,25.72,-20.05,-77.60000000000001,-0.7854,0.6147,-0.0693,0.0172,-0.001,-0.007,-0.003,297.365,-0.007,-0.008,0.004,-0.194,-0.981,0.021,61.88,-14.84,-69.21000000000001,-0.3072,0.4323,0.5705,0.627,0.003,0.0,0.003,0.0,0.0,0.0,0.0,0.0,0.0,-0.0001916885375976,0.0001916885375976,0.0073261260986328,-0.0219783782958984,-0.0036630630493164,-0.0036630630493164,0.0,0.0,0.0,0.0
2025-11-06 18:37:23.997,309.1,0.044,-0.044,0.001,-0.367,-0.936,0.187,5.93,-6.84,-48.26,0.599,-0.7615000000000001,-0.0225,-0.2463,0.0,0.008,0.0,295.3,-0.004,0.002,-0.006,-0.121,-0.956,-0.232,25.72,-20.05,-77.60000000000001,-0.7854,0.6147,-0.0693,0.0172,-0.001,-0.007,-0.003,297.365,-0.007,-0.008,0.004,-0.194,-0.981,0.021,61.88,-14.84,-69.21000000000001,-0.3072,0.4323,0.5705,0.627,0.003,0.0,0.003,0.0,0.0,0.0,0.0,0.0,0.0,-0.0001916885375976,0.0001916885375976,0.0073261260986328,-0.0219783782958984,-0.0036630630493164,-0.0036630630493164,0.0,0.0,0.0,0.0
2025-11-06 18:37:23.997,309.105,0.047,-0.043,0.0,-0.369,-0.934,0.189,5.93,-6.84,-48.26,0.5989,-0.7616,-0.0225,-0.2463,0.003,0.006,-0.001,295.3,-0.004,0.002,-0.006,-0.121,-0.956,-0.232,25.72,-20.05,-77.60000000000001,-0.7854,0.6147,-0.0693,0.0172,-0.001,-0.007,-0.003,297.365,-0.007,-0.008,0.004,-0.194,-0.981,0.021,61.88,-14.84,-69.21000000000001,-0.3072,0.4323,0.5705,0.627,0.003,0.0,0.003,0.0,0.0,0.0,0.0,0.0,0.0,-0.0001916885375976,0.0001916885375976,0.0073261260986328,-0.0219783782958984,-0.0036630630493164,-0.0036630630493164,0.0,0.0,0.0,0.0
2025-11-06 18:37:23.997,309.11,0.051,-0.042,0.0,-0.37,-0.932,0.187,7.13,-6.78,-47.73,0.5988,-0.7617,-0.0225,-0.2462,0.003,0.005,0.0,295.3,-0.004,0.002,-0.006,-0.121,-0.956,-0.232,25.72,-20.05,-77.60000000000001,-0.7854,0.6147,-0.0693,0.0172,-0.001,-0.007,-0.003,297.365,-0.007,-0.008,0.004,-0.194,-0.981,0.021,61.88,-14.84,-69.21000000000001,-0.3072,0.4323,0.5705,0.627,0.003,0.0,0.003,0.0,0.0,0.0,0.0,0.0,0.0,-0.0001916885375976,0.0001916885375976,0.0073261260986328,-0.0219783782958984,-0.0036630630493164,-0.0036630630493164,0.0,0.0,0.0,0.0
2025-11-06 18:37:23.997,309.115,0.052,-0.045,-0.001,-0.368,-0.93,0.187,7.13,-6.78,-47.73,0.5987,-0.7618,-0.0224,-0.2461,0.002,0.003,0.0,295.3,-0.004,0.002,-0.006,-0.121,-0.956,-0.232,25.72,-20.05,-77.60000000000001,-0.7854,0.6147,-0.0693,0.0172,-0.001,-0.007,-0.003,297.365,-0.007,-0.008,0.004,-0.194,-0.981,0.021,61.88,-14.84,-69.21000000000001,-0.3072,0.4323,0.5705,0.627,0.003,0.0,0.003,0.0,0.0,0.0,0.0,0.0,0.0,-0.0001916885375976,0.0001916885375976,0.0073261260986328,-0.0219783782958984,-0.0036630630493164,-0.0036630630493164,0.0,0.0,0.0,0.0
2025-11-06 18:37:23.997,309.125,0.057,-0.038,-0.002,-0.369,-0.93,0.187,5.96,-6.890000000000001,-47.93,0.5985,-0.762,-0.0224,-0.2459,0.003,0.003,0.001,295.3,-0.004,0.002,-0.006,-0.121,-0.956,-0.232,25.72,-20.05,-77.60000000000001,-0.7854,0.6147,-0.0693,0.0172,-0.001,-0.007,-0.003,297.365,-0.007,-0.008,0.004,-0.194,-0.981,0.021,61.88,-14.84,-69.21000000000001,-0.3072,0.4323,0.5705,0.627,0.003,0.0,0.003,0.0,0.0,0.0,0.0,0.0,0.0,-0.0001916885375976,0.0001916885375976,0.0073261260986328,-0.0219783782958984,-0.0036630630493164,-0.0036630630493164,0.0,0.0,0.0,0.0
2025-11-06 18:37:23.997,309.12,0.054,-0.04,-0.001,-0.368,-0.93,0.186,5.96,-6.890000000000001,-47.93,0.5986,-0.7619,-0.0224,-0.246,0.002,0.003,0.002,295.3,-0.004,0.002,-0.006,-0.121,-0.956,-0.232,25.72,-20.05,-77.60000000000001,-0.7854,0.6147,-0.0693,0.0172,-0.001,-0.007,-0.003,297.365,-0.007,-0.008,0.004,-0.194,-0.981,0.021,61.88,-14.84,-69.21000000000001,-0.3072,0.4323,0.5705,0.627,0.003,0.0,0.003,0.0,0.0,0.0,0.0,0.0,0.0,-0.0001916885375976,0.0001916885375976,0.0073261260986328,-0.0219783782958984,-0.0036630630493164,-0.0036630630493164,0.0,0.0,0.0,0.0
2025-11-06 18:37:23.998,309.185,0.034,-0.058,0.0,-0.356,-0.935,0.201,6.98,-7.22,-47.52,0.5975,-0.7632,-0.0222,-0.2448,-0.008,0.009,-0.008,295.3,-0.004,0.002,-0.006,-0.121,-0.956,-0.232,25.72,-20.05,-77.60000000000001,-0.7854,0.6147,-0.0693,0.0172,-0.001,-0.007,-0.003,297.365,-0.007,-0.008,0.004,-0.194,-0.981,0.021,61.88,-14.84,-69.21000000000001,-0.3072,0.4323,0.5705,0.627,0.003,0.0,0.003,0.0,0.0,0.0,0.0,0.0,0.0,-0.0001916885375976,0.0001916885375976,0.0073261260986328,-0.0219783782958984,-0.0036630630493164,-0.0036630630493164,0.0,0.0,0.0,0.0
2025-11-06 18:37:23.998,309.175,0.039,-0.047,-0.003,-0.353,-0.937,0.196,5.67,-6.51,-47.82,0.5976,-0.763,-0.0223,-0.245,-0.012,0.011,-0.004,295.3,-0.004,0.002,-0.006,-0.121,-0.956,-0.232,25.72,-20.05,-77.60000000000001,-0.7854,0.6147,-0.0693,0.0172,-0.001,-0.007,-0.003,297.365,-0.007,-0.008,0.004,-0.194,-0.981,0.021,61.88,-14.84,-69.21000000000001,-0.3072,0.4323,0.5705,0.627,0.003,0.0,0.003,0.0,0.0,0.0,0.0,0.0,0.0,-0.0001916885375976,0.0001916885375976,0.0073261260986328,-0.0219783782958984,-0.0036630630493164,-0.0036630630493164,0.0,0.0,0.0,0.0
2025-11-06 18:37:23.998,309.17,0.042,-0.043,-0.006,-0.351,-0.938,0.195,5.67,-6.51,-47.82,0.5977,-0.7629,-0.0224,-0.2451,-0.013,0.012,-0.003,295.3,-0.004,0.002,-0.006,-0.121,-0.956,-0.232,25.72,-20.05,-77.60000000000001,-0.7854,0.6147,-0.0693,0.0172,-0.001,-0.007,-0.003,297.365,-0.007,-0.008,0.004,-0.194,-0.981,0.021,61.88,-14.84,-69.21000000000001,-0.3072,0.4323,0.5705,0.627,0.003,0.0,0.003,0.0,0.0,0.0,0.0,0.0,0.0,-0.0001916885375976,0.0001916885375976,0.0073261260986328,-0.0219783782958984,-0.0036630630493164,-0.0036630630493164,0.0,0.0,0.0,0.0
2025-11-06 18:37:23.998,309.165,0.045,-0.038,-0.006,-0.353,-0.937,0.194,5.8100000000000005,-7.92,-47.64,0.5977,-0.7628,-0.0224,-0.2453,-0.012,0.011,-0.002,295.3,-0.004,0.002,-0.006,-0.121,-0.956,-0.232,25.72,-20.05,-77.60000000000001,-0.7854,0.6147,-0.0693,0.0172,-0.001,-0.007,-0.003,297.365,-0.007,-0.008,0.004,-0.194,-0.981,0.021,61.88,-14.84,-69.21000000000001,-0.3072,0.4323,0.5705,0.627,0.003,0.0,0.003,0.0,0.0,0.0,0.0,0.0,0.0,-0.0001916885375976,0.0001916885375976,0.0073261260986328,-0.0219783782958984,-0.0036630630493164,-0.0036630630493164,0.0,0.0,0.0,0.0
2025-11-06 18:37:23.998,309.15,0.054,-0.03,-0.006,-0.36,-0.937,0.189,6.25,-6.66,-47.76,0.598,-0.7625000000000001,-0.0224,-0.2455,-0.005,0.01,0.001,295.3,-0.004,0.002,-0.006,-0.121,-0.956,-0.232,25.72,-20.05,-77.60000000000001,-0.7854,0.6147,-0.0693,0.0172,-0.001,-0.007,-0.003,297.365,-0.007,-0.008,0.004,-0.194,-0.981,0.021,61.88,-14.84,-69.21000000000001,-0.3072,0.4323,0.5705,0.627,0.003,0.0,0.003,0.0,0.0,0.0,0.0,0.0,0.0,-0.0001916885375976,0.0001916885375976,0.0073261260986328,-0.0219783782958984,-0.0036630630493164,-0.0036630630493164,0.0,0.0,0.0,0.0
2025-11-06 18:37:23.998,309.155,0.051,-0.035,-0.009,-0.356,-0.939,0.192,6.25,-6.66,-47.76,0.5979,-0.7626000000000001,-0.0224,-0.2454,-0.008,0.012,-0.001,295.3,-0.004,0.002,-0.006,-0.121,-0.956,-0.232,25.72,-20.05,-77.60000000000001,-0.7854,0.6147,-0.0693,0.0172,-0.001,-0.007,-0.003,297.365,-0.007,-0.008,0.004,-0.194,-0.981,0.021,61.88,-14.84,-69.21000000000001,-0.3072,0.4323,0.5705,0.627,0.003,0.0,0.003,0.0,0.0,0.0,0.0,0.0,0.0,-0.0001916885375976,0.0001916885375976,0.0073261260986328,-0.0219783782958984,-0.0036630630493164,-0.0036630630493164,0.0,0.0,0.0,0.0
2025-11-06 18:37:23.998,309.145,0.055,-0.028,-0.006,-0.362,-0.936,0.185,6.25,-6.66,-47.76,0.5981000000000001,-0.7624000000000001,-0.0224,-0.2456,-0.003,0.009,0.004,295.3,-0.004,0.002,-0.006,-0.121,-0.956,-0.232,25.72,-20.05,-77.60000000000001,-0.7854,0.6147,-0.0693,0.0172,-0.001,-0.007,-0.003,297.365,-0.007,-0.008,0.004,-0.194,-0.981,0.021,61.88,-14.84,-69.21000000000001,-0.3072,0.4323,0.5705,0.627,0.003,0.0,0.003,0.0,0.0,0.0,0.0,0.0,0.0,-0.0001916885375976,0.0001916885375976,0.0073261260986328,-0.0219783782958984,-0.0036630630493164,-0.0036630630493164,0.0,0.0,0.0,0.0
2025-11-06 18:37:23.998,309.14,0.053,-0.035,-0.005,-0.365,-0.935,0.185,5.9,-6.8100000000000005,-48.28,0.5982000000000001,-0.7623000000000001,-0.0224,-0.2457,0.0,0.008,0.004,295.3,-0.004,0.002,-0.006,-0.121,-0.956,-0.232,25.72,-20.05,-77.60000000000001,-0.7854,0.6147,-0.0693,0.0172,-0.001,-0.007,-0.003,297.365,-0.007,-0.008,0.004,-0.194,-0.981,0.021,61.88,-14.84,-69.21000000000001,-0.3072,0.4323,0.5705,0.627,0.003,0.0,0.003,0.0,0.0,0.0,0.0,0.0,0.0,-0.0001916885375976,0.0001916885375976,0.0073261260986328,-0.0219783782958984,-0.0036630630493164,-0.0036630630493164,0.0,0.0,0.0,0.0
2025-11-06 18:37:23.998,309.19,0.035,-0.057,0.002,-0.357,-0.934,0.2,6.98,-7.22,-47.52,0.5974,-0.7633000000000001,-0.0222,-0.2446,-0.007,0.008,-0.007,295.3,-0.004,0.002,-0.006,-0.121,-0.956,-0.232,25.72,-20.05,-77.60000000000001,-0.7854,0.6147,-0.0693,0.0172,-0.001,-0.007,-0.003,297.365,-0.007,-0.008,0.004,-0.194,-0.981,0.021,61.88,-14.84,-69.21000000000001,-0.3072,0.4323,0.5705,0.627,0.003,0.0,0.003,0.0,0.0,0.0,0.0,0.0,0.0,-0.0001916885375976,0.0001916885375976,0.0073261260986328,-0.0219783782958984,-0.0036630630493164,-0.0036630630493164,0.0,0.0,0.0,0.0
2025-11-06 18:37:23.998,309.255,0.037,-0.038,0.023,-0.365,-0.93,0.195,5.99,-6.95,-48.26,0.5964,-0.7644000000000001,-0.021,-0.2437,0.0,0.004,0.0,295.3,-0.004,0.002,-0.006,-0.121,-0.956,-0.232,25.72,-20.05,-77.60000000000001,-0.7854,0.6147,-0.0693,0.0172,-0.001,-0.007,-0.003,297.365,-0.007,-0.008,0.004,-0.194,-0.981,0.021,61.88,-14.84,-69.21000000000001,-0.3072,0.4323,0.5705,0.627,0.003,0.0,0.003,0.0,0.0,0.0,0.0,0.0,0.0,-0.0001916885375976,0.0001916885375976,0.0073261260986328,-0.0219783782958984,-0.0036630630493164,-0.0036630630493164,0.0,0.0,0.0,0.0
2025-11-06 18:37:23.998,309.18,0.037,-0.053,-0.002,-0.354,-0.936,0.197,5.67,-6.51,-47.82,0.5975,-0.7631,-0.0223,-0.2449,-0.01,0.009,-0.005,295.3,-0.004,0.002,-0.006,-0.121,-0.956,-0.232,25.72,-20.05,-77.60000000000001,-0.7854,0.6147,-0.0693,0.0172,-0.001,-0.007,-0.003,297.365,-0.007,-0.008,0.004,-0.194,-0.981,0.021,61.88,-14.84,-69.21000000000001,-0.3072,0.4323,0.5705,0.627,0.003,0.0,0.003,0.0,0.0,0.0,0.0,0.0,0.0,-0.0001916885375976,0.0001916885375976,0.0073261260986328,-0.0219783782958984,-0.0036630630493164,-0.0036630630493164,0.0,0.0,0.0,0.0
2025-11-06 18:37:23.998,309.235,0.034,-0.049,0.024,-0.369,-0.933,0.2,5.84,-6.48,-48.14,0.5967,-0.7641,-0.0214,-0.2439,0.004,0.007,-0.004,295.3,-0.004,0.002,-0.006,-0.121,-0.956,-0.232,25.72,-20.05,-77.60000000000001,-0.7854,0.6147,-0.0693,0.0172,-0.001,-0.007,-0.003,297.365,-0.007,-0.008,0.004,-0.194,-0.981,0.021,61.88,-14.84,-69.21000000000001,-0.3072,0.4323,0.5705,0.627,0.003,0.0,0.003,0.0,0.0,0.0,0.0,0.0,0.0,-0.0001916885375976,0.0001916885375976,0.0073261260986328,-0.0219783782958984,-0.0036630630493164,-0.0036630630493164,0.0,0.0,0.0,0.0
2025-11-06 18:37:23.998,309.25,0.035,-0.039,0.024,-0.367,-0.928,0.196,5.99,-6.95,-48.26,0.5965,-0.7643000000000001,-0.0211,-0.2437,0.001,0.003,0.0,295.3,-0.004,0.002,-0.006,-0.121,-0.956,-0.232,25.72,-20.05,-77.60000000000001,-0.7854,0.6147,-0.0693,0.0172,-0.001,-0.007,-0.003,297.365,-0.007,-0.008,0.004,-0.194,-0.981,0.021,61.88,-14.84,-69.21000000000001,-0.3072,0.4323,0.5705,0.627,0.003,0.0,0.003,0.0,0.0,0.0,0.0,0.0,0.0,-0.0001916885375976,0.0001916885375976,0.0073261260986328,-0.0219783782958984,-0.0036630630493164,-0.0036630630493164,0.0,0.0,0.0,0.0
2025-11-06 18:37:23.998,309.245,0.035,-0.036,0.026,-0.365,-0.931,0.197,5.84,-6.48,-48.26,0.5966,-0.7643000000000001,-0.0212,-0.2438,0.0,0.005,-0.001,295.3,-0.004,0.002,-0.006,-0.121,-0.956,-0.232,25.72,-20.05,-77.60000000000001,-0.7854,0.6147,-0.0693,0.0172,-0.001,-0.007,-0.003,297.365,-0.007,-0.008,0.004,-0.194,-0.981,0.021,61.88,-14.84,-69.21000000000001,-0.3072,0.4323,0.5705,0.627,0.003,0.0,0.003,0.0,0.0,0.0,0.0,0.0,0.0,-0.0001916885375976,0.0001916885375976,0.0073261260986328,-0.0219783782958984,-0.0036630630493164,-0.0036630630493164,0.0,0.0,0.0,0.0
2025-11-06 18:37:23.998,309.24,0.033,-0.042,0.024,-0.369,-0.934,0.2,5.84,-6.48,-48.14,0.5966,-0.7642,-0.0213,-0.2438,0.003,0.008,-0.004,295.3,-0.004,0.002,-0.006,-0.121,-0.956,-0.232,25.72,-20.05,-77.60000000000001,-0.7854,0.6147,-0.0693,0.0172,-0.001,-0.007,-0.003,297.365,-0.007,-0.008,0.004,-0.194,-0.981,0.021,61.88,-14.84,-69.21000000000001,-0.3072,0.4323,0.5705,0.627,0.003,0.0,0.003,0.0,0.0,0.0,0.0,0.0,0.0,-0.0001916885375976,0.0001916885375976,0.0073261260986328,-0.0219783782958984,-0.0036630630493164,-0.0036630630493164,0.0,0.0,0.0,0.0
2025-11-06 18:37:23.998,309.195,0.034,-0.059,0.005,-0.361,-0.935,0.202,5.87,-6.34,-47.64,0.5973,-0.7634000000000001,-0.0221,-0.2445,-0.003,0.009,-0.009,295.3,-0.004,0.002,-0.006,-0.121,-0.956,-0.232,25.72,-20.05,-77.60000000000001,-0.7854,0.6147,-0.0693,0.0172,-0.001,-0.007,-0.003,297.365,-0.007,-0.008,0.004,-0.194,-0.981,0.021,61.88,-14.84,-69.21000000000001,-0.3072,0.4323,0.5705,0.627,0.003,0.0,0.003,0.0,0.0,0.0,0.0,0.0,0.0,-0.0001916885375976,0.0001916885375976,0.0073261260986328,-0.0219783782958984,-0.0036630630493164,-0.0036630630493164,0.0,0.0,0.0,0.0
2025-11-06 18:37:23.998,309.23,0.035,-0.05,0.023,-0.371,-0.933,0.201,6.0200000000000005,-6.3100000000000005,-47.79,0.5968,-0.764,-0.0215,-0.2439,0.006,0.007,-0.006,295.3,-0.004,0.002,-0.006,-0.121,-0.956,-0.232,25.72,-20.05,-77.60000000000001,-0.7854,0.6147,-0.0693,0.0172,-0.001,-0.007,-0.003,297.365,-0.007,-0.008,0.004,-0.194,-0.981,0.021,61.88,-14.84,-69.21000000000001,-0.3072,0.4323,0.5705,0.627,0.003,0.0,0.003,0.0,0.0,0.0,0.0,0.0,0.0,-0.0001916885375976,0.0001916885375976,0.0073261260986328,-0.0219783782958984,-0.0036630630493164,-0.0036630630493164,0.0,0.0,0.0,0.0
2025-11-06 18:37:23.998,309.135,0.055,-0.036,-0.003,-0.366,-0.934,0.185,5.9,-6.8100000000000005,-48.28,0.5983,-0.7622,-0.0224,-0.2458,0.0,0.007,0.004,295.3,-0.004,0.002,-0.006,-0.121,-0.956,-0.232,25.72,-20.05,-77.60000000000001,-0.7854,0.6147,-0.0693,0.0172,-0.001,-0.007,-0.003,297.365,-0.007,-0.008,0.004,-0.194,-0.981,0.021,61.88,-14.84,-69.21000000000001,-0.3072,0.4323,0.5705,0.627,0.003,0.0,0.003,0.0,0.0,0.0,0.0,0.0,0.0,-0.0001916885375976,0.0001916885375976,0.0073261260986328,-0.0219783782958984,-0.0036630630493164,-0.0036630630493164,0.0,0.0,0.0,0.0
2025-11-06 18:37:23.998,309.22,0.034,-0.05,0.019,-0.37,-0.934,0.201,6.0200000000000005,-6.3100000000000005,-47.79,0.597,-0.7638,-0.0217,-0.2441,0.005,0.008,-0.006,295.3,-0.004,0.002,-0.006,-0.121,-0.956,-0.232,25.72,-20.05,-77.60000000000001,-0.7854,0.6147,-0.0693,0.0172,-0.001,-0.007,-0.003,297.365,-0.007,-0.008,0.004,-0.194,-0.981,0.021,61.88,-14.84,-69.21000000000001,-0.3072,0.4323,0.5705,0.627,0.003,0.0,0.003,0.0,0.0,0.0,0.0,0.0,0.0,-0.0001916885375976,0.0001916885375976,0.0073261260986328,-0.0219783782958984,-0.0036630630493164,-0.0036630630493164,0.0,0.0,0.0,0.0
2025-11-06 18:37:23.998,309.215,0.032,-0.053,0.017,-0.37,-0.933,0.201,6.16,-7.390000000000001,-47.23,0.597,-0.7637,-0.0217,-0.2441,0.005,0.006,-0.007,295.3,-0.004,0.002,-0.006,-0.121,-0.956,-0.232,25.72,-20.05,-77.60000000000001,-0.7854,0.6147,-0.0693,0.0172,-0.001,-0.007,-0.003,297.365,-0.007,-0.008,0.004,-0.194,-0.981,0.021,61.88,-14.84,-69.21000000000001,-0.3072,0.4323,0.5705,0.627,0.003,0.0,0.003,0.0,0.0,0.0,0.0,0.0,0.0,-0.0001916885375976,0.0001916885375976,0.0073261260986328,-0.0219783782958984,-0.0036630630493164,-0.0036630630493164,0.0,0.0,0.0,0.0
2025-11-06 18:37:23.998,309.21,0.029,-0.061,0.013,-0.367,-0.933,0.203,6.16,-7.390000000000001,-47.23,0.5971000000000001,-0.7637,-0.0218,-0.2442,0.001,0.006,-0.009,295.3,-0.004,0.002,-0.006,-0.121,-0.956,-0.232,25.72,-20.05,-77.60000000000001,-0.7854,0.6147,-0.0693,0.0172,-0.001,-0.007,-0.003,297.365,-0.007,-0.008,0.004,-0.194,-0.981,0.021,61.88,-14.84,-69.21000000000001,-0.3072,0.4323,0.5705,0.627,0.003,0.0,0.003,0.0,0.0,0.0,0.0,0.0,0.0,-0.0001916885375976,0.0001916885375976,0.0073261260986328,-0.0219783782958984,-0.0036630630493164,-0.0036630630493164,0.0,0.0,0.0,0.0
2025-11-06 18:37:23.998,309.205,0.032,-0.057,0.009,-0.364,-0.934,0.205,5.87,-6.34,-47.64,0.5972000000000001,-0.7636000000000001,-0.0219,-0.2443,0.0,0.008,-0.011,295.3,-0.004,0.002,-0.006,-0.121,-0.956,-0.232,25.72,-20.05,-77.60000000000001,-0.7854,0.6147,-0.0693,0.0172,-0.001,-0.007,-0.003,297.365,-0.007,-0.008,0.004,-0.194,-0.981,0.021,61.88,-14.84,-69.21000000000001,-0.3072,0.4323,0.5705,0.627,0.003,0.0,0.003,0.0,0.0,0.0,0.0,0.0,0.0,-0.0001916885375976,0.0001916885375976,0.0073261260986328,-0.0219783782958984,-0.0036630630493164,-0.0036630630493164,0.0,0.0,0.0,0.0
2025-11-06 18:37:23.998,309.225,0.037,-0.052,0.022,-0.372,-0.934,0.2,6.0200000000000005,-6.3100000000000005,-47.79,0.5969,-0.7639,-0.0216,-0.244,0.006,0.008,-0.005,295.3,-0.004,0.002,-0.006,-0.121,-0.956,-0.232,25.72,-20.05,-77.60000000000001,-0.7854,0.6147,-0.0693,0.0172,-0.001,-0.007,-0.003,297.365,-0.007,-0.008,0.004,-0.194,-0.981,0.021,61.88,-14.84,-69.21000000000001,-0.3072,0.4323,0.5705,0.627,0.003,0.0,0.003,0.0,0.0,0.0,0.0,0.0,0.0,-0.0001916885375976,0.0001916885375976,0.0073261260986328,-0.0219783782958984,-0.0036630630493164,-0.0036630630493164,0.0,0.0,0.0,0.0
2025-11-06 18:37:23.998,309.2,0.032,-0.063,0.007,-0.362,-0.933,0.203,5.87,-6.34,-47.64,0.5973,-0.7635000000000001,-0.022,-0.2444,-0.002,0.007,-0.009,295.3,-0.004,0.002,-0.006,-0.121,-0.956,-0.232,25.72,-20.05,-77.60000000000001,-0.7854,0.6147,-0.0693,0.0172,-0.001,-0.007,-0.003,297.365,-0.007,-0.008,0.004,-0.194,-0.981,0.021,61.88,-14.84,-69.21000000000001,-0.3072,0.4323,0.5705,0.627,0.003,0.0,0.003,0.0,0.0,0.0,0.0,0.0,0.0,-0.0001916885375976,0.0001916885375976,0.0073261260986328,-0.0219783782958984,-0.0036630630493164,-0.0036630630493164,0.0,0.0,0.0,0.0
2025-11-06 18:37:23.998,309.13,0.057,-0.035,-0.002,-0.368,-0.932,0.185,5.96,-6.890000000000001,-47.93,0.5984,-0.7621,-0.0224,-0.2458,0.002,0.005,0.003,295.3,-0.004,0.002,-0.006,-0.121,-0.956,-0.232,25.72,-20.05,-77.60000000000001,-0.7854,0.6147,-0.0693,0.0172,-0.001,-0.007,-0.003,297.365,-0.007,-0.008,0.004,-0.194,-0.981,0.021,61.88,-14.84,-69.21000000000001,-0.3072,0.4323,0.5705,0.627,0.003,0.0,0.003,0.0,0.0,0.0,0.0,0.0,0.0,-0.0001916885375976,0.0001916885375976,0.0073261260986328,-0.0219783782958984,-0.0036630630493164,-0.0036630630493164,0.0,0.0,0.0,0.0
2025-11-06 18:37:23.998,309.16,0.046,-0.034,-0.008,-0.355,-0.938,0.192,5.8100000000000005,-7.92,-47.64,0.5978,-0.7627,-0.0224,-0.2454,-0.01,0.011,-0.001,295.3,-0.004,0.002,-0.006,-0.121,-0.956,-0.232,25.72,-20.05,-77.60000000000001,-0.7854,0.6147,-0.0693,0.0172,-0.001,-0.007,-0.003,297.365,-0.007,-0.008,0.004,-0.194,-0.981,0.021,61.88,-14.84,-69.21000000000001,-0.3072,0.4323,0.5705,0.627,0.003,0.0,0.003,0.0,0.0,0.0,0.0,0.0,0.0,-0.0001916885375976,0.0001916885375976,0.0073261260986328,-0.0219783782958984,-0.0036630630493164,-0.0036630630493164,0.0,0.0,0.0,0.0
2025-11-06 18:37:23.998,309.28,0.034,-0.043,0.019,-0.358,-0.929,0.199,5.43,-6.98,-48.28,0.596,-0.7648,-0.0206,-0.2434,-0.007,0.003,-0.002,295.3,-0.004,0.002,-0.006,-0.121,-0.956,-0.232,25.72,-20.05,-77.60000000000001,-0.7854,0.6147,-0.0693,0.0172,-0.001,-0.007,-0.003,297.365,-0.007,-0.008,0.004,-0.194,-0.981,0.021,61.88,-14.84,-69.21000000000001,-0.3072,0.4323,0.5705,0.627,0.003,0.0,0.003,0.0,0.0,0.0,0.0,0.0,0.0,-0.0001916885375976,0.0001916885375976,0.0073261260986328,-0.0219783782958984,-0.0036630630493164,-0.0036630630493164,0.0,0.0,0.0,0.0
2025-11-06 18:37:23.998,309.315,0.033,-0.049,0.02,-0.355,-0.93,0.205,5.96,-6.46,-47.38,0.5954,-0.7655000000000001,-0.0201,-0.2428,-0.01,0.005,-0.006,295.3,-0.004,0.002,-0.006,-0.121,-0.956,-0.232,25.72,-20.05,-77.60000000000001,-0.7854,0.6147,-0.0693,0.0172,-0.001,-0.007,-0.003,297.365,-0.007,-0.008,0.004,-0.194,-0.981,0.021,61.88,-14.84,-69.21000000000001,-0.3072,0.4323,0.5705,0.627,0.003,0.0,0.003,0.0,0.0,0.0,0.0,0.0,0.0,-0.0001916885375976,0.0001916885375976,0.0073261260986328,-0.0219783782958984,-0.0036630630493164,-0.0036630630493164,0.0,0.0,0.0,0.0
2025-11-06 18:37:23.998,309.31,0.039,-0.052,0.018,-0.354,-0.928,0.203,5.96,-6.46,-47.38,0.5955,-0.7654000000000001,-0.0202,-0.2429,-0.011,0.003,-0.004,295.3,-0.004,0.002,-0.006,-0.121,-0.956,-0.232,25.72,-20.05,-77.60000000000001,-0.7854,0.6147,-0.0693,0.0172,-0.001,-0.007,-0.003,297.365,-0.007,-0.008,0.004,-0.194,-0.981,0.021,61.88,-14.84,-69.21000000000001,-0.3072,0.4323,0.5705,0.627,0.003,0.0,0.003,0.0,0.0,0.0,0.0,0.0,0.0,-0.0001916885375976,0.0001916885375976,0.0073261260986328,-0.0219783782958984,-0.0036630630493164,-0.0036630630493164,0.0,0.0,0.0,0.0
2025-11-06 18:37:23.998,309.305,0.039,-0.047,0.018,-0.353,-0.927,0.204,6.1000000000000005,-8.120000000000001,-47.61,0.5956,-0.7653000000000001,-0.0203,-0.2429,-0.012,0.002,-0.005,295.3,-0.004,0.002,-0.006,-0.121,-0.956,-0.232,25.72,-20.05,-77.60000000000001,-0.7854,0.6147,-0.0693,0.0172,-0.001,-0.007,-0.003,297.365,-0.007,-0.008,0.004,-0.194,-0.981,0.021,61.88,-14.84,-69.21000000000001,-0.3072,0.4323,0.5705,0.627,0.003,0.0,0.003,0.0,0.0,0.0,0.0,0.0,0.0,-0.0001916885375976,0.0001916885375976,0.0073261260986328,-0.0219783782958984,-0.0036630630493164,-0.0036630630493164,0.0,0.0,0.0,0.0
2025-11-06 18:37:23.998,309.3,0.039,-0.046,0.016,-0.354,-0.927,0.203,6.1000000000000005,-8.120000000000001,-47.61,0.5957,-0.7652,-0.0204,-0.243,-0.011,0.002,-0.004,295.3,-0.004,0.002,-0.006,-0.121,-0.956,-0.232,25.72,-20.05,-77.60000000000001,-0.7854,0.6147,-0.0693,0.0172,-0.001,-0.007,-0.003,297.365,-0.007,-0.008,0.004,-0.194,-0.981,0.021,61.88,-14.84,-69.21000000000001,-0.3072,0.4323,0.5705,0.627,0.003,0.0,0.003,0.0,0.0,0.0,0.0,0.0,0.0,-0.0001916885375976,0.0001916885375976,0.0073261260986328,-0.0219783782958984,-0.0036630630493164,-0.0036630630493164,0.0,0.0,0.0,0.0
2025-11-06 18:37:23.998,309.285,0.034,-0.045,0.018,-0.357,-0.928,0.2,6.78,-6.86,-47.85,0.5959,-0.7649,-0.0206,-0.2433,-0.008,0.003,-0.002,295.3,-0.004,0.002,-0.006,-0.121,-0.956,-0.232,25.72,-20.05,-77.60000000000001,-0.7854,0.6147,-0.0693,0.0172,-0.001,-0.007,-0.003,297.365,-0.007,-0.008,0.004,-0.194,-0.981,0.021,61.88,-14.84,-69.21000000000001,-0.3072,0.4323,0.5705,0.627,0.003,0.0,0.003,0.0,0.0,0.0,0.0,0.0,0.0,-0.0001916885375976,0.0001916885375976,0.0073261260986328,-0.0219783782958984,-0.0036630630493164,-0.0036630630493164,0.0,0.0,0.0,0.0
2025-11-06 18:37:23.998,309.29,0.035,-0.046,0.016,-0.356,-0.928,0.201,6.78,-6.86,-47.85,0.5959,-0.765,-0.0205,-0.2432,-0.009,0.002,-0.003,295.3,-0.004,0.002,-0.006,-0.121,-0.956,-0.232,25.72,-20.05,-77.60000000000001,-0.7854,0.6147,-0.0693,0.0172,-0.001,-0.007,-0.003,297.365,-0.007,-0.008,0.004,-0.194,-0.981,0.021,61.88,-14.84,-69.21000000000001,-0.3072,0.4323,0.5705,0.627,0.003,0.0,0.003,0.0,0.0,0.0,0.0,0.0,0.0,-0.0001916885375976,0.0001916885375976,0.0073261260986328,-0.0219783782958984,-0.0036630630493164,-0.0036630630493164,0.0,0.0,0.0,0.0
2025-11-06 18:37:23.998,309.26,0.037,-0.037,0.023,-0.363,-0.928,0.196,5.72,-6.37,-47.64,0.5963,-0.7645000000000001,-0.021,-0.2436,-0.002,0.003,0.0,295.3,-0.004,0.002,-0.006,-0.121,-0.956,-0.232,25.72,-20.05,-77.60000000000001,-0.7854,0.6147,-0.0693,0.0172,-0.001,-0.007,-0.003,297.365,-0.007,-0.008,0.004,-0.194,-0.981,0.021,61.88,-14.84,-69.21000000000001,-0.3072,0.4323,0.5705,0.627,0.003,0.0,0.003,0.0,0.0,0.0,0.0,0.0,0.0,-0.0001916885375976,0.0001916885375976,0.0073261260986328,-0.0219783782958984,-0.0036630630493164,-0.0036630630493164,0.0,0.0,0.0,0.0
2025-11-06 18:37:23.998,309.275,0.033,-0.042,0.019,-0.36,-0.932,0.2,5.43,-6.98,-48.28,0.5961000000000001,-0.7647,-0.0207,-0.2435,-0.005,0.006,-0.003,295.3,-0.004,0.002,-0.006,-0.121,-0.956,-0.232,25.72,-20.05,-77.60000000000001,-0.7854,0.6147,-0.0693,0.0172,-0.001,-0.007,-0.003,297.365,-0.007,-0.008,0.004,-0.194,-0.981,0.021,61.88,-14.84,-69.21000000000001,-0.3072,0.4323,0.5705,0.627,0.003,0.0,0.003,0.0,0.0,0.0,0.0,0.0,0.0,-0.0001916885375976,0.0001916885375976,0.0073261260986328,-0.0219783782958984,-0.0036630630493164,-0.0036630630493164,0.0,0.0,0.0,0.0
2025-11-06 18:37:23.998,309.32,0.032,-0.049,0.021,-0.356,-0.93,0.203,5.96,-6.46,-47.38,0.5954,-0.7656000000000001,-0.02,-0.2427,-0.009,0.005,-0.004,295.3,-0.004,0.002,-0.006,-0.121,-0.956,-0.232,25.72,-20.05,-77.60000000000001,-0.7854,0.6147,-0.0693,0.0172,-0.001,-0.007,-0.003,297.365,-0.007,-0.008,0.004,-0.194,-0.981,0.021,61.88,-14.84,-69.21000000000001,-0.3072,0.4323,0.5705,0.627,0.003,0.0,0.003,0.0,0.0,0.0,0.0,0.0,0.0,-0.0001916885375976,0.0001916885375976,0.0073261260986328,-0.0219783782958984,-0.0036630630493164,-0.0036630630493164,0.0,0.0,0.0,0.0
2025-11-06 18:37:23.998,309.295,0.037,-0.046,0.016,-0.356,-0.927,0.203,6.78,-6.86,-47.85,0.5958,-0.7651,-0.0204,-0.2431,-0.009,0.002,-0.005,295.3,-0.004,0.002,-0.006,-0.121,-0.956,-0.232,25.72,-20.05,-77.60000000000001,-0.7854,0.6147,-0.0693,0.0172,-0.001,-0.007,-0.003,297.365,-0.007,-0.008,0.004,-0.194,-0.981,0.021,61.88,-14.84,-69.21000000000001,-0.3072,0.4323,0.5705,0.627,0.003,0.0,0.003,0.0,0.0,0.0,0.0,0.0,0.0,-0.0001916885375976,0.0001916885375976,0.0073261260986328,-0.0219783782958984,-0.0036630630493164,-0.0036630630493164,0.0,0.0,0.0,0.0
2025-11-06 18:37:23.998,309.36,0.043,-0.067,0.029,-0.357,-0.935,0.207,5.23,-6.28,-47.79,0.5947,-0.7663000000000001,-0.0191,-0.2419,-0.008,0.011,-0.005,295.3,-0.004,0.002,-0.006,-0.121,-0.956,-0.232,25.72,-20.05,-77.60000000000001,-0.7854,0.6147,-0.0693,0.0172,-0.001,-0.007,-0.003,297.365,-0.007,-0.008,0.004,-0.194,-0.981,0.021,61.88,-14.84,-69.21000000000001,-0.3072,0.4323,0.5705,0.627,0.003,0.0,0.003,0.0,0.0,0.0,0.0,0.0,0.0,-0.0001916885375976,0.0001916885375976,0.0073261260986328,-0.0219783782958984,-0.0036630630493164,-0.0036630630493164,0.0,0.0,0.0,0.0
2025-11-06 18:37:23.998,309.335,0.034,-0.058,0.026,-0.354,-0.937,0.201,5.93,-6.6000000000000005,-47.5,0.5952000000000001,-0.7658,-0.0197,-0.2424,-0.011,0.012,0.0,295.3,-0.004,0.002,-0.006,-0.121,-0.956,-0.232,25.72,-20.05,-77.60000000000001,-0.7854,0.6147,-0.0693,0.0172,-0.001,-0.007,-0.003,297.365,-0.007,-0.008,0.004,-0.194,-0.981,0.021,61.88,-14.84,-69.21000000000001,-0.3072,0.4323,0.5705,0.627,0.003,0.0,0.003,0.0,0.0,0.0,0.0,0.0,0.0,-0.0001916885375976,0.0001916885375976,0.0073261260986328,-0.0219783782958984,-0.0036630630493164,-0.0036630630493164,0.0,0.0,0.0,0.0
2025-11-06 18:37:23.998,309.325,0.032,-0.054,0.024,-0.355,-0.934,0.204,6.63,-6.69,-47.52,0.5953,-0.7656000000000001,-0.0199,-0.2426,-0.01,0.009,-0.004,295.3,-0.004,0.002,-0.006,-0.121,-0.956,-0.232,25.72,-20.05,-77.60000000000001,-0.7854,0.6147,-0.0693,0.0172,-0.001,-0.007,-0.003,297.365,-0.007,-0.008,0.004,-0.194,-0.981,0.021,61.88,-14.84,-69.21000000000001,-0.3072,0.4323,0.5705,0.627,0.003,0.0,0.003,0.0,0.0,0.0,0.0,0.0,0.0,-0.0001916885375976,0.0001916885375976,0.0073261260986328,-0.0219783782958984,-0.0036630630493164,-0.0036630630493164,0.0,0.0,0.0,0.0
2025-11-06 18:37:23.998,309.345,0.034,-0.066,0.029,-0.356,-0.937,0.201,5.93,-6.6000000000000005,-47.5,0.595,-0.766,-0.0195,-0.2422,-0.009,0.012,0.0,295.3,-0.004,0.002,-0.006,-0.121,-0.956,-0.232,25.72,-20.05,-77.60000000000001,-0.7854,0.6147,-0.0693,0.0172,-0.001,-0.007,-0.003,297.365,-0.007,-0.008,0.004,-0.194,-0.981,0.021,61.88,-14.84,-69.21000000000001,-0.3072,0.4323,0.5705,0.627,0.003,0.0,0.003,0.0,0.0,0.0,0.0,0.0,0.0,-0.0001916885375976,0.0001916885375976,0.0073261260986328,-0.0219783782958984,-0.0036630630493164,-0.0036630630493164,0.0,0.0,0.0,0.0
2025-11-06 18:37:23.998,309.265,0.036,-0.045,0.024,-0.363,-0.93,0.197,5.72,-6.37,-47.64,0.5962000000000001,-0.7646000000000001,-0.0209,-0.2436,-0.002,0.004,0.0,295.3,-0.004,0.002,-0.006,-0.121,-0.956,-0.232,25.72,-20.05,-77.60000000000001,-0.7854,0.6147,-0.0693,0.0172,-0.001,-0.007,-0.003,297.365,-0.007,-0.008,0.004,-0.194,-0.981,0.021,61.88,-14.84,-69.21000000000001,-0.3072,0.4323,0.5705,0.627,0.003,0.0,0.003,0.0,0.0,0.0,0.0,0.0,0.0,-0.0001916885375976,0.0001916885375976,0.0073261260986328,-0.0219783782958984,-0.0036630630493164,-0.0036630630493164,0.0,0.0,0.0,0.0
2025-11-06 18:37:23.998,309.33,0.032,-0.056,0.024,-0.354,-0.936,0.202,6.63,-6.69,-47.52,0.5952000000000001,-0.7657,-0.0198,-0.2425,-0.011,0.011,-0.002,295.3,-0.004,0.002,-0.006,-0.121,-0.956,-0.232,25.72,-20.05,-77.60000000000001,-0.7854,0.6147,-0.0693,0.0172,-0.001,-0.007,-0.003,297.365,-0.007,-0.008,0.004,-0.194,-0.981,0.021,61.88,-14.84,-69.21000000000001,-0.3072,0.4323,0.5705,0.627,0.003,0.0,0.003,0.0,0.0,0.0,0.0,0.0,0.0,-0.0001916885375976,0.0001916885375976,0.0073261260986328,-0.0219783782958984,-0.0036630630493164,-0.0036630630493164,0.0,0.0,0.0,0.0
2025-11-06 18:37:23.998,309.385,0.053,-0.074,0.025,-0.359,-0.926,0.21,6.34,-7.65,-47.82,0.5942000000000001,-0.7669,-0.0185,-0.2414,-0.007,0.002,-0.006,295.3,-0.004,0.002,-0.006,-0.121,-0.956,-0.232,25.72,-20.05,-77.60000000000001,-0.7854,0.6147,-0.0693,0.0172,-0.001,-0.007,-0.003,297.365,-0.007,-0.008,0.004,-0.194,-0.981,0.021,61.88,-14.84,-69.21000000000001,-0.3072,0.4323,0.5705,0.627,0.003,0.0,0.003,0.0,0.0,0.0,0.0,0.0,0.0,-0.0001916885375976,0.0001916885375976,0.0073261260986328,-0.0219783782958984,-0.0036630630493164,-0.0036630630493164,0.0,0.0,0.0,0.0
2025-11-06 18:37:23.998,309.34,0.032,-0.066,0.028,-0.355,-0.937,0.202,5.93,-6.6000000000000005,-47.5,0.5951000000000001,-0.7659,-0.0196,-0.2423,-0.01,0.012,-0.001,295.3,-0.004,0.002,-0.006,-0.121,-0.956,-0.232,25.72,-20.05,-77.60000000000001,-0.7854,0.6147,-0.0693,0.0172,-0.001,-0.007,-0.003,297.365,-0.007,-0.008,0.004,-0.194,-0.981,0.021,61.88,-14.84,-69.21000000000001,-0.3072,0.4323,0.5705,0.627,0.003,0.0,0.003,0.0,0.0,0.0,0.0,0.0,0.0,-0.0001916885375976,0.0001916885375976,0.0073261260986328,-0.0219783782958984,-0.0036630630493164,-0.0036630630493164,0.0,0.0,0.0,0.0
2025-11-06 18:37:23.998,309.375,0.048,-0.07,0.027,-0.357,-0.93,0.208,6.13,-6.66,-48.02,0.5944,-0.7667,-0.0187,-0.2416,-0.009,0.006,-0.006,295.3,-0.004,0.002,-0.006,-0.121,-0.956,-0.232,25.72,-20.05,-77.60000000000001,-0.7854,0.6147,-0.0693,0.0172,-0.001,-0.007,-0.003,297.365,-0.007,-0.008,0.004,-0.194,-0.981,0.021,61.88,-14.84,-69.21000000000001,-0.3072,0.4323,0.5705,0.627,0.003,0.0,0.003,0.0,0.0,0.0,0.0,0.0,0.0,-0.0001916885375976,0.0001916885375976,0.0073261260986328,-0.0219783782958984,-0.0036630630493164,-0.0036630630493164,0.0,0.0,0.0,0.0
2025-11-06 18:37:23.998,309.38,0.05,-0.072,0.026,-0.358,-0.929,0.21,6.13,-6.66,-48.02,0.5943,-0.7668,-0.0186,-0.2415,-0.007,0.005,-0.007,295.3,-0.004,0.002,-0.006,-0.121,-0.956,-0.232,25.72,-20.05,-77.60000000000001,-0.7854,0.6147,-0.0693,0.0172,-0.001,-0.007,-0.003,297.365,-0.007,-0.008,0.004,-0.194,-0.981,0.021,61.88,-14.84,-69.21000000000001,-0.3072,0.4323,0.5705,0.627,0.003,0.0,0.003,0.0,0.0,0.0,0.0,0.0,0.0,-0.0001916885375976,0.0001916885375976,0.0073261260986328,-0.0219783782958984,-0.0036630630493164,-0.0036630630493164,0.0,0.0,0.0,0.0
2025-11-06 18:37:23.998,309.365,0.042,-0.07,0.03,-0.357,-0.933,0.208,5.23,-6.28,-47.79,0.5946,-0.7664000000000001,-0.019,-0.2418,-0.008,0.009,-0.006,295.3,-0.004,0.002,-0.006,-0.121,-0.956,-0.232,25.72,-20.05,-77.60000000000001,-0.7854,0.6147,-0.0693,0.0172,-0.001,-0.007,-0.003,297.365,-0.007,-0.008,0.004,-0.194,-0.981,0.021,61.88,-14.84,-69.21000000000001,-0.3072,0.4323,0.5705,0.627,0.003,0.0,0.003,0.0,0.0,0.0,0.0,0.0,0.0,-0.0001916885375976,0.0001916885375976,0.0073261260986328,-0.0219783782958984,-0.0036630630493164,-0.0036630630493164,0.0,0.0,0.0,0.0
2025-11-06 18:37:23.998,309.27,0.034,-0.045,0.023,-0.36,-0.93,0.198,5.72,-6.37,-47.64,0.5962000000000001,-0.7647,-0.0208,-0.2435,-0.004,0.005,-0.001,295.3,-0.004,0.002,-0.006,-0.121,-0.956,-0.232,25.72,-20.05,-77.60000000000001,-0.7854,0.6147,-0.0693,0.0172,-0.001,-0.007,-0.003,297.365,-0.007,-0.008,0.004,-0.194,-0.981,0.021,61.88,-14.84,-69.21000000000001,-0.3072,0.4323,0.5705,0.627,0.003,0.0,0.003,0.0,0.0,0.0,0.0,0.0,0.0,-0.0001916885375976,0.0001916885375976,0.0073261260986328,-0.0219783782958984,-0.0036630630493164,-0.0036630630493164,0.0,0.0,0.0,0.0
2025-11-06 18:37:23.998,309.355,0.039,-0.069,0.027,-0.355,-0.936,0.205,5.49,-6.8100000000000005,-47.17,0.5948,-0.7662,-0.0192,-0.242,-0.01,0.012,-0.004,295.3,-0.004,0.002,-0.006,-0.121,-0.956,-0.232,25.72,-20.05,-77.60000000000001,-0.7854,0.6147,-0.0693,0.0172,-0.001,-0.007,-0.003,297.365,-0.007,-0.008,0.004,-0.194,-0.981,0.021,61.88,-14.84,-69.21000000000001,-0.3072,0.4323,0.5705,0.627,0.003,0.0,0.003,0.0,0.0,0.0,0.0,0.0,0.0,-0.0001916885375976,0.0001916885375976,0.0073261260986328,-0.0219783782958984,-0.0036630630493164,-0.0036630630493164,0.0,0.0,0.0,0.0
2025-11-06 18:37:23.998,309.35,0.039,-0.066,0.027,-0.356,-0.938,0.204,5.49,-6.8100000000000005,-47.17,0.5949,-0.7661,-0.0194,-0.2421,-0.009,0.013,-0.002,295.3,-0.004,0.002,-0.006,-0.121,-0.956,-0.232,25.72,-20.05,-77.60000000000001,-0.7854,0.6147,-0.0693,0.0172,-0.001,-0.007,-0.003,297.365,-0.007,-0.008,0.004,-0.194,-0.981,0.021,61.88,-14.84,-69.21000000000001,-0.3072,0.4323,0.5705,0.627,0.003,0.0,0.003,0.0,0.0,0.0,0.0,0.0,0.0,-0.0001916885375976,0.0001916885375976,0.0073261260986328,-0.0219783782958984,-0.0036630630493164,-0.0036630630493164,0.0,0.0,0.0,0.0
2025-11-06 18:37:23.998,309.37,0.045,-0.07,0.028,-0.357,-0.933,0.208,5.23,-6.28,-47.79,0.5945,-0.7665000000000001,-0.0188,-0.2417,-0.008,0.009,-0.006,295.3,-0.004,0.002,-0.006,-0.121,-0.956,-0.232,25.72,-20.05,-77.60000000000001,-0.7854,0.6147,-0.0693,0.0172,-0.001,-0.007,-0.003,297.365,-0.007,-0.008,0.004,-0.194,-0.981,0.021,61.88,-14.84,-69.21000000000001,-0.3072,0.4323,0.5705,0.627,0.003,0.0,0.003,0.0,0.0,0.0,0.0,0.0,0.0,-0.0001916885375976,0.0001916885375976,0.0073261260986328,-0.0219783782958984,-0.0036630630493164,-0.0036630630493164,0.0,0.0,0.0,0.0
2025-11-06 18:37:23.999,309.42,0.058,-0.06,0.03,-0.363,-0.918,0.215,6.0200000000000005,-6.8100000000000005,-47.67,0.5933,-0.7679,-0.0176,-0.2406,-0.003,-0.004,-0.009,295.3,-0.004,0.002,-0.006,-0.121,-0.956,-0.232,25.72,-20.05,-77.60000000000001,-0.7854,0.6147,-0.0693,0.0172,-0.001,-0.007,-0.003,297.365,-0.007,-0.008,0.004,-0.194,-0.981,0.021,61.88,-14.84,-69.21000000000001,-0.3072,0.4323,0.5705,0.627,0.003,0.0,0.003,0.0,0.0,0.0,0.0,0.0,0.0,-0.0001916885375976,0.0001916885375976,0.0073261260986328,-0.0219783782958984,-0.0036630630493164,-0.0036630630493164,0.0,0.0,0.0,0.0
2025-11-06 18:37:23.999,309.39,0.053,-0.069,0.026,-0.36,-0.924,0.209,6.34,-7.65,-47.82,0.5941000000000001,-0.767,-0.0184,-0.2413,-0.006,0.0,-0.005,295.3,-0.004,0.002,-0.006,-0.121,-0.956,-0.232,25.72,-20.05,-77.60000000000001,-0.7854,0.6147,-0.0693,0.0172,-0.001,-0.007,-0.003,297.365,-0.007,-0.008,0.004,-0.194,-0.981,0.021,61.88,-14.84,-69.21000000000001,-0.3072,0.4323,0.5705,0.627,0.003,0.0,0.003,0.0,0.0,0.0,0.0,0.0,0.0,-0.0001916885375976,0.0001916885375976,0.0073261260986328,-0.0219783782958984,-0.0036630630493164,-0.0036630630493164,0.0,0.0,0.0,0.0
2025-11-06 18:37:23.999,309.395,0.056,-0.071,0.028,-0.362,-0.923,0.206,6.34,-7.65,-47.82,0.5940000000000001,-0.7672,-0.0182,-0.2411,-0.003,0.0,-0.002,295.3,-0.004,0.002,-0.006,-0.121,-0.956,-0.232,25.72,-20.05,-77.60000000000001,-0.7854,0.6147,-0.0693,0.0172,-0.001,-0.007,-0.003,297.365,-0.007,-0.008,0.004,-0.194,-0.981,0.021,61.88,-14.84,-69.21000000000001,-0.3072,0.4323,0.5705,0.627,0.003,0.0,0.003,0.0,0.0,0.0,0.0,0.0,0.0,-0.0001916885375976,0.0001916885375976,0.0073261260986328,-0.0219783782958984,-0.0036630630493164,-0.0036630630493164,0.0,0.0,0.0,0.0
2025-11-06 18:37:23.999,309.405,0.055,-0.075,0.028,-0.363,-0.919,0.209,5.5200000000000005,-7.65,-47.82,0.5937,-0.7674000000000001,-0.018,-0.2409,-0.003,-0.003,-0.004,295.3,-0.004,0.002,-0.006,-0.121,-0.956,-0.232,25.72,-20.05,-77.60000000000001,-0.7854,0.6147,-0.0693,0.0172,-0.001,-0.007,-0.003,297.365,-0.007,-0.008,0.004,-0.194,-0.981,0.021,61.88,-14.84,-69.21000000000001,-0.3072,0.4323,0.5705,0.627,0.003,0.0,0.003,0.0,0.0,0.0,0.0,0.0,0.0,-0.0001916885375976,0.0001916885375976,0.0073261260986328,-0.0219783782958984,-0.0036630630493164,-0.0036630630493164,0.0,0.0,0.0,0.0
2025-11-06 18:37:23.999,309.415,0.057,-0.068,0.029,-0.363,-0.918,0.213,6.0200000000000005,-6.8100000000000005,-47.67,0.5934,-0.7677,-0.0177,-0.2407,-0.003,-0.004,-0.007,295.3,-0.004,0.002,-0.006,-0.121,-0.956,-0.232,25.72,-20.05,-77.60000000000001,-0.7854,0.6147,-0.0693,0.0172,-0.001,-0.007,-0.003,297.365,-0.007,-0.008,0.004,-0.194,-0.981,0.021,61.88,-14.84,-69.21000000000001,-0.3072,0.4323,0.5705,0.627,0.003,0.0,0.003,0.0,0.0,0.0,0.0,0.0,0.0,-0.0001916885375976,0.0001916885375976,0.0073261260986328,-0.0219783782958984,-0.0036630630493164,-0.0036630630493164,0.0,0.0,0.0,0.0
2025-11-06 18:37:23.999,309.4,0.054,-0.073,0.028,-0.362,-0.921,0.208,5.5200000000000005,-7.65,-47.82,0.5938,-0.7673,-0.0181,-0.241,-0.004,-0.002,-0.003,295.3,-0.004,0.002,-0.006,-0.121,-0.956,-0.232,25.72,-20.05,-77.60000000000001,-0.7854,0.6147,-0.0693,0.0172,-0.001,-0.007,-0.003,297.365,-0.007,-0.008,0.004,-0.194,-0.981,0.021,61.88,-14.84,-69.21000000000001,-0.3072,0.4323,0.5705,0.627,0.003,0.0,0.003,0.0,0.0,0.0,0.0,0.0,0.0,-0.0001916885375976,0.0001916885375976,0.0073261260986328,-0.0219783782958984,-0.0036630630493164,-0.0036630630493164,0.0,0.0,0.0,0.0
2025-11-06 18:37:23.999,309.46,0.059,-0.025,0.023,-0.365,-0.913,0.226,5.87,-7.16,-48.31,0.5921000000000001,-0.7689,-0.0171,-0.2403,-0.001,-0.007,-0.017,295.3,-0.004,0.002,-0.006,-0.121,-0.956,-0.232,25.72,-20.05,-77.60000000000001,-0.7854,0.6147,-0.0693,0.0172,-0.001,-0.007,-0.003,297.365,-0.007,-0.008,0.004,-0.194,-0.981,0.021,61.88,-14.84,-69.21000000000001,-0.3072,0.4323,0.5705,0.627,0.003,0.0,0.003,0.0,0.0,0.0,0.0,0.0,0.0,-0.0001916885375976,0.0001916885375976,0.0073261260986328,-0.0219783782958984,-0.0036630630493164,-0.0036630630493164,0.0,0.0,0.0,0.0
2025-11-06 18:37:23.999,309.435,0.064,-0.039,0.029,-0.364,-0.917,0.221,5.08,-8.33,-48.4,0.5929,-0.7683,-0.0174,-0.2404,-0.002,-0.005,-0.014,295.3,-0.004,0.002,-0.006,-0.121,-0.956,-0.232,25.72,-20.05,-77.60000000000001,-0.7854,0.6147,-0.0693,0.0172,-0.001,-0.007,-0.003,297.365,-0.007,-0.008,0.004,-0.194,-0.981,0.021,61.88,-14.84,-69.21000000000001,-0.3072,0.4323,0.5705,0.627,0.003,0.0,0.003,0.0,0.0,0.0,0.0,0.0,0.0,-0.0001916885375976,0.0001916885375976,0.0073261260986328,-0.0219783782958984,-0.0036630630493164,-0.0036630630493164,0.0,0.0,0.0,0.0
2025-11-06 18:37:23.999,309.44,0.064,-0.036,0.027,-0.366,-0.917,0.222,5.08,-8.33,-48.4,0.5927,-0.7684000000000001,-0.0173,-0.2404,-0.001,-0.004,-0.014,295.3,-0.004,0.002,-0.006,-0.121,-0.956,-0.232,25.72,-20.05,-77.60000000000001,-0.7854,0.6147,-0.0693,0.0172,-0.001,-0.007,-0.003,297.365,-0.007,-0.008,0.004,-0.194,-0.981,0.021,61.88,-14.84,-69.21000000000001,-0.3072,0.4323,0.5705,0.627,0.003,0.0,0.003,0.0,0.0,0.0,0.0,0.0,0.0,-0.0001916885375976,0.0001916885375976,0.0073261260986328,-0.0219783782958984,-0.0036630630493164,-0.0036630630493164,0.0,0.0,0.0,0.0
2025-11-06 18:37:23.999,309.445,0.063,-0.034,0.028,-0.366,-0.917,0.223,5.08,-8.33,-48.4,0.5926,-0.7685000000000001,-0.0172,-0.2404,-0.001,-0.005,-0.015,295.3,-0.004,0.002,-0.006,-0.121,-0.956,-0.232,25.72,-20.05,-77.60000000000001,-0.7854,0.6147,-0.0693,0.0172,-0.001,-0.007,-0.003,297.365,-0.007,-0.008,0.004,-0.194,-0.981,0.021,61.88,-14.84,-69.21000000000001,-0.3072,0.4323,0.5705,0.627,0.003,0.0,0.003,0.0,0.0,0.0,0.0,0.0,0.0,-0.0001916885375976,0.0001916885375976,0.0073261260986328,-0.0219783782958984,-0.0036630630493164,-0.0036630630493164,0.0,0.0,0.0,0.0
2025-11-06 18:37:23.999,309.45,0.062,-0.023,0.026,-0.367,-0.916,0.224,5.4,-6.78,-47.96,0.5924,-0.7687,-0.0172,-0.2403,0.0,-0.006,-0.016,295.3,-0.004,0.002,-0.006,-0.121,-0.956,-0.232,25.72,-20.05,-77.60000000000001,-0.7854,0.6147,-0.0693,0.0172,-0.001,-0.007,-0.003,297.365,-0.007,-0.008,0.004,-0.194,-0.981,0.021,61.88,-14.84,-69.21000000000001,-0.3072,0.4323,0.5705,0.627,0.003,0.0,0.003,0.0,0.0,0.0,0.0,0.0,0.0,-0.0001916885375976,0.0001916885375976,0.0073261260986328,-0.0219783782958984,-0.0036630630493164,-0.0036630630493164,0.0,0.0,0.0,0.0
2025-11-06 18:37:23.999,309.425,0.058,-0.057,0.029,-0.364,-0.918,0.218,5.58,-7.33,-47.76,0.5932000000000001,-0.768,-0.0175,-0.2406,-0.002,-0.003,-0.011,295.3,-0.004,0.002,-0.006,-0.121,-0.956,-0.232,25.72,-20.05,-77.60000000000001,-0.7854,0.6147,-0.0693,0.0172,-0.001,-0.007,-0.003,297.365,-0.007,-0.008,0.004,-0.194,-0.981,0.021,61.88,-14.84,-69.21000000000001,-0.3072,0.4323,0.5705,0.627,0.003,0.0,0.003,0.0,0.0,0.0,0.0,0.0,0.0,-0.0001916885375976,0.0001916885375976,0.0073261260986328,-0.0219783782958984,-0.0036630630493164,-0.0036630630493164,0.0,0.0,0.0,0.0
2025-11-06 18:37:23.999,309.43,0.061,-0.053,0.028,-0.363,-0.918,0.218,5.58,-7.33,-47.76,0.5930000000000001,-0.7681,-0.0174,-0.2405,-0.003,-0.004,-0.011,295.3,-0.004,0.002,-0.006,-0.121,-0.956,-0.232,25.72,-20.05,-77.60000000000001,-0.7854,0.6147,-0.0693,0.0172,-0.001,-0.007,-0.003,297.365,-0.007,-0.008,0.004,-0.194,-0.981,0.021,61.88,-14.84,-69.21000000000001,-0.3072,0.4323,0.5705,0.627,0.003,0.0,0.003,0.0,0.0,0.0,0.0,0.0,0.0,-0.0001916885375976,0.0001916885375976,0.0073261260986328,-0.0219783782958984,-0.0036630630493164,-0.0036630630493164,0.0,0.0,0.0,0.0
2025-11-06 18:37:23.999,309.455,0.061,-0.024,0.023,-0.366,-0.915,0.226,5.4,-6.78,-47.96,0.5922000000000001,-0.7688,-0.0171,-0.2403,-0.001,-0.006,-0.017,295.3,-0.004,0.002,-0.006,-0.121,-0.956,-0.232,25.72,-20.05,-77.60000000000001,-0.7854,0.6147,-0.0693,0.0172,-0.001,-0.007,-0.003,297.365,-0.007,-0.008,0.004,-0.194,-0.981,0.021,61.88,-14.84,-69.21000000000001,-0.3072,0.4323,0.5705,0.627,0.003,0.0,0.003,0.0,0.0,0.0,0.0,0.0,0.0,-0.0001916885375976,0.0001916885375976,0.0073261260986328,-0.0219783782958984,-0.0036630630493164,-0.0036630630493164,0.0,0.0,0.0,0.0
2025-11-06 18:37:23.999,309.41,0.056,-0.071,0.027,-0.362,-0.92,0.21,6.0200000000000005,-6.8100000000000005,-47.67,0.5936,-0.7676000000000001,-0.0179,-0.2408,-0.004,-0.002,-0.005,295.3,-0.004,0.002,-0.006,-0.121,-0.956,-0.232,25.72,-20.05,-77.60000000000001,-0.7854,0.6147,-0.0693,0.0172,-0.001,-0.007,-0.003,297.365,-0.007,-0.008,0.004,-0.194,-0.981,0.021,61.88,-14.84,-69.21000000000001,-0.3072,0.4323,0.5705,0.627,0.003,0.0,0.003,0.0,0.0,0.0,0.0,0.0,0.0,-0.0001916885375976,0.0001916885375976,0.0073261260986328,-0.0219783782958984,-0.0036630630493164,-0.0036630630493164,0.0,0.0,0.0,0.0
2025-11-06 18:37:23.999,309.465,0.059,-0.021,0.021,-0.365,-0.913,0.227,5.87,-7.16,-48.31,0.5920000000000001,-0.769,-0.017,-0.2403,-0.002,-0.007,-0.017,295.3,-0.004,0.002,-0.006,-0.121,-0.956,-0.232,25.72,-20.05,-77.60000000000001,-0.7854,0.6147,-0.0693,0.0172,-0.001,-0.007,-0.003,297.365,-0.007,-0.008,0.004,-0.194,-0.981,0.021,61.88,-14.84,-69.21000000000001,-0.3072,0.4323,0.5705,0.627,0.003,0.0,0.003,0.0,0.0,0.0,0.0,0.0,0.0,-0.0001916885375976,0.0001916885375976,0.0073261260986328,-0.0219783782958984,-0.0036630630493164,-0.0036630630493164,0.0,0.0,0.0,0.0
2025-11-06 18:37:23.999,309.49,0.067,-0.036,0.024,-0.357,-0.918,0.222,6.4,-7.48,-47.9,0.5912000000000001,-0.7697,-0.0168,-0.24,-0.01,-0.002,-0.01,295.3,-0.004,0.002,-0.006,-0.121,-0.956,-0.232,25.72,-20.05,-77.60000000000001,-0.7854,0.6147,-0.0693,0.0172,-0.001,-0.007,-0.003,297.365,-0.007,-0.008,0.004,-0.194,-0.981,0.021,61.88,-14.84,-69.21000000000001,-0.3072,0.4323,0.5705,0.627,0.003,0.0,0.003,0.0,0.0,0.0,0.0,0.0,0.0,-0.0001916885375976,0.0001916885375976,0.0073261260986328,-0.0219783782958984,-0.0036630630493164,-0.0036630630493164,0.0,0.0,0.0,0.0
2025-11-06 18:37:23.999,309.5,0.067,-0.033,0.032,-0.355,-0.918,0.221,5.17,-6.890000000000001,-47.85,0.5909,-0.7699,-0.0166,-0.24,-0.012,-0.002,-0.008,295.3,-0.004,0.002,-0.006,-0.121,-0.956,-0.232,25.72,-20.05,-77.60000000000001,-0.7854,0.6147,-0.0693,0.0172,-0.001,-0.007,-0.003,297.365,-0.007,-0.008,0.004,-0.194,-0.981,0.021,61.88,-14.84,-69.21000000000001,-0.3072,0.4323,0.5705,0.627,0.003,0.0,0.003,0.0,0.0,0.0,0.0,0.0,0.0,-0.0001916885375976,0.0001916885375976,0.0073261260986328,-0.0219783782958984,-0.0036630630493164,-0.0036630630493164,0.0,0.0,0.0,0.0
2025-11-06 18:37:23.999,309.475,0.058,-0.031,0.021,-0.362,-0.915,0.221,5.64,-6.6000000000000005,-47.99,0.5917,-0.7693,-0.0169,-0.2402,-0.005,-0.006,-0.011,295.3,-0.004,0.002,-0.006,-0.121,-0.956,-0.232,25.72,-20.05,-77.60000000000001,-0.7854,0.6147,-0.0693,0.0172,-0.001,-0.007,-0.003,297.365,-0.007,-0.008,0.004,-0.194,-0.981,0.021,61.88,-14.84,-69.21000000000001,-0.3072,0.4323,0.5705,0.627,0.003,0.0,0.003,0.0,0.0,0.0,0.0,0.0,0.0,-0.0001916885375976,0.0001916885375976,0.0073261260986328,-0.0219783782958984,-0.0036630630493164,-0.0036630630493164,0.0,0.0,0.0,0.0
2025-11-06 18:37:23.999,309.485,0.064,-0.042,0.023,-0.36,-0.917,0.22,6.4,-7.48,-47.9,0.5914,-0.7695000000000001,-0.0168,-0.2401,-0.007,-0.004,-0.009,295.3,-0.004,0.002,-0.006,-0.121,-0.956,-0.232,25.72,-20.05,-77.60000000000001,-0.7854,0.6147,-0.0693,0.0172,-0.001,-0.007,-0.003,297.365,-0.007,-0.008,0.004,-0.194,-0.981,0.021,61.88,-14.84,-69.21000000000001,-0.3072,0.4323,0.5705,0.627,0.003,0.0,0.003,0.0,0.0,0.0,0.0,0.0,0.0,-0.0001916885375976,0.0001916885375976,0.0073261260986328,-0.0219783782958984,-0.0036630630493164,-0.0036630630493164,0.0,0.0,0.0,0.0
2025-11-06 18:37:23.999,309.495,0.067,-0.038,0.03,-0.356,-0.918,0.221,6.4,-7.48,-47.9,0.5911000000000001,-0.7698,-0.0167,-0.24,-0.011,-0.003,-0.009,295.3,-0.004,0.002,-0.006,-0.121,-0.956,-0.232,25.72,-20.05,-77.60000000000001,-0.7854,0.6147,-0.0693,0.0172,-0.001,-0.007,-0.003,297.365,-0.007,-0.008,0.004,-0.194,-0.981,0.021,61.88,-14.84,-69.21000000000001,-0.3072,0.4323,0.5705,0.627,0.003,0.0,0.003,0.0,0.0,0.0,0.0,0.0,0.0,-0.0001916885375976,0.0001916885375976,0.0073261260986328,-0.0219783782958984,-0.0036630630493164,-0.0036630630493164,0.0,0.0,0.0,0.0
2025-11-06 18:37:23.999,309.505,0.067,-0.029,0.035,-0.355,-0.916,0.222,5.17,-6.890000000000001,-47.85,0.5908,-0.7701,-0.0166,-0.2399,-0.012,-0.004,-0.009,295.3,-0.004,0.002,-0.006,-0.121,-0.956,-0.232,25.72,-20.05,-77.60000000000001,-0.7854,0.6147,-0.0693,0.0172,-0.001,-0.007,-0.003,297.365,-0.007,-0.008,0.004,-0.194,-0.981,0.021,61.88,-14.84,-69.21000000000001,-0.3072,0.4323,0.5705,0.627,0.003,0.0,0.003,0.0,0.0,0.0,0.0,0.0,0.0,-0.0001916885375976,0.0001916885375976,0.0073261260986328,-0.0219783782958984,-0.0036630630493164,-0.0036630630493164,0.0,0.0,0.0,0.0
2025-11-06 18:37:23.999,309.47,0.06,-0.027,0.02,-0.363,-0.914,0.225,5.87,-7.16,-48.31,0.5918,-0.7692,-0.017,-0.2402,-0.004,-0.007,-0.015,295.3,-0.004,0.002,-0.006,-0.121,-0.956,-0.232,25.72,-20.05,-77.60000000000001,-0.7854,0.6147,-0.0693,0.0172,-0.001,-0.007,-0.003,297.365,-0.007,-0.008,0.004,-0.194,-0.981,0.021,61.88,-14.84,-69.21000000000001,-0.3072,0.4323,0.5705,0.627,0.003,0.0,0.003,0.0,0.0,0.0,0.0,0.0,0.0,-0.0001916885375976,0.0001916885375976,0.0073261260986328,-0.0219783782958984,-0.0036630630493164,-0.0036630630493164,0.0,0.0,0.0,0.0
2025-11-06 18:37:23.999,309.48,0.059,-0.032,0.021,-0.361,-0.915,0.221,5.64,-6.6000000000000005,-47.99,0.5915,-0.7694000000000001,-0.0169,-0.2402,-0.006,-0.006,-0.011,295.3,-0.004,0.002,-0.006,-0.121,-0.956,-0.232,25.72,-20.05,-77.60000000000001,-0.7854,0.6147,-0.0693,0.0172,-0.001,-0.007,-0.003,297.365,-0.007,-0.008,0.004,-0.194,-0.981,0.021,61.88,-14.84,-69.21000000000001,-0.3072,0.4323,0.5705,0.627,0.003,0.0,0.003,0.0,0.0,0.0,0.0,0.0,0.0,-0.0001916885375976,0.0001916885375976,0.0073261260986328,-0.0219783782958984,-0.0036630630493164,-0.0036630630493164,0.0,0.0,0.0,0.0
2025-11-06 18:37:23.999,309.52,0.066,-0.017,0.046,-0.356,-0.913,0.218,5.5200000000000005,-7.8,-47.09,0.5903,-0.7704000000000001,-0.0164,-0.24,-0.012,-0.007,-0.005,295.3,-0.004,0.002,-0.006,-0.121,-0.956,-0.232,25.72,-20.05,-77.60000000000001,-0.7854,0.6147,-0.0693,0.0172,-0.001,-0.007,-0.003,297.365,-0.007,-0.008,0.004,-0.194,-0.981,0.021,61.88,-14.84,-69.21000000000001,-0.3072,0.4323,0.5705,0.627,0.003,0.0,0.003,0.0,0.0,0.0,0.0,0.0,0.0,-0.0001916885375976,0.0001916885375976,0.0073261260986328,-0.0219783782958984,-0.0036630630493164,-0.0036630630493164,0.0,0.0,0.0,0.0
2025-11-06 18:37:23.999,309.525,0.066,-0.011,0.049,-0.357,-0.909,0.218,5.32,-6.98,-46.97,0.5901000000000001,-0.7705000000000001,-0.0163,-0.24,-0.011,-0.01,-0.003,295.3,-0.004,0.002,-0.006,-0.121,-0.956,-0.232,25.72,-20.05,-77.60000000000001,-0.7854,0.6147,-0.0693,0.0172,-0.001,-0.007,-0.003,297.365,-0.007,-0.008,0.004,-0.194,-0.981,0.021,61.88,-14.84,-69.21000000000001,-0.3072,0.4323,0.5705,0.627,0.003,0.0,0.003,0.0,0.0,0.0,0.0,0.0,0.0,-0.0001916885375976,0.0001916885375976,0.0073261260986328,-0.0219783782958984,-0.0036630630493164,-0.0036630630493164,0.0,0.0,0.0,0.0
2025-11-06 18:37:23.999,309.53,0.066,-0.01,0.055,-0.359,-0.909,0.215,5.32,-6.98,-46.97,0.5900000000000001,-0.7706000000000001,-0.0162,-0.2401,-0.009,-0.011,0.0,295.3,-0.004,0.002,-0.006,-0.121,-0.956,-0.232,25.72,-20.05,-77.60000000000001,-0.7854,0.6147,-0.0693,0.0172,-0.001,-0.007,-0.003,297.365,-0.007,-0.008,0.004,-0.194,-0.981,0.021,61.88,-14.84,-69.21000000000001,-0.3072,0.4323,0.5705,0.627,0.003,0.0,0.003,0.0,0.0,0.0,0.0,0.0,0.0,-0.0001916885375976,0.0001916885375976,0.0073261260986328,-0.0219783782958984,-0.0036630630493164,-0.0036630630493164,0.0,0.0,0.0,0.0
2025-11-06 18:37:23.999,309.535,0.071,-0.008,0.057,-0.361,-0.91,0.212,5.32,-6.98,-46.97,0.5898,-0.7708,-0.0161,-0.2401,-0.008,-0.009,0.001,295.3,-0.004,0.002,-0.006,-0.121,-0.956,-0.232,25.72,-20.05,-77.60000000000001,-0.7854,0.6147,-0.0693,0.0172,-0.001,-0.007,-0.003,297.365,-0.007,-0.008,0.004,-0.194,-0.981,0.021,61.88,-14.84,-69.21000000000001,-0.3072,0.4323,0.5705,0.627,0.003,0.0,0.003,0.0,0.0,0.0,0.0,0.0,0.0,-0.0001916885375976,0.0001916885375976,0.0073261260986328,-0.0219783782958984,-0.0036630630493164,-0.0036630630493164,0.0,0.0,0.0,0.0
2025-11-06 18:37:23.999,309.51,0.067,-0.019,0.038,-0.355,-0.915,0.222,5.5200000000000005,-6.890000000000001,-47.09,0.5906,-0.7702,-0.0165,-0.2399,-0.013,-0.005,-0.009,295.3,-0.004,0.002,-0.006,-0.121,-0.956,-0.232,25.72,-20.05,-77.60000000000001,-0.7854,0.6147,-0.0693,0.0172,-0.001,-0.007,-0.003,297.365,-0.007,-0.008,0.004,-0.194,-0.981,0.021,61.88,-14.84,-69.21000000000001,-0.3072,0.4323,0.5705,0.627,0.003,0.0,0.003,0.0,0.0,0.0,0.0,0.0,0.0,-0.0001916885375976,0.0001916885375976,0.0073261260986328,-0.0219783782958984,-0.0036630630493164,-0.0036630630493164,0.0,0.0,0.0,0.0
2025-11-06 18:37:23.999,309.515,0.065,-0.019,0.043,-0.354,-0.914,0.22,5.5200000000000005,-7.8,-47.09,0.5905,-0.7703,-0.0164,-0.2399,-0.014,-0.006,-0.006,295.3,-0.004,0.002,-0.006,-0.121,-0.956,-0.232,25.72,-20.05,-77.60000000000001,-0.7854,0.6147,-0.0693,0.0172,-0.001,-0.007,-0.003,297.365,-0.007,-0.008,0.004,-0.194,-0.981,0.021,61.88,-14.84,-69.21000000000001,-0.3072,0.4323,0.5705,0.627,0.003,0.0,0.003,0.0,0.0,0.0,0.0,0.0,0.0,-0.0001916885375976,0.0001916885375976,0.0073261260986328,-0.0219783782958984,-0.0036630630493164,-0.0036630630493164,0.0,0.0,0.0,0.0
2025-11-06 18:37:24.001,309.585,0.115,0.059,0.074,-0.375,-0.932,0.227,5.34,-6.66,-46.94,0.5874,-0.7721,-0.0159,-0.2417,0.002,0.014,-0.008,295.3,-0.004,0.002,-0.006,-0.121,-0.956,-0.232,25.72,-20.05,-77.60000000000001,-0.7854,0.6147,-0.0693,0.0172,-0.001,-0.007,-0.003,297.365,-0.007,-0.008,0.004,-0.194,-0.981,0.021,61.88,-14.84,-69.21000000000001,-0.3072,0.4323,0.5705,0.627,0.003,0.0,0.003,0.0,0.0,0.0,0.0,0.0,0.0,-0.0001916885375976,0.0001916885375976,0.0073261260986328,-0.0219783782958984,-0.0036630630493164,-0.0036630630493164,0.0,0.0,0.0,0.0
2025-11-06 18:37:24.001,309.58,0.115,0.054,0.073,-0.373,-0.931,0.226,5.34,-6.66,-46.94,0.5876,-0.772,-0.0158,-0.2415,0.0,0.013,-0.007,295.3,-0.004,0.002,-0.006,-0.121,-0.956,-0.232,25.72,-20.05,-77.60000000000001,-0.7854,0.6147,-0.0693,0.0172,-0.001,-0.007,-0.003,297.365,-0.007,-0.008,0.004,-0.194,-0.981,0.021,61.88,-14.84,-69.21000000000001,-0.3072,0.4323,0.5705,0.627,0.003,0.0,0.003,0.0,0.0,0.0,0.0,0.0,0.0,-0.0001916885375976,0.0001916885375976,0.0073261260986328,-0.0219783782958984,-0.0036630630493164,-0.0036630630493164,0.0,0.0,0.0,0.0
2025-11-06 18:37:24.001,309.575,0.114,0.054,0.073,-0.373,-0.929,0.226,5.34,-6.66,-46.94,0.5879,-0.7718,-0.0158,-0.2413,0.0,0.01,-0.008,295.3,-0.004,0.002,-0.006,-0.121,-0.956,-0.232,25.72,-20.05,-77.60000000000001,-0.7854,0.6147,-0.0693,0.0172,-0.001,-0.007,-0.003,297.365,-0.007,-0.008,0.004,-0.194,-0.981,0.021,61.88,-14.84,-69.21000000000001,-0.3072,0.4323,0.5705,0.627,0.003,0.0,0.003,0.0,0.0,0.0,0.0,0.0,0.0,-0.0001916885375976,0.0001916885375976,0.0073261260986328,-0.0219783782958984,-0.0036630630493164,-0.0036630630493164,0.0,0.0,0.0,0.0
2025-11-06 18:37:24.001,309.57,0.11,0.052,0.073,-0.373,-0.927,0.224,4.82,-6.48,-47.88,0.5882000000000001,-0.7717,-0.0158,-0.2411,0.001,0.008,-0.006,295.3,-0.004,0.002,-0.006,-0.121,-0.956,-0.232,25.72,-20.05,-77.60000000000001,-0.7854,0.6147,-0.0693,0.0172,-0.001,-0.007,-0.003,297.365,-0.007,-0.008,0.004,-0.194,-0.981,0.021,61.88,-14.84,-69.21000000000001,-0.3072,0.4323,0.5705,0.627,0.003,0.0,0.003,0.0,0.0,0.0,0.0,0.0,0.0,-0.0001916885375976,0.0001916885375976,0.0073261260986328,-0.0219783782958984,-0.0036630630493164,-0.0036630630493164,0.0,0.0,0.0,0.0
2025-11-06 18:37:24.001,309.555,0.093,0.021,0.07,-0.367,-0.92,0.217,5.37,-6.75,-46.82,0.5890000000000001,-0.7713,-0.0159,-0.2406,-0.003,0.001,0.0,295.3,-0.004,0.002,-0.006,-0.121,-0.956,-0.232,25.72,-20.05,-77.60000000000001,-0.7854,0.6147,-0.0693,0.0172,-0.001,-0.007,-0.003,297.365,-0.007,-0.008,0.004,-0.194,-0.981,0.021,61.88,-14.84,-69.21000000000001,-0.3072,0.4323,0.5705,0.627,0.003,0.0,0.003,0.0,0.0,0.0,0.0,0.0,0.0,-0.0001916885375976,0.0001916885375976,0.0073261260986328,-0.0219783782958984,-0.0036630630493164,-0.0036630630493164,0.0,0.0,0.0,0.0
2025-11-06 18:37:24.001,309.56,0.1,0.03,0.071,-0.367,-0.923,0.22,5.37,-6.75,-46.82,0.5887,-0.7714000000000001,-0.0159,-0.2407,-0.003,0.003,-0.003,295.3,-0.004,0.002,-0.006,-0.121,-0.956,-0.232,25.72,-20.05,-77.60000000000001,-0.7854,0.6147,-0.0693,0.0172,-0.001,-0.007,-0.003,297.365,-0.007,-0.008,0.004,-0.194,-0.981,0.021,61.88,-14.84,-69.21000000000001,-0.3072,0.4323,0.5705,0.627,0.003,0.0,0.003,0.0,0.0,0.0,0.0,0.0,0.0,-0.0001916885375976,0.0001916885375976,0.0073261260986328,-0.0219783782958984,-0.0036630630493164,-0.0036630630493164,0.0,0.0,0.0,0.0
2025-11-06 18:37:24.001,309.545,0.083,0.01,0.065,-0.362,-0.914,0.213,5.84,-6.69,-47.14,0.5894,-0.771,-0.016,-0.2403,-0.007,-0.005,0.002,295.3,-0.004,0.002,-0.006,-0.121,-0.956,-0.232,25.72,-20.05,-77.60000000000001,-0.7854,0.6147,-0.0693,0.0172,-0.001,-0.007,-0.003,297.365,-0.007,-0.008,0.004,-0.194,-0.981,0.021,61.88,-14.84,-69.21000000000001,-0.3072,0.4323,0.5705,0.627,0.003,0.0,0.003,0.0,0.0,0.0,0.0,0.0,0.0,-0.0001916885375976,0.0001916885375976,0.0073261260986328,-0.0219783782958984,-0.0036630630493164,-0.0036630630493164,0.0,0.0,0.0,0.0
2025-11-06 18:37:24.001,309.59,0.118,0.058,0.073,-0.377,-0.934,0.225,5.4,-6.92,-47.12,0.5871000000000001,-0.7723,-0.0159,-0.2419,0.004,0.016,-0.005,295.3,-0.004,0.002,-0.006,-0.121,-0.956,-0.232,25.72,-20.05,-77.60000000000001,-0.7854,0.6147,-0.0693,0.0172,-0.001,-0.007,-0.003,297.365,-0.007,-0.008,0.004,-0.194,-0.981,0.021,61.88,-14.84,-69.21000000000001,-0.3072,0.4323,0.5705,0.627,0.003,0.0,0.003,0.0,0.0,0.0,0.0,0.0,0.0,-0.0001916885375976,0.0001916885375976,0.0073261260986328,-0.0219783782958984,-0.0036630630493164,-0.0036630630493164,0.0,0.0,0.0,0.0
2025-11-06 18:37:24.001,309.665,0.128,0.123,0.089,-0.366,-0.897,0.229,4.79,-6.86,-46.94,0.5826,-0.7743,-0.0166,-0.246,-0.013,-0.015,-0.003,295.3,-0.004,0.002,-0.006,-0.121,-0.956,-0.232,25.72,-20.05,-77.60000000000001,-0.7854,0.6147,-0.0693,0.0172,-0.001,-0.007,-0.003,297.365,-0.007,-0.008,0.004,-0.194,-0.981,0.021,61.88,-14.84,-69.21000000000001,-0.3072,0.4323,0.5705,0.627,0.003,0.0,0.003,0.0,0.0,0.0,0.0,0.0,0.0,-0.0001916885375976,0.0001916885375976,0.0073261260986328,-0.0219783782958984,-0.0036630630493164,-0.0036630630493164,0.0,0.0,0.0,0.0
2025-11-06 18:37:24.001,309.565,0.106,0.042,0.073,-0.37,-0.925,0.222,4.82,-6.48,-47.88,0.5885,-0.7715000000000001,-0.0158,-0.2409,-0.001,0.006,-0.005,295.3,-0.004,0.002,-0.006,-0.121,-0.956,-0.232,25.72,-20.05,-77.60000000000001,-0.7854,0.6147,-0.0693,0.0172,-0.001,-0.007,-0.003,297.365,-0.007,-0.008,0.004,-0.194,-0.981,0.021,61.88,-14.84,-69.21000000000001,-0.3072,0.4323,0.5705,0.627,0.003,0.0,0.003,0.0,0.0,0.0,0.0,0.0,0.0,-0.0001916885375976,0.0001916885375976,0.0073261260986328,-0.0219783782958984,-0.0036630630493164,-0.0036630630493164,0.0,0.0,0.0,0.0
2025-11-06 18:37:24.001,309.595,0.119,0.06,0.072,-0.378,-0.938,0.224,5.4,-6.92,-47.12,0.5868,-0.7724000000000001,-0.0159,-0.2421,0.005,0.02,-0.003,295.3,-0.004,0.002,-0.006,-0.121,-0.956,-0.232,25.72,-20.05,-77.60000000000001,-0.7854,0.6147,-0.0693,0.0172,-0.001,-0.007,-0.003,297.365,-0.007,-0.008,0.004,-0.194,-0.981,0.021,61.88,-14.84,-69.21000000000001,-0.3072,0.4323,0.5705,0.627,0.003,0.0,0.003,0.0,0.0,0.0,0.0,0.0,0.0,-0.0001916885375976,0.0001916885375976,0.0073261260986328,-0.0219783782958984,-0.0036630630493164,-0.0036630630493164,0.0,0.0,0.0,0.0
2025-11-06 18:37:24.001,309.63,0.118,0.082,0.071,-0.38,-0.921,0.223,5.23,-6.6000000000000005,-47.32,0.5847,-0.7735000000000001,-0.0161,-0.2438,0.003,0.005,0.0,295.3,-0.004,0.002,-0.006,-0.121,-0.956,-0.232,25.72,-20.05,-77.60000000000001,-0.7854,0.6147,-0.0693,0.0172,-0.001,-0.007,-0.003,297.365,-0.007,-0.008,0.004,-0.194,-0.981,0.021,61.88,-14.84,-69.21000000000001,-0.3072,0.4323,0.5705,0.627,0.003,0.0,0.003,0.0,0.0,0.0,0.0,0.0,0.0,-0.0001916885375976,0.0001916885375976,0.0073261260986328,-0.0219783782958984,-0.0036630630493164,-0.0036630630493164,0.0,0.0,0.0,0.0
2025-11-06 18:37:24.001,309.605,0.125,0.063,0.073,-0.383,-0.941,0.225,4.96,-6.22,-47.09,0.5862,-0.7727,-0.0159,-0.2426,0.009,0.024,-0.004,295.3,-0.004,0.002,-0.006,-0.121,-0.956,-0.232,25.72,-20.05,-77.60000000000001,-0.7854,0.6147,-0.0693,0.0172,-0.001,-0.007,-0.003,297.365,-0.007,-0.008,0.004,-0.194,-0.981,0.021,61.88,-14.84,-69.21000000000001,-0.3072,0.4323,0.5705,0.627,0.003,0.0,0.003,0.0,0.0,0.0,0.0,0.0,0.0,-0.0001916885375976,0.0001916885375976,0.0073261260986328,-0.0219783782958984,-0.0036630630493164,-0.0036630630493164,0.0,0.0,0.0,0.0
2025-11-06 18:37:24.001,309.61,0.126,0.066,0.074,-0.384,-0.941,0.225,4.96,-6.22,-47.09,0.5859,-0.7729,-0.016,-0.2428,0.009,0.024,-0.003,295.3,-0.004,0.002,-0.006,-0.121,-0.956,-0.232,25.72,-20.05,-77.60000000000001,-0.7854,0.6147,-0.0693,0.0172,-0.001,-0.007,-0.003,297.365,-0.007,-0.008,0.004,-0.194,-0.981,0.021,61.88,-14.84,-69.21000000000001,-0.3072,0.4323,0.5705,0.627,0.003,0.0,0.003,0.0,0.0,0.0,0.0,0.0,0.0,-0.0001916885375976,0.0001916885375976,0.0073261260986328,-0.0219783782958984,-0.0036630630493164,-0.0036630630493164,0.0,0.0,0.0,0.0
2025-11-06 18:37:24.001,309.615,0.125,0.067,0.073,-0.384,-0.94,0.224,4.99,-6.75,-47.29,0.5856,-0.773,-0.016,-0.243,0.009,0.023,-0.002,295.3,-0.004,0.002,-0.006,-0.121,-0.956,-0.232,25.72,-20.05,-77.60000000000001,-0.7854,0.6147,-0.0693,0.0172,-0.001,-0.007,-0.003,297.365,-0.007,-0.008,0.004,-0.194,-0.981,0.021,61.88,-14.84,-69.21000000000001,-0.3072,0.4323,0.5705,0.627,0.003,0.0,0.003,0.0,0.0,0.0,0.0,0.0,0.0,-0.0001916885375976,0.0001916885375976,0.0073261260986328,-0.0219783782958984,-0.0036630630493164,-0.0036630630493164,0.0,0.0,0.0,0.0
2025-11-06 18:37:24.001,309.62,0.125,0.07,0.074,-0.385,-0.936,0.226,4.99,-6.75,-47.29,0.5853,-0.7732,-0.016,-0.2433,0.01,0.019,-0.003,295.3,-0.004,0.002,-0.006,-0.121,-0.956,-0.232,25.72,-20.05,-77.60000000000001,-0.7854,0.6147,-0.0693,0.0172,-0.001,-0.007,-0.003,297.365,-0.007,-0.008,0.004,-0.194,-0.981,0.021,61.88,-14.84,-69.21000000000001,-0.3072,0.4323,0.5705,0.627,0.003,0.0,0.003,0.0,0.0,0.0,0.0,0.0,0.0,-0.0001916885375976,0.0001916885375976,0.0073261260986328,-0.0219783782958984,-0.0036630630493164,-0.0036630630493164,0.0,0.0,0.0,0.0
2025-11-06 18:37:24.001,309.625,0.123,0.078,0.071,-0.383,-0.928,0.225,5.23,-6.6000000000000005,-47.32,0.5850000000000001,-0.7733,-0.0161,-0.2435,0.007,0.012,-0.002,295.3,-0.004,0.002,-0.006,-0.121,-0.956,-0.232,25.72,-20.05,-77.60000000000001,-0.7854,0.6147,-0.0693,0.0172,-0.001,-0.007,-0.003,297.365,-0.007,-0.008,0.004,-0.194,-0.981,0.021,61.88,-14.84,-69.21000000000001,-0.3072,0.4323,0.5705,0.627,0.003,0.0,0.003,0.0,0.0,0.0,0.0,0.0,0.0,-0.0001916885375976,0.0001916885375976,0.0073261260986328,-0.0219783782958984,-0.0036630630493164,-0.0036630630493164,0.0,0.0,0.0,0.0
2025-11-06 18:37:24.001,309.66,0.128,0.12,0.084,-0.366,-0.899,0.226,5.26,-6.63,-47.2,0.5830000000000001,-0.7742,-0.0166,-0.2456,-0.012,-0.014,-0.001,295.3,-0.004,0.002,-0.006,-0.121,-0.956,-0.232,25.72,-20.05,-77.60000000000001,-0.7854,0.6147,-0.0693,0.0172,-0.001,-0.007,-0.003,297.365,-0.007,-0.008,0.004,-0.194,-0.981,0.021,61.88,-14.84,-69.21000000000001,-0.3072,0.4323,0.5705,0.627,0.003,0.0,0.003,0.0,0.0,0.0,0.0,0.0,0.0,-0.0001916885375976,0.0001916885375976,0.0073261260986328,-0.0219783782958984,-0.0036630630493164,-0.0036630630493164,0.0,0.0,0.0,0.0
2025-11-06 18:37:24.001,309.635,0.116,0.088,0.072,-0.376,-0.917,0.221,5.23,-6.6000000000000005,-47.32,0.5844,-0.7736000000000001,-0.0162,-0.2441,0.0,0.002,0.002,295.3,-0.004,0.002,-0.006,-0.121,-0.956,-0.232,25.72,-20.05,-77.60000000000001,-0.7854,0.6147,-0.0693,0.0172,-0.001,-0.007,-0.003,297.365,-0.007,-0.008,0.004,-0.194,-0.981,0.021,61.88,-14.84,-69.21000000000001,-0.3072,0.4323,0.5705,0.627,0.003,0.0,0.003,0.0,0.0,0.0,0.0,0.0,0.0,-0.0001916885375976,0.0001916885375976,0.0073261260986328,-0.0219783782958984,-0.0036630630493164,-0.0036630630493164,0.0,0.0,0.0,0.0
2025-11-06 18:37:24.001,309.64,0.115,0.099,0.071,-0.374,-0.91,0.22,5.37,-6.66,-46.97,0.5842,-0.7737,-0.0162,-0.2443,-0.002,-0.004,0.003,295.3,-0.004,0.002,-0.006,-0.121,-0.956,-0.232,25.72,-20.05,-77.60000000000001,-0.7854,0.6147,-0.0693,0.0172,-0.001,-0.007,-0.003,297.365,-0.007,-0.008,0.004,-0.194,-0.981,0.021,61.88,-14.84,-69.21000000000001,-0.3072,0.4323,0.5705,0.627,0.003,0.0,0.003,0.0,0.0,0.0,0.0,0.0,0.0,-0.0001916885375976,0.0001916885375976,0.0073261260986328,-0.0219783782958984,-0.0036630630493164,-0.0036630630493164,0.0,0.0,0.0,0.0
2025-11-06 18:37:24.001,309.645,0.117,0.106,0.073,-0.372,-0.906,0.22,5.37,-6.66,-46.97,0.5839,-0.7738,-0.0163,-0.2447,-0.005,-0.008,0.004,295.3,-0.004,0.002,-0.006,-0.121,-0.956,-0.232,25.72,-20.05,-77.60000000000001,-0.7854,0.6147,-0.0693,0.0172,-0.001,-0.007,-0.003,297.365,-0.007,-0.008,0.004,-0.194,-0.981,0.021,61.88,-14.84,-69.21000000000001,-0.3072,0.4323,0.5705,0.627,0.003,0.0,0.003,0.0,0.0,0.0,0.0,0.0,0.0,-0.0001916885375976,0.0001916885375976,0.0073261260986328,-0.0219783782958984,-0.0036630630493164,-0.0036630630493164,0.0,0.0,0.0,0.0
2025-11-06 18:37:24.001,309.65,0.12,0.112,0.076,-0.368,-0.905,0.222,5.26,-6.63,-47.2,0.5836,-0.7739,-0.0164,-0.245,-0.009,-0.009,0.001,295.3,-0.004,0.002,-0.006,-0.121,-0.956,-0.232,25.72,-20.05,-77.60000000000001,-0.7854,0.6147,-0.0693,0.0172,-0.001,-0.007,-0.003,297.365,-0.007,-0.008,0.004,-0.194,-0.981,0.021,61.88,-14.84,-69.21000000000001,-0.3072,0.4323,0.5705,0.627,0.003,0.0,0.003,0.0,0.0,0.0,0.0,0.0,0.0,-0.0001916885375976,0.0001916885375976,0.0073261260986328,-0.0219783782958984,-0.0036630630493164,-0.0036630630493164,0.0,0.0,0.0,0.0
2025-11-06 18:37:24.001,309.655,0.126,0.118,0.08,-0.367,-0.901,0.224,5.26,-6.63,-47.2,0.5833,-0.7741,-0.0165,-0.2453,-0.011,-0.012,0.0,295.3,-0.004,0.002,-0.006,-0.121,-0.956,-0.232,25.72,-20.05,-77.60000000000001,-0.7854,0.6147,-0.0693,0.0172,-0.001,-0.007,-0.003,297.365,-0.007,-0.008,0.004,-0.194,-0.981,0.021,61.88,-14.84,-69.21000000000001,-0.3072,0.4323,0.5705,0.627,0.003,0.0,0.003,0.0,0.0,0.0,0.0,0.0,0.0,-0.0001916885375976,0.0001916885375976,0.0073261260986328,-0.0219783782958984,-0.0036630630493164,-0.0036630630493164,0.0,0.0,0.0,0.0
2025-11-06 18:37:24.001,309.6,0.123,0.063,0.071,-0.38,-0.938,0.224,4.96,-6.22,-47.09,0.5865,-0.7726000000000001,-0.0159,-0.2424,0.006,0.02,-0.003,295.3,-0.004,0.002,-0.006,-0.121,-0.956,-0.232,25.72,-20.05,-77.60000000000001,-0.7854,0.6147,-0.0693,0.0172,-0.001,-0.007,-0.003,297.365,-0.007,-0.008,0.004,-0.194,-0.981,0.021,61.88,-14.84,-69.21000000000001,-0.3072,0.4323,0.5705,0.627,0.003,0.0,0.003,0.0,0.0,0.0,0.0,0.0,0.0,-0.0001916885375976,0.0001916885375976,0.0073261260986328,-0.0219783782958984,-0.0036630630493164,-0.0036630630493164,0.0,0.0,0.0,0.0
2025-11-06 18:37:24.001,309.54,0.075,0.002,0.061,-0.361,-0.912,0.213,5.84,-6.69,-47.14,0.5896,-0.7709,-0.0161,-0.2402,-0.007,-0.007,0.001,295.3,-0.004,0.002,-0.006,-0.121,-0.956,-0.232,25.72,-20.05,-77.60000000000001,-0.7854,0.6147,-0.0693,0.0172,-0.001,-0.007,-0.003,297.365,-0.007,-0.008,0.004,-0.194,-0.981,0.021,61.88,-14.84,-69.21000000000001,-0.3072,0.4323,0.5705,0.627,0.003,0.0,0.003,0.0,0.0,0.0,0.0,0.0,0.0,-0.0001916885375976,0.0001916885375976,0.0073261260986328,-0.0219783782958984,-0.0036630630493164,-0.0036630630493164,0.0,0.0,0.0,0.0
2025-11-06 18:37:24.001,309.69,0.143,0.17,0.106,-0.373,-0.902,0.235,4.8500000000000005,-6.37,-46.33,0.5810000000000001,-0.7749,-0.0172,-0.2481,-0.009,-0.009,-0.007,295.3,-0.004,0.002,-0.006,-0.121,-0.956,-0.232,25.72,-20.05,-77.60000000000001,-0.7854,0.6147,-0.0693,0.0172,-0.001,-0.007,-0.003,297.365,-0.007,-0.008,0.004,-0.194,-0.981,0.021,61.88,-14.84,-69.21000000000001,-0.3072,0.4323,0.5705,0.627,0.003,0.0,0.003,0.0,0.0,0.0,0.0,0.0,0.0,-0.0001916885375976,0.0001916885375976,0.0073261260986328,-0.0219783782958984,-0.0036630630493164,-0.0036630630493164,0.0,0.0,0.0,0.0
2025-11-06 18:37:24.001,309.55,0.088,0.015,0.068,-0.365,-0.916,0.214,5.37,-6.75,-46.82,0.5892000000000001,-0.7711,-0.0159,-0.2404,-0.004,-0.003,0.001,295.3,-0.004,0.002,-0.006,-0.121,-0.956,-0.232,25.72,-20.05,-77.60000000000001,-0.7854,0.6147,-0.0693,0.0172,-0.001,-0.007,-0.003,297.365,-0.007,-0.008,0.004,-0.194,-0.981,0.021,61.88,-14.84,-69.21000000000001,-0.3072,0.4323,0.5705,0.627,0.003,0.0,0.003,0.0,0.0,0.0,0.0,0.0,0.0,-0.0001916885375976,0.0001916885375976,0.0073261260986328,-0.0219783782958984,-0.0036630630493164,-0.0036630630493164,0.0,0.0,0.0,0.0
2025-11-06 18:37:24.001,309.74,0.185,0.25,0.125,-0.389,-0.942,0.235,5.05,-7.07,-45.42,0.5768,-0.7761,-0.0189,-0.2539,-0.001,0.034,-0.003,295.3,-0.004,0.002,-0.006,-0.121,-0.956,-0.232,25.72,-20.05,-77.60000000000001,-0.7854,0.6147,-0.0693,0.0172,-0.001,-0.007,-0.003,297.365,-0.007,-0.008,0.004,-0.194,-0.981,0.021,61.88,-14.84,-69.21000000000001,-0.3072,0.4323,0.5705,0.627,0.003,0.0,0.003,0.0,0.0,0.0,0.0,0.0,0.0,-0.0001916885375976,0.0001916885375976,0.0073261260986328,-0.0219783782958984,-0.0036630630493164,-0.0036630630493164,0.0,0.0,0.0,0.0
2025-11-06 18:37:24.001,309.67,0.126,0.134,0.09,-0.367,-0.9,0.23,4.79,-6.86,-46.94,0.5823,-0.7744000000000001,-0.0167,-0.2464,-0.013,-0.013,-0.004,295.3,-0.004,0.002,-0.006,-0.121,-0.956,-0.232,25.72,-20.05,-77.60000000000001,-0.7854,0.6147,-0.0693,0.0172,-0.001,-0.007,-0.003,297.365,-0.007,-0.008,0.004,-0.194,-0.981,0.021,61.88,-14.84,-69.21000000000001,-0.3072,0.4323,0.5705,0.627,0.003,0.0,0.003,0.0,0.0,0.0,0.0,0.0,0.0,-0.0001916885375976,0.0001916885375976,0.0073261260986328,-0.0219783782958984,-0.0036630630493164,-0.0036630630493164,0.0,0.0,0.0,0.0
2025-11-06 18:37:24.001,309.72,0.169,0.226,0.123,-0.379,-0.923,0.237,4.44,-6.54,-45.83,0.5786,-0.7756000000000001,-0.018,-0.2514,-0.007,0.013,-0.007,295.3,-0.004,0.002,-0.006,-0.121,-0.956,-0.232,25.72,-20.05,-77.60000000000001,-0.7854,0.6147,-0.0693,0.0172,-0.001,-0.007,-0.003,297.365,-0.007,-0.008,0.004,-0.194,-0.981,0.021,61.88,-14.84,-69.21000000000001,-0.3072,0.4323,0.5705,0.627,0.003,0.0,0.003,0.0,0.0,0.0,0.0,0.0,0.0,-0.0001916885375976,0.0001916885375976,0.0073261260986328,-0.0219783782958984,-0.0036630630493164,-0.0036630630493164,0.0,0.0,0.0,0.0
2025-11-06 18:37:24.001,309.715,0.166,0.213,0.119,-0.376,-0.92,0.24,4.44,-6.54,-45.83,0.5790000000000001,-0.7755000000000001,-0.0179,-0.2508,-0.009,0.01,-0.011,295.3,-0.004,0.002,-0.006,-0.121,-0.956,-0.232,25.72,-20.05,-77.60000000000001,-0.7854,0.6147,-0.0693,0.0172,-0.001,-0.007,-0.003,297.365,-0.007,-0.008,0.004,-0.194,-0.981,0.021,61.88,-14.84,-69.21000000000001,-0.3072,0.4323,0.5705,0.627,0.003,0.0,0.003,0.0,0.0,0.0,0.0,0.0,0.0,-0.0001916885375976,0.0001916885375976,0.0073261260986328,-0.0219783782958984,-0.0036630630493164,-0.0036630630493164,0.0,0.0,0.0,0.0
2025-11-06 18:37:24.001,309.71,0.157,0.198,0.117,-0.374,-0.912,0.241,5.4,-6.78,-46.21,0.5794,-0.7754000000000001,-0.0177,-0.2502,-0.011,0.002,-0.012,295.3,-0.004,0.002,-0.006,-0.121,-0.956,-0.232,25.72,-20.05,-77.60000000000001,-0.7854,0.6147,-0.0693,0.0172,-0.001,-0.007,-0.003,297.365,-0.007,-0.008,0.004,-0.194,-0.981,0.021,61.88,-14.84,-69.21000000000001,-0.3072,0.4323,0.5705,0.627,0.003,0.0,0.003,0.0,0.0,0.0,0.0,0.0,0.0,-0.0001916885375976,0.0001916885375976,0.0073261260986328,-0.0219783782958984,-0.0036630630493164,-0.0036630630493164,0.0,0.0,0.0,0.0
2025-11-06 18:37:24.001,309.695,0.145,0.176,0.109,-0.375,-0.903,0.237,4.8500000000000005,-6.37,-46.33,0.5806,-0.775,-0.0173,-0.2486,-0.007,-0.008,-0.009,295.3,-0.004,0.002,-0.006,-0.121,-0.956,-0.232,25.72,-20.05,-77.60000000000001,-0.7854,0.6147,-0.0693,0.0172,-0.001,-0.007,-0.003,297.365,-0.007,-0.008,0.004,-0.194,-0.981,0.021,61.88,-14.84,-69.21000000000001,-0.3072,0.4323,0.5705,0.627,0.003,0.0,0.003,0.0,0.0,0.0,0.0,0.0,0.0,-0.0001916885375976,0.0001916885375976,0.0073261260986328,-0.0219783782958984,-0.0036630630493164,-0.0036630630493164,0.0,0.0,0.0,0.0
2025-11-06 18:37:24.001,309.7,0.147,0.186,0.113,-0.373,-0.904,0.238,5.4,-6.78,-46.21,0.5802,-0.7751,-0.0174,-0.2491,-0.01,-0.007,-0.01,295.3,-0.004,0.002,-0.006,-0.121,-0.956,-0.232,25.72,-20.05,-77.60000000000001,-0.7854,0.6147,-0.0693,0.0172,-0.001,-0.007,-0.003,297.365,-0.007,-0.008,0.004,-0.194,-0.981,0.021,61.88,-14.84,-69.21000000000001,-0.3072,0.4323,0.5705,0.627,0.003,0.0,0.003,0.0,0.0,0.0,0.0,0.0,0.0,-0.0001916885375976,0.0001916885375976,0.0073261260986328,-0.0219783782958984,-0.0036630630493164,-0.0036630630493164,0.0,0.0,0.0,0.0
2025-11-06 18:37:24.001,309.685,0.135,0.16,0.102,-0.372,-0.9,0.234,5.26,-6.28,-46.62,0.5813,-0.7748,-0.017,-0.2477,-0.009,-0.012,-0.007,295.3,-0.004,0.002,-0.006,-0.121,-0.956,-0.232,25.72,-20.05,-77.60000000000001,-0.7854,0.6147,-0.0693,0.0172,-0.001,-0.007,-0.003,297.365,-0.007,-0.008,0.004,-0.194,-0.981,0.021,61.88,-14.84,-69.21000000000001,-0.3072,0.4323,0.5705,0.627,0.003,0.0,0.003,0.0,0.0,0.0,0.0,0.0,0.0,-0.0001916885375976,0.0001916885375976,0.0073261260986328,-0.0219783782958984,-0.0036630630493164,-0.0036630630493164,0.0,0.0,0.0,0.0
2025-11-06 18:37:24.001,309.73,0.177,0.239,0.123,-0.383,-0.933,0.234,4.26,-6.72,-45.83,0.5777,-0.7759,-0.0184,-0.2526,-0.005,0.024,-0.003,295.3,-0.004,0.002,-0.006,-0.121,-0.956,-0.232,25.72,-20.05,-77.60000000000001,-0.7854,0.6147,-0.0693,0.0172,-0.001,-0.007,-0.003,297.365,-0.007,-0.008,0.004,-0.194,-0.981,0.021,61.88,-14.84,-69.21000000000001,-0.3072,0.4323,0.5705,0.627,0.003,0.0,0.003,0.0,0.0,0.0,0.0,0.0,0.0,-0.0001916885375976,0.0001916885375976,0.0073261260986328,-0.0219783782958984,-0.0036630630493164,-0.0036630630493164,0.0,0.0,0.0,0.0
2025-11-06 18:37:24.001,309.68,0.13,0.148,0.1,-0.371,-0.899,0.233,5.26,-6.28,-46.62,0.5817,-0.7747,-0.0169,-0.2472,-0.01,-0.013,-0.006,295.3,-0.004,0.002,-0.006,-0.121,-0.956,-0.232,25.72,-20.05,-77.60000000000001,-0.7854,0.6147,-0.0693,0.0172,-0.001,-0.007,-0.003,297.365,-0.007,-0.008,0.004,-0.194,-0.981,0.021,61.88,-14.84,-69.21000000000001,-0.3072,0.4323,0.5705,0.627,0.003,0.0,0.003,0.0,0.0,0.0,0.0,0.0,0.0,-0.0001916885375976,0.0001916885375976,0.0073261260986328,-0.0219783782958984,-0.0036630630493164,-0.0036630630493164,0.0,0.0,0.0,0.0
2025-11-06 18:37:24.001,309.705,0.15,0.19,0.114,-0.373,-0.908,0.239,5.4,-6.78,-46.21,0.5798,-0.7752,-0.0175,-0.2497,-0.011,-0.002,-0.011,295.3,-0.004,0.002,-0.006,-0.121,-0.956,-0.232,25.72,-20.05,-77.60000000000001,-0.7854,0.6147,-0.0693,0.0172,-0.001,-0.007,-0.003,297.365,-0.007,-0.008,0.004,-0.194,-0.981,0.021,61.88,-14.84,-69.21000000000001,-0.3072,0.4323,0.5705,0.627,0.003,0.0,0.003,0.0,0.0,0.0,0.0,0.0,0.0,-0.0001916885375976,0.0001916885375976,0.0073261260986328,-0.0219783782958984,-0.0036630630493164,-0.0036630630493164,0.0,0.0,0.0,0.0
2025-11-06 18:37:24.001,309.735,0.178,0.245,0.124,-0.386,-0.938,0.234,4.26,-6.72,-45.83,0.5772,-0.776,-0.0187,-0.2533,-0.003,0.03,-0.002,295.3,-0.004,0.002,-0.006,-0.121,-0.956,-0.232,25.72,-20.05,-77.60000000000001,-0.7854,0.6147,-0.0693,0.0172,-0.001,-0.007,-0.003,297.365,-0.007,-0.008,0.004,-0.194,-0.981,0.021,61.88,-14.84,-69.21000000000001,-0.3072,0.4323,0.5705,0.627,0.003,0.0,0.003,0.0,0.0,0.0,0.0,0.0,0.0,-0.0001916885375976,0.0001916885375976,0.0073261260986328,-0.0219783782958984,-0.0036630630493164,-0.0036630630493164,0.0,0.0,0.0,0.0
2025-11-06 18:37:24.001,309.77,0.179,0.271,0.139,-0.381,-0.936,0.244,4.64,-6.72,-45.22,0.5739000000000001,-0.7768,-0.0202,-0.258,-0.014,0.031,-0.01,295.3,-0.004,0.002,-0.006,-0.121,-0.956,-0.232,25.72,-20.05,-77.60000000000001,-0.7854,0.6147,-0.0693,0.0172,-0.001,-0.007,-0.003,297.365,-0.007,-0.008,0.004,-0.194,-0.981,0.021,61.88,-14.84,-69.21000000000001,-0.3072,0.4323,0.5705,0.627,0.003,0.0,0.003,0.0,0.0,0.0,0.0,0.0,0.0,-0.0001916885375976,0.0001916885375976,0.0073261260986328,-0.0219783782958984,-0.0036630630493164,-0.0036630630493164,0.0,0.0,0.0,0.0
2025-11-06 18:37:24.001,309.725,0.171,0.236,0.123,-0.382,-0.929,0.235,4.26,-6.72,-45.83,0.5781000000000001,-0.7757000000000001,-0.0182,-0.252,-0.006,0.019,-0.004,295.3,-0.004,0.002,-0.006,-0.121,-0.956,-0.232,25.72,-20.05,-77.60000000000001,-0.7854,0.6147,-0.0693,0.0172,-0.001,-0.007,-0.003,297.365,-0.007,-0.008,0.004,-0.194,-0.981,0.021,61.88,-14.84,-69.21000000000001,-0.3072,0.4323,0.5705,0.627,0.003,0.0,0.003,0.0,0.0,0.0,0.0,0.0,0.0,-0.0001916885375976,0.0001916885375976,0.0073261260986328,-0.0219783782958984,-0.0036630630493164,-0.0036630630493164,0.0,0.0,0.0,0.0
2025-11-06 18:37:24.001,309.75,0.185,0.256,0.131,-0.39,-0.945,0.239,5.05,-7.01,-45.98,0.5758,-0.7764000000000001,-0.0193,-0.2552,-0.001,0.038,-0.006,295.3,-0.004,0.002,-0.006,-0.121,-0.956,-0.232,25.72,-20.05,-77.60000000000001,-0.7854,0.6147,-0.0693,0.0172,-0.001,-0.007,-0.003,297.365,-0.007,-0.008,0.004,-0.194,-0.981,0.021,61.88,-14.84,-69.21000000000001,-0.3072,0.4323,0.5705,0.627,0.003,0.0,0.003,0.0,0.0,0.0,0.0,0.0,0.0,-0.0001916885375976,0.0001916885375976,0.0073261260986328,-0.0219783782958984,-0.0036630630493164,-0.0036630630493164,0.0,0.0,0.0,0.0
2025-11-06 18:37:24.001,309.755,0.186,0.264,0.133,-0.389,-0.944,0.241,5.05,-7.01,-45.98,0.5754,-0.7765000000000001,-0.0195,-0.2559,-0.003,0.038,-0.008,295.3,-0.004,0.002,-0.006,-0.121,-0.956,-0.232,25.72,-20.05,-77.60000000000001,-0.7854,0.6147,-0.0693,0.0172,-0.001,-0.007,-0.003,297.365,-0.007,-0.008,0.004,-0.194,-0.981,0.021,61.88,-14.84,-69.21000000000001,-0.3072,0.4323,0.5705,0.627,0.003,0.0,0.003,0.0,0.0,0.0,0.0,0.0,0.0,-0.0001916885375976,0.0001916885375976,0.0073261260986328,-0.0219783782958984,-0.0036630630493164,-0.0036630630493164,0.0,0.0,0.0,0.0
2025-11-06 18:37:24.001,309.76,0.181,0.269,0.136,-0.387,-0.943,0.242,5.05,-7.01,-45.98,0.5749000000000001,-0.7766000000000001,-0.0198,-0.2566,-0.005,0.036,-0.009,295.3,-0.004,0.002,-0.006,-0.121,-0.956,-0.232,25.72,-20.05,-77.60000000000001,-0.7854,0.6147,-0.0693,0.0172,-0.001,-0.007,-0.003,297.365,-0.007,-0.008,0.004,-0.194,-0.981,0.021,61.88,-14.84,-69.21000000000001,-0.3072,0.4323,0.5705,0.627,0.003,0.0,0.003,0.0,0.0,0.0,0.0,0.0,0.0,-0.0001916885375976,0.0001916885375976,0.0073261260986328,-0.0219783782958984,-0.0036630630493164,-0.0036630630493164,0.0,0.0,0.0,0.0
2025-11-06 18:37:24.001,309.765,0.181,0.268,0.137,-0.385,-0.94,0.243,4.64,-6.72,-45.22,0.5744,-0.7767000000000001,-0.02,-0.2573,-0.009,0.035,-0.009,295.3,-0.004,0.002,-0.006,-0.121,-0.956,-0.232,25.72,-20.05,-77.60000000000001,-0.7854,0.6147,-0.0693,0.0172,-0.001,-0.007,-0.003,297.365,-0.007,-0.008,0.004,-0.194,-0.981,0.021,61.88,-14.84,-69.21000000000001,-0.3072,0.4323,0.5705,0.627,0.003,0.0,0.003,0.0,0.0,0.0,0.0,0.0,0.0,-0.0001916885375976,0.0001916885375976,0.0073261260986328,-0.0219783782958984,-0.0036630630493164,-0.0036630630493164,0.0,0.0,0.0,0.0
2025-11-06 18:37:24.001,309.675,0.125,0.144,0.096,-0.369,-0.898,0.231,5.26,-6.28,-46.62,0.5820000000000001,-0.7745000000000001,-0.0168,-0.2468,-0.011,-0.014,-0.005,295.3,-0.004,0.002,-0.006,-0.121,-0.956,-0.232,25.72,-20.05,-77.60000000000001,-0.7854,0.6147,-0.0693,0.0172,-0.001,-0.007,-0.003,297.365,-0.007,-0.008,0.004,-0.194,-0.981,0.021,61.88,-14.84,-69.21000000000001,-0.3072,0.4323,0.5705,0.627,0.003,0.0,0.003,0.0,0.0,0.0,0.0,0.0,0.0,-0.0001916885375976,0.0001916885375976,0.0073261260986328,-0.0219783782958984,-0.0036630630493164,-0.0036630630493164,0.0,0.0,0.0,0.0
2025-11-06 18:37:24.001,309.775,0.179,0.265,0.139,-0.375,-0.932,0.242,4.8500000000000005,-6.72,-46.03,0.5735,-0.7769,-0.0204,-0.2587,-0.02,0.027,-0.008,295.3,-0.004,0.002,-0.006,-0.121,-0.956,-0.232,25.72,-20.05,-77.60000000000001,-0.7854,0.6147,-0.0693,0.0172,-0.001,-0.007,-0.003,297.365,-0.007,-0.008,0.004,-0.194,-0.981,0.021,61.88,-14.84,-69.21000000000001,-0.3072,0.4323,0.5705,0.627,0.003,0.0,0.003,0.0,0.0,0.0,0.0,0.0,0.0,-0.0001916885375976,0.0001916885375976,0.0073261260986328,-0.0219783782958984,-0.0036630630493164,-0.0036630630493164,0.0,0.0,0.0,0.0
2025-11-06 18:37:24.001,309.78,0.178,0.263,0.137,-0.373,-0.929,0.242,4.8500000000000005,-7.68,-46.03,0.5730000000000001,-0.777,-0.0206,-0.2594,-0.024,0.025,-0.007,295.3,-0.004,0.002,-0.006,-0.121,-0.956,-0.232,25.72,-20.05,-77.60000000000001,-0.7854,0.6147,-0.0693,0.0172,-0.001,-0.007,-0.003,297.365,-0.007,-0.008,0.004,-0.194,-0.981,0.021,61.88,-14.84,-69.21000000000001,-0.3072,0.4323,0.5705,0.627,0.003,0.0,0.003,0.0,0.0,0.0,0.0,0.0,0.0,-0.0001916885375976,0.0001916885375976,0.0073261260986328,-0.0219783782958984,-0.0036630630493164,-0.0036630630493164,0.0,0.0,0.0,0.0
2025-11-06 18:37:24.001,309.785,0.177,0.265,0.135,-0.368,-0.928,0.242,4.8500000000000005,-7.68,-46.03,0.5726,-0.7771,-0.0209,-0.2601,-0.029,0.024,-0.006,295.3,-0.004,0.002,-0.006,-0.121,-0.956,-0.232,25.72,-20.05,-77.60000000000001,-0.7854,0.6147,-0.0693,0.0172,-0.001,-0.007,-0.003,297.365,-0.007,-0.008,0.004,-0.194,-0.981,0.021,61.88,-14.84,-69.21000000000001,-0.3072,0.4323,0.5705,0.627,0.003,0.0,0.003,0.0,0.0,0.0,0.0,0.0,0.0,-0.0001916885375976,0.0001916885375976,0.0073261260986328,-0.0219783782958984,-0.0036630630493164,-0.0036630630493164,0.0,0.0,0.0,0.0
2025-11-06 18:37:24.001,309.79,0.177,0.264,0.131,-0.366,-0.923,0.239,4.2,-6.69,-45.1,0.5721,-0.7772,-0.0211,-0.2608,-0.033,0.019,-0.003,295.3,-0.004,0.002,-0.006,-0.121,-0.956,-0.232,25.72,-20.05,-77.60000000000001,-0.7854,0.6147,-0.0693,0.0172,-0.001,-0.007,-0.003,297.365,-0.007,-0.008,0.004,-0.194,-0.981,0.021,61.88,-14.84,-69.21000000000001,-0.3072,0.4323,0.5705,0.627,0.003,0.0,0.003,0.0,0.0,0.0,0.0,0.0,0.0,-0.0001916885375976,0.0001916885375976,0.0073261260986328,-0.0219783782958984,-0.0036630630493164,-0.0036630630493164,0.0,0.0,0.0,0.0
2025-11-06 18:37:24.001,309.795,0.174,0.264,0.128,-0.366,-0.919,0.238,4.2,-6.69,-45.1,0.5717,-0.7773,-0.0213,-0.2615,-0.033,0.016,-0.002,295.3,-0.004,0.002,-0.006,-0.121,-0.956,-0.232,25.72,-20.05,-77.60000000000001,-0.7854,0.6147,-0.0693,0.0172,-0.001,-0.007,-0.003,297.365,-0.007,-0.008,0.004,-0.194,-0.981,0.021,61.88,-14.84,-69.21000000000001,-0.3072,0.4323,0.5705,0.627,0.003,0.0,0.003,0.0,0.0,0.0,0.0,0.0,0.0,-0.0001916885375976,0.0001916885375976,0.0073261260986328,-0.0219783782958984,-0.0036630630493164,-0.0036630630493164,0.0,0.0,0.0,0.0
2025-11-06 18:37:24.001,309.8,0.174,0.266,0.123,-0.366,-0.911,0.233,4.2,-6.69,-45.1,0.5712,-0.7774000000000001,-0.0216,-0.2621,-0.034,0.009,0.002,295.3,-0.004,0.002,-0.006,-0.121,-0.956,-0.232,25.72,-20.05,-77.60000000000001,-0.7854,0.6147,-0.0693,0.0172,-0.001,-0.007,-0.003,297.365,-0.007,-0.008,0.004,-0.194,-0.981,0.021,61.88,-14.84,-69.21000000000001,-0.3072,0.4323,0.5705,0.627,0.003,0.0,0.003,0.0,0.0,0.0,0.0,0.0,0.0,-0.0001916885375976,0.0001916885375976,0.0073261260986328,-0.0219783782958984,-0.0036630630493164,-0.0036630630493164,0.0,0.0,0.0,0.0
2025-11-06 18:37:24.001,309.745,0.186,0.254,0.128,-0.39,-0.945,0.237,5.05,-7.07,-45.42,0.5763,-0.7762,-0.0191,-0.2546,0.0,0.037,-0.004,295.3,-0.004,0.002,-0.006,-0.121,-0.956,-0.232,25.72,-20.05,-77.60000000000001,-0.7854,0.6147,-0.0693,0.0172,-0.001,-0.007,-0.003,297.365,-0.007,-0.008,0.004,-0.194,-0.981,0.021,61.88,-14.84,-69.21000000000001,-0.3072,0.4323,0.5705,0.627,0.003,0.0,0.003,0.0,0.0,0.0,0.0,0.0,0.0,-0.0001916885375976,0.0001916885375976,0.0073261260986328,-0.0219783782958984,-0.0036630630493164,-0.0036630630493164,0.0,0.0,0.0,0.0
2025-11-06 18:37:24.002,309.85,0.2,0.364,0.148,-0.417,-0.903,0.238,4.09,-6.890000000000001,-44.22,0.5664,-0.7782,-0.0248,-0.27,0.006,0.005,0.0,295.3,-0.004,0.002,-0.006,-0.121,-0.956,-0.232,25.72,-20.05,-77.60000000000001,-0.7854,0.6147,-0.0693,0.0172,-0.001,-0.007,-0.003,297.37,-0.009,-0.014,0.003,-0.194,-0.982,0.019,61.44,-15.17,-69.45,-0.3072,0.4323,0.5703,0.6272,0.002,0.001,0.005,0.0,0.0,0.0,0.0,0.0,0.0,-0.0001916885375976,0.0001916885375976,0.0073261260986328,-0.0219783782958984,-0.0036630630493164,-0.0036630630493164,0.0,0.0,0.0,0.0
2025-11-06 18:37:24.002,309.845,0.199,0.361,0.14,-0.413,-0.903,0.236,4.09,-6.890000000000001,-44.22,0.5669000000000001,-0.7781,-0.0244,-0.2691,0.003,0.004,0.001,295.3,-0.004,0.002,-0.006,-0.121,-0.956,-0.232,25.72,-20.05,-77.60000000000001,-0.7854,0.6147,-0.0693,0.0172,-0.001,-0.007,-0.003,297.37,-0.009,-0.014,0.003,-0.194,-0.982,0.019,61.44,-15.17,-69.45,-0.3072,0.4323,0.5703,0.6272,0.002,0.001,0.005,0.0,0.0,0.0,0.0,0.0,0.0,-0.0001916885375976,0.0001916885375976,0.0073261260986328,-0.0219783782958984,-0.0036630630493164,-0.0036630630493164,0.0,0.0,0.0,0.0
2025-11-06 18:37:24.002,309.84,0.199,0.351,0.132,-0.408,-0.903,0.233,4.09,-6.890000000000001,-44.22,0.5675,-0.778,-0.0241,-0.2682,0.0,0.004,0.004,295.3,-0.004,0.002,-0.006,-0.121,-0.956,-0.232,25.72,-20.05,-77.60000000000001,-0.7854,0.6147,-0.0693,0.0172,-0.001,-0.007,-0.003,297.37,-0.009,-0.014,0.003,-0.194,-0.982,0.019,61.44,-15.17,-69.45,-0.3072,0.4323,0.5703,0.6272,0.002,0.001,0.005,0.0,0.0,0.0,0.0,0.0,0.0,-0.0001916885375976,0.0001916885375976,0.0073261260986328,-0.0219783782958984,-0.0036630630493164,-0.0036630630493164,0.0,0.0,0.0,0.0
2025-11-06 18:37:24.002,309.835,0.197,0.347,0.126,-0.403,-0.902,0.231,4.0600000000000005,-7.19,-44.81,0.5680000000000001,-0.778,-0.0237,-0.2673,-0.004,0.002,0.006,295.3,-0.004,0.002,-0.006,-0.121,-0.956,-0.232,25.72,-20.05,-77.60000000000001,-0.7854,0.6147,-0.0693,0.0172,-0.001,-0.007,-0.003,297.37,-0.009,-0.014,0.003,-0.194,-0.982,0.019,61.44,-15.17,-69.45,-0.3072,0.4323,0.5703,0.6272,0.002,0.001,0.005,0.0,0.0,0.0,0.0,0.0,0.0,-0.0001916885375976,0.0001916885375976,0.0073261260986328,-0.0219783782958984,-0.0036630630493164,-0.0036630630493164,0.0,0.0,0.0,0.0
2025-11-06 18:37:24.002,309.805,0.171,0.269,0.118,-0.369,-0.907,0.229,4.7,-8.03,-44.19,0.5708,-0.7775000000000001,-0.0218,-0.2628,-0.032,0.005,0.007,295.3,-0.004,0.002,-0.006,-0.121,-0.956,-0.232,25.72,-20.05,-77.60000000000001,-0.7854,0.6147,-0.0693,0.0172,-0.001,-0.007,-0.003,297.37,-0.009,-0.014,0.003,-0.194,-0.982,0.019,61.44,-15.17,-69.45,-0.3072,0.4323,0.5703,0.6272,0.002,0.001,0.005,0.0,0.0,0.0,0.0,0.0,0.0,-0.0001916885375976,0.0001916885375976,0.0073261260986328,-0.0219783782958984,-0.0036630630493164,-0.0036630630493164,0.0,0.0,0.0,0.0
2025-11-06 18:37:24.002,309.82,0.178,0.303,0.114,-0.385,-0.899,0.224,4.09,-6.95,-44.54,0.5694,-0.7777000000000001,-0.0227,-0.2649,-0.019,-0.001,0.011,295.3,-0.004,0.002,-0.006,-0.121,-0.956,-0.232,25.72,-20.05,-77.60000000000001,-0.7854,0.6147,-0.0693,0.0172,-0.001,-0.007,-0.003,297.37,-0.009,-0.014,0.003,-0.194,-0.982,0.019,61.44,-15.17,-69.45,-0.3072,0.4323,0.5703,0.6272,0.002,0.001,0.005,0.0,0.0,0.0,0.0,0.0,0.0,-0.0001916885375976,0.0001916885375976,0.0073261260986328,-0.0219783782958984,-0.0036630630493164,-0.0036630630493164,0.0,0.0,0.0,0.0
2025-11-06 18:37:24.002,309.815,0.174,0.289,0.114,-0.38,-0.9,0.226,4.09,-6.95,-44.54,0.5699000000000001,-0.7777000000000001,-0.0224,-0.2642,-0.023,-0.001,0.009,295.3,-0.004,0.002,-0.006,-0.121,-0.956,-0.232,25.72,-20.05,-77.60000000000001,-0.7854,0.6147,-0.0693,0.0172,-0.001,-0.007,-0.003,297.37,-0.009,-0.014,0.003,-0.194,-0.982,0.019,61.44,-15.17,-69.45,-0.3072,0.4323,0.5703,0.6272,0.002,0.001,0.005,0.0,0.0,0.0,0.0,0.0,0.0,-0.0001916885375976,0.0001916885375976,0.0073261260986328,-0.0219783782958984,-0.0036630630493164,-0.0036630630493164,0.0,0.0,0.0,0.0
2025-11-06 18:37:24.002,309.81,0.172,0.28,0.115,-0.374,-0.904,0.227,4.7,-8.03,-44.19,0.5703,-0.7776000000000001,-0.0221,-0.2635,-0.028,0.002,0.009,295.3,-0.004,0.002,-0.006,-0.121,-0.956,-0.232,25.72,-20.05,-77.60000000000001,-0.7854,0.6147,-0.0693,0.0172,-0.001,-0.007,-0.003,297.37,-0.009,-0.014,0.003,-0.194,-0.982,0.019,61.44,-15.17,-69.45,-0.3072,0.4323,0.5703,0.6272,0.002,0.001,0.005,0.0,0.0,0.0,0.0,0.0,0.0,-0.0001916885375976,0.0001916885375976,0.0073261260986328,-0.0219783782958984,-0.0036630630493164,-0.0036630630493164,0.0,0.0,0.0,0.0
2025-11-06 18:37:24.002,309.855,0.196,0.369,0.156,-0.419,-0.901,0.241,4.47,-7.24,-44.22,0.5659000000000001,-0.7782,-0.0251,-0.2709,0.007,0.003,-0.003,295.3,-0.004,0.002,-0.006,-0.121,-0.956,-0.232,25.72,-20.05,-77.60000000000001,-0.7854,0.6147,-0.0693,0.0172,-0.001,-0.007,-0.003,297.37,-0.009,-0.014,0.003,-0.194,-0.982,0.019,61.44,-15.17,-69.45,-0.3072,0.4323,0.5703,0.6272,0.002,0.001,0.005,0.0,0.0,0.0,0.0,0.0,0.0,-0.0001916885375976,0.0001916885375976,0.0073261260986328,-0.0219783782958984,-0.0036630630493164,-0.0036630630493164,0.0,0.0,0.0,0.0
2025-11-06 18:37:24.002,309.825,0.186,0.319,0.117,-0.388,-0.9,0.225,4.09,-6.95,-44.54,0.5690000000000001,-0.7778,-0.023,-0.2657,-0.017,0.0,0.011,295.3,-0.004,0.002,-0.006,-0.121,-0.956,-0.232,25.72,-20.05,-77.60000000000001,-0.7854,0.6147,-0.0693,0.0172,-0.001,-0.007,-0.003,297.37,-0.009,-0.014,0.003,-0.194,-0.982,0.019,61.44,-15.17,-69.45,-0.3072,0.4323,0.5703,0.6272,0.002,0.001,0.005,0.0,0.0,0.0,0.0,0.0,0.0,-0.0001916885375976,0.0001916885375976,0.0073261260986328,-0.0219783782958984,-0.0036630630493164,-0.0036630630493164,0.0,0.0,0.0,0.0
2025-11-06 18:37:24.002,309.83,0.188,0.325,0.12,-0.395,-0.9,0.226,4.0600000000000005,-7.19,-44.81,0.5685,-0.7779,-0.0234,-0.2665,-0.01,0.0,0.01,295.3,-0.004,0.002,-0.006,-0.121,-0.956,-0.232,25.72,-20.05,-77.60000000000001,-0.7854,0.6147,-0.0693,0.0172,-0.001,-0.007,-0.003,297.37,-0.009,-0.014,0.003,-0.194,-0.982,0.019,61.44,-15.17,-69.45,-0.3072,0.4323,0.5703,0.6272,0.002,0.001,0.005,0.0,0.0,0.0,0.0,0.0,0.0,-0.0001916885375976,0.0001916885375976,0.0073261260986328,-0.0219783782958984,-0.0036630630493164,-0.0036630630493164,0.0,0.0,0.0,0.0
2025-11-06 18:37:24.002,309.89,0.227,0.346,0.186,-0.406,-0.906,0.241,3.71,-7.04,-44.22,0.5619000000000001,-0.7787000000000001,-0.0271,-0.2775,-0.013,0.012,-0.001,295.3,-0.004,0.002,-0.006,-0.121,-0.956,-0.232,25.72,-20.05,-77.60000000000001,-0.7854,0.6147,-0.0693,0.0172,-0.001,-0.007,-0.003,297.37,-0.009,-0.014,0.003,-0.194,-0.982,0.019,61.44,-15.17,-69.45,-0.3072,0.4323,0.5703,0.6272,0.002,0.001,0.005,0.0,0.0,0.0,0.0,0.0,0.0,-0.0001916885375976,0.0001916885375976,0.0073261260986328,-0.0219783782958984,-0.0036630630493164,-0.0036630630493164,0.0,0.0,0.0,0.0
2025-11-06 18:37:24.002,309.87,0.197,0.369,0.18,-0.419,-0.897,0.246,4.82,-7.19,-44.25,0.5643,-0.7784000000000001,-0.026,-0.2737,0.003,0.001,-0.007,295.3,-0.004,0.002,-0.006,-0.121,-0.956,-0.232,25.72,-20.05,-77.60000000000001,-0.7854,0.6147,-0.0693,0.0172,-0.001,-0.007,-0.003,297.37,-0.009,-0.014,0.003,-0.194,-0.982,0.019,61.44,-15.17,-69.45,-0.3072,0.4323,0.5703,0.6272,0.002,0.001,0.005,0.0,0.0,0.0,0.0,0.0,0.0,-0.0001916885375976,0.0001916885375976,0.0073261260986328,-0.0219783782958984,-0.0036630630493164,-0.0036630630493164,0.0,0.0,0.0,0.0
2025-11-06 18:37:24.002,309.875,0.201,0.364,0.183,-0.416,-0.896,0.247,4.82,-7.19,-44.25,0.5637,-0.7784000000000001,-0.0263,-0.2747,0.0,0.001,-0.009,295.3,-0.004,0.002,-0.006,-0.121,-0.956,-0.232,25.72,-20.05,-77.60000000000001,-0.7854,0.6147,-0.0693,0.0172,-0.001,-0.007,-0.003,297.37,-0.009,-0.014,0.003,-0.194,-0.982,0.019,61.44,-15.17,-69.45,-0.3072,0.4323,0.5703,0.6272,0.002,0.001,0.005,0.0,0.0,0.0,0.0,0.0,0.0,-0.0001916885375976,0.0001916885375976,0.0073261260986328,-0.0219783782958984,-0.0036630630493164,-0.0036630630493164,0.0,0.0,0.0,0.0
2025-11-06 18:37:24.002,309.88,0.207,0.36,0.184,-0.413,-0.9,0.245,4.38,-6.84,-44.34,0.5631,-0.7785000000000001,-0.0265,-0.2756,-0.004,0.005,-0.006,295.3,-0.004,0.002,-0.006,-0.121,-0.956,-0.232,25.72,-20.05,-77.60000000000001,-0.7854,0.6147,-0.0693,0.0172,-0.001,-0.007,-0.003,297.37,-0.009,-0.014,0.003,-0.194,-0.982,0.019,61.44,-15.17,-69.45,-0.3072,0.4323,0.5703,0.6272,0.002,0.001,0.005,0.0,0.0,0.0,0.0,0.0,0.0,-0.0001916885375976,0.0001916885375976,0.0073261260986328,-0.0219783782958984,-0.0036630630493164,-0.0036630630493164,0.0,0.0,0.0,0.0
2025-11-06 18:37:24.002,309.885,0.212,0.355,0.189,-0.41,-0.902,0.246,4.38,-6.84,-44.34,0.5625,-0.7786000000000001,-0.0268,-0.2766,-0.008,0.008,-0.006,295.3,-0.004,0.002,-0.006,-0.121,-0.956,-0.232,25.72,-20.05,-77.60000000000001,-0.7854,0.6147,-0.0693,0.0172,-0.001,-0.007,-0.003,297.37,-0.009,-0.014,0.003,-0.194,-0.982,0.019,61.44,-15.17,-69.45,-0.3072,0.4323,0.5703,0.6272,0.002,0.001,0.005,0.0,0.0,0.0,0.0,0.0,0.0,-0.0001916885375976,0.0001916885375976,0.0073261260986328,-0.0219783782958984,-0.0036630630493164,-0.0036630630493164,0.0,0.0,0.0,0.0
2025-11-06 18:37:24.002,309.895,0.233,0.339,0.183,-0.406,-0.908,0.242,3.71,-7.04,-44.22,0.5613,-0.7788,-0.0273,-0.2784,-0.014,0.015,-0.002,295.3,-0.004,0.002,-0.006,-0.121,-0.956,-0.232,25.72,-20.05,-77.60000000000001,-0.7854,0.6147,-0.0693,0.0172,-0.001,-0.007,-0.003,297.37,-0.009,-0.014,0.003,-0.194,-0.982,0.019,61.44,-15.17,-69.45,-0.3072,0.4323,0.5703,0.6272,0.002,0.001,0.005,0.0,0.0,0.0,0.0,0.0,0.0,-0.0001916885375976,0.0001916885375976,0.0073261260986328,-0.0219783782958984,-0.0036630630493164,-0.0036630630493164,0.0,0.0,0.0,0.0
2025-11-06 18:37:24.002,309.9,0.238,0.336,0.178,-0.406,-0.911,0.242,3.71,-7.04,-44.22,0.5607,-0.779,-0.0276,-0.2792,-0.015,0.018,-0.001,295.3,-0.004,0.002,-0.006,-0.121,-0.956,-0.232,25.72,-20.05,-77.60000000000001,-0.7854,0.6147,-0.0693,0.0172,-0.001,-0.007,-0.003,297.37,-0.009,-0.014,0.003,-0.194,-0.982,0.019,61.44,-15.17,-69.45,-0.3072,0.4323,0.5703,0.6272,0.002,0.001,0.005,0.0,0.0,0.0,0.0,0.0,0.0,-0.0001916885375976,0.0001916885375976,0.0073261260986328,-0.0219783782958984,-0.0036630630493164,-0.0036630630493164,0.0,0.0,0.0,0.0
2025-11-06 18:37:24.002,309.92,0.218,0.293,0.148,-0.401,-0.912,0.246,3.39,-6.8100000000000005,-43.61,0.5583,-0.7795000000000001,-0.0287,-0.2825,-0.025,0.023,-0.003,295.3,-0.004,0.002,-0.006,-0.121,-0.956,-0.232,25.72,-20.05,-77.60000000000001,-0.7854,0.6147,-0.0693,0.0172,-0.001,-0.007,-0.003,297.37,-0.009,-0.014,0.003,-0.194,-0.982,0.019,61.44,-15.17,-69.45,-0.3072,0.4323,0.5703,0.6272,0.002,0.001,0.005,0.0,0.0,0.0,0.0,0.0,0.0,-0.0001916885375976,0.0001916885375976,0.0073261260986328,-0.0219783782958984,-0.0036630630493164,-0.0036630630493164,0.0,0.0,0.0,0.0
2025-11-06 18:37:24.002,309.91,0.236,0.319,0.164,-0.407,-0.913,0.244,3.24,-7.24,-43.29,0.5594,-0.7792,-0.0282,-0.2809,-0.016,0.022,-0.002,295.3,-0.004,0.002,-0.006,-0.121,-0.956,-0.232,25.72,-20.05,-77.60000000000001,-0.7854,0.6147,-0.0693,0.0172,-0.001,-0.007,-0.003,297.37,-0.009,-0.014,0.003,-0.194,-0.982,0.019,61.44,-15.17,-69.45,-0.3072,0.4323,0.5703,0.6272,0.002,0.001,0.005,0.0,0.0,0.0,0.0,0.0,0.0,-0.0001916885375976,0.0001916885375976,0.0073261260986328,-0.0219783782958984,-0.0036630630493164,-0.0036630630493164,0.0,0.0,0.0,0.0
2025-11-06 18:37:24.002,309.86,0.191,0.373,0.167,-0.421,-0.898,0.244,4.47,-7.24,-44.22,0.5653,-0.7783,-0.0254,-0.2718,0.008,0.001,-0.005,295.3,-0.004,0.002,-0.006,-0.121,-0.956,-0.232,25.72,-20.05,-77.60000000000001,-0.7854,0.6147,-0.0693,0.0172,-0.001,-0.007,-0.003,297.37,-0.009,-0.014,0.003,-0.194,-0.982,0.019,61.44,-15.17,-69.45,-0.3072,0.4323,0.5703,0.6272,0.002,0.001,0.005,0.0,0.0,0.0,0.0,0.0,0.0,-0.0001916885375976,0.0001916885375976,0.0073261260986328,-0.0219783782958984,-0.0036630630493164,-0.0036630630493164,0.0,0.0,0.0,0.0
2025-11-06 18:37:24.002,309.915,0.227,0.313,0.159,-0.404,-0.912,0.243,3.39,-6.8100000000000005,-43.61,0.5588000000000001,-0.7793,-0.0284,-0.2817,-0.021,0.022,-0.001,295.3,-0.004,0.002,-0.006,-0.121,-0.956,-0.232,25.72,-20.05,-77.60000000000001,-0.7854,0.6147,-0.0693,0.0172,-0.001,-0.007,-0.003,297.37,-0.009,-0.014,0.003,-0.194,-0.982,0.019,61.44,-15.17,-69.45,-0.3072,0.4323,0.5703,0.6272,0.002,0.001,0.005,0.0,0.0,0.0,0.0,0.0,0.0,-0.0001916885375976,0.0001916885375976,0.0073261260986328,-0.0219783782958984,-0.0036630630493164,-0.0036630630493164,0.0,0.0,0.0,0.0
2025-11-06 18:37:24.002,309.865,0.193,0.373,0.173,-0.419,-0.896,0.246,4.82,-7.19,-44.25,0.5648000000000001,-0.7783,-0.0257,-0.2728,0.005,0.0,-0.008,295.3,-0.004,0.002,-0.006,-0.121,-0.956,-0.232,25.72,-20.05,-77.60000000000001,-0.7854,0.6147,-0.0693,0.0172,-0.001,-0.007,-0.003,297.37,-0.009,-0.014,0.003,-0.194,-0.982,0.019,61.44,-15.17,-69.45,-0.3072,0.4323,0.5703,0.6272,0.002,0.001,0.005,0.0,0.0,0.0,0.0,0.0,0.0,-0.0001916885375976,0.0001916885375976,0.0073261260986328,-0.0219783782958984,-0.0036630630493164,-0.0036630630493164,0.0,0.0,0.0,0.0
2025-11-06 18:37:24.002,309.905,0.238,0.329,0.173,-0.407,-0.912,0.243,3.24,-7.24,-43.29,0.56,-0.7791,-0.0279,-0.2801,-0.015,0.02,-0.001,295.3,-0.004,0.002,-0.006,-0.121,-0.956,-0.232,25.72,-20.05,-77.60000000000001,-0.7854,0.6147,-0.0693,0.0172,-0.001,-0.007,-0.003,297.37,-0.009,-0.014,0.003,-0.194,-0.982,0.019,61.44,-15.17,-69.45,-0.3072,0.4323,0.5703,0.6272,0.002,0.001,0.005,0.0,0.0,0.0,0.0,0.0,0.0,-0.0001916885375976,0.0001916885375976,0.0073261260986328,-0.0219783782958984,-0.0036630630493164,-0.0036630630493164,0.0,0.0,0.0,0.0
2025-11-06 18:37:24.002,310.04,0.213,0.202,0.198,-0.444,-0.886,0.264,2.95,-7.07,-42.15,0.5447000000000001,-0.7829,-0.0326,-0.2988,-0.006,0.01,-0.011,295.3,-0.004,0.002,-0.006,-0.121,-0.956,-0.232,25.72,-20.05,-77.60000000000001,-0.7854,0.6147,-0.0693,0.0172,-0.001,-0.007,-0.003,297.37,-0.009,-0.014,0.003,-0.194,-0.982,0.019,61.44,-15.17,-69.45,-0.3072,0.4323,0.5703,0.6272,0.002,0.001,0.005,0.0,0.0,0.0,0.0,0.0,0.0,-0.0001916885375976,0.0001916885375976,0.0073261260986328,-0.0219783782958984,-0.0036630630493164,-0.0036630630493164,0.0,0.0,0.0,0.0
2025-11-06 18:37:24.002,309.99,0.213,0.24,0.164,-0.442,-0.882,0.264,2.51,-8.18,-42.85,0.5509000000000001,-0.7811,-0.032,-0.292,0.002,0.0,-0.017,295.3,-0.004,0.002,-0.006,-0.121,-0.956,-0.232,25.72,-20.05,-77.60000000000001,-0.7854,0.6147,-0.0693,0.0172,-0.001,-0.007,-0.003,297.37,-0.009,-0.014,0.003,-0.194,-0.982,0.019,61.44,-15.17,-69.45,-0.3072,0.4323,0.5703,0.6272,0.002,0.001,0.005,0.0,0.0,0.0,0.0,0.0,0.0,-0.0001916885375976,0.0001916885375976,0.0073261260986328,-0.0219783782958984,-0.0036630630493164,-0.0036630630493164,0.0,0.0,0.0,0.0
2025-11-06 18:37:24.002,309.975,0.194,0.256,0.137,-0.422,-0.882,0.256,2.48,-8.65,-43.55,0.5525,-0.7807000000000001,-0.0315,-0.29,-0.014,-0.001,-0.01,295.3,-0.004,0.002,-0.006,-0.121,-0.956,-0.232,25.72,-20.05,-77.60000000000001,-0.7854,0.6147,-0.0693,0.0172,-0.001,-0.007,-0.003,297.37,-0.009,-0.014,0.003,-0.194,-0.982,0.019,61.44,-15.17,-69.45,-0.3072,0.4323,0.5703,0.6272,0.002,0.001,0.005,0.0,0.0,0.0,0.0,0.0,0.0,-0.0001916885375976,0.0001916885375976,0.0073261260986328,-0.0219783782958984,-0.0036630630493164,-0.0036630630493164,0.0,0.0,0.0,0.0
2025-11-06 18:37:24.002,309.97,0.194,0.259,0.132,-0.414,-0.883,0.252,2.48,-8.65,-43.55,0.5531,-0.7806000000000001,-0.0313,-0.2893,-0.02,-0.001,-0.006,295.3,-0.004,0.002,-0.006,-0.121,-0.956,-0.232,25.72,-20.05,-77.60000000000001,-0.7854,0.6147,-0.0693,0.0172,-0.001,-0.007,-0.003,297.37,-0.009,-0.014,0.003,-0.194,-0.982,0.019,61.44,-15.17,-69.45,-0.3072,0.4323,0.5703,0.6272,0.002,0.001,0.005,0.0,0.0,0.0,0.0,0.0,0.0,-0.0001916885375976,0.0001916885375976,0.0073261260986328,-0.0219783782958984,-0.0036630630493164,-0.0036630630493164,0.0,0.0,0.0,0.0
2025-11-06 18:37:24.002,309.965,0.192,0.262,0.126,-0.41,-0.886,0.25,2.48,-8.65,-43.55,0.5536,-0.7805000000000001,-0.031,-0.2887,-0.024,0.001,-0.004,295.3,-0.004,0.002,-0.006,-0.121,-0.956,-0.232,25.72,-20.05,-77.60000000000001,-0.7854,0.6147,-0.0693,0.0172,-0.001,-0.007,-0.003,297.37,-0.009,-0.014,0.003,-0.194,-0.982,0.019,61.44,-15.17,-69.45,-0.3072,0.4323,0.5703,0.6272,0.002,0.001,0.005,0.0,0.0,0.0,0.0,0.0,0.0,-0.0001916885375976,0.0001916885375976,0.0073261260986328,-0.0219783782958984,-0.0036630630493164,-0.0036630630493164,0.0,0.0,0.0,0.0
