Youthstudy/imurecv/data/merged/merged_20251106_183430.csv
System_Time,Timestamp_1,Gyro_X_1,Gyro_Y_1,Gyro_Z_1,Acc_X_1,Acc_Y_1,Acc_Z_1,Mag_X_1,Mag_Y_1,Mag_Z_1,Quat_W_1,Quat_X_1,Quat_Y_1,Quat_Z_1,Linear_Acc_X_1,Linear_Acc_Y_1,Linear_Acc_Z_1,Timestamp_2,Gyro_X_2,Gyro_Y_2,Gyro_Z_2,Acc_X_2,Acc_Y_2,Acc_Z_2,Mag_X_2,Mag_Y_2,Mag_Z_2,Quat_W_2,Quat_X_2,Quat_Y_2,Quat_Z_2,Linear_Acc_X_2,Linear_Acc_Y_2,Linear_Acc_Z_2,Timestamp_3,Gyro_X_3,Gyro_Y_3,Gyro_Z_3,Acc_X_3,Acc_Y_3,Acc_Z_3,Mag_X_3,Mag_Y_3,Mag_Z_3,Quat_W_3,Quat_X_3,Quat_Y_3,Quat_Z_3,Linear_Acc_X_3,Linear_Acc_Y_3,Linear_Acc_Z_3,kd_joint1,kd_joint2,kp_joint1,kp_joint2,p_des_joint1,p_des_joint2,ret0_joint1,ret0_joint2,ret1_joint1,ret1_joint2,ret2_joint1,ret2_joint2,t_ff_joint1,t_ff_joint2,v_des_joint1,v_des_joint2
2025-11-06 18:34:30.436,134.94,-0.038,-0.005,-0.001,-0.342,-0.93,0.23,7.65,-8.0,-44.54,0.5943,-0.7743,-0.0126,-0.2169,0.003,0.002,-0.004,123.725,-0.006,-0.013,-0.001,-0.13,-0.969,-0.167,27.68,-23.15,-75.7,-0.1918,0.0719,-0.639,-0.7413000000000001,0.0,-0.006,-0.005,124.435,-0.006,-0.012,0.006,-0.157,-0.986,0.099,64.04,-16.19,-65.94,0.3555,-0.2828,0.6819000000000001,0.5732,-0.003,0.003,-0.009,0.0,0.0,0.0,0.0,0.0,0.0,0.0028762817382812,-0.0001916885375976,-0.0219783782958984,0.036630630493164,-0.0109891891479492,-0.018315315246582,0.0,0.0,0.0,0.0
2025-11-06 18:34:30.436,134.97,-0.039,-0.013,0.006,-0.344,-0.927,0.227,7.83,-7.13,-45.1,0.5946,-0.774,-0.0123,-0.2169,0.005,-0.001,-0.002,123.725,-0.006,-0.013,-0.001,-0.13,-0.969,-0.167,27.68,-23.15,-75.7,-0.1918,0.0719,-0.639,-0.7413000000000001,0.0,-0.006,-0.005,124.435,-0.006,-0.012,0.006,-0.157,-0.986,0.099,64.04,-16.19,-65.94,0.3555,-0.2828,0.6819000000000001,0.5732,-0.003,0.003,-0.009,0.0,0.0,0.0,0.0,0.0,0.0,0.0028762817382812,-0.0001916885375976,-0.0219783782958984,0.036630630493164,-0.0109891891479492,-0.018315315246582,0.0,0.0,0.0,0.0
2025-11-06 18:34:30.436,134.995,-0.038,-0.006,0.009,-0.345,-0.93,0.228,8.09,-7.86,-45.6,0.595,-0.7737,-0.0119,-0.2169,0.005,0.001,-0.004,123.725,-0.006,-0.013,-0.001,-0.13,-0.969,-0.167,27.68,-23.15,-75.7,-0.1918,0.0719,-0.639,-0.7413000000000001,0.0,-0.006,-0.005,124.435,-0.006,-0.012,0.006,-0.157,-0.986,0.099,64.04,-16.19,-65.94,0.3555,-0.2828,0.6819000000000001,0.5732,-0.003,0.003,-0.009,0.0,0.0,0.0,0.0,0.0,0.0,0.0028762817382812,-0.0001916885375976,-0.0219783782958984,0.036630630493164,-0.0109891891479492,-0.018315315246582,0.0,0.0,0.0,0.0
2025-11-06 18:34:30.436,134.985,-0.041,-0.016,0.011,-0.346,-0.929,0.228,8.09,-7.86,-45.6,0.5949,-0.7738,-0.0121,-0.2169,0.006,0.0,-0.004,123.725,-0.006,-0.013,-0.001,-0.13,-0.969,-0.167,27.68,-23.15,-75.7,-0.1918,0.0719,-0.639,-0.7413000000000001,0.0,-0.006,-0.005,124.435,-0.006,-0.012,0.006,-0.157,-0.986,0.099,64.04,-16.19,-65.94,0.3555,-0.2828,0.6819000000000001,0.5732,-0.003,0.003,-0.009,0.0,0.0,0.0,0.0,0.0,0.0,0.0028762817382812,-0.0001916885375976,-0.0219783782958984,0.036630630493164,-0.0109891891479492,-0.018315315246582,0.0,0.0,0.0,0.0
2025-11-06 18:34:30.436,134.98,-0.041,-0.015,0.008,-0.345,-0.927,0.228,7.83,-7.13,-45.1,0.5948,-0.7739,-0.0121,-0.2169,0.006,-0.001,-0.003,123.725,-0.006,-0.013,-0.001,-0.13,-0.969,-0.167,27.68,-23.15,-75.7,-0.1918,0.0719,-0.639,-0.7413000000000001,0.0,-0.006,-0.005,124.435,-0.006,-0.012,0.006,-0.157,-0.986,0.099,64.04,-16.19,-65.94,0.3555,-0.2828,0.6819000000000001,0.5732,-0.003,0.003,-0.009,0.0,0.0,0.0,0.0,0.0,0.0,0.0028762817382812,-0.0001916885375976,-0.0219783782958984,0.036630630493164,-0.0109891891479492,-0.018315315246582,0.0,0.0,0.0,0.0
2025-11-06 18:34:30.436,134.975,-0.042,-0.016,0.007,-0.343,-0.927,0.226,7.83,-7.13,-45.1,0.5947,-0.7739,-0.0122,-0.2169,0.004,-0.001,-0.002,123.725,-0.006,-0.013,-0.001,-0.13,-0.969,-0.167,27.68,-23.15,-75.7,-0.1918,0.0719,-0.639,-0.7413000000000001,0.0,-0.006,-0.005,124.435,-0.006,-0.012,0.006,-0.157,-0.986,0.099,64.04,-16.19,-65.94,0.3555,-0.2828,0.6819000000000001,0.5732,-0.003,0.003,-0.009,0.0,0.0,0.0,0.0,0.0,0.0,0.0028762817382812,-0.0001916885375976,-0.0219783782958984,0.036630630493164,-0.0109891891479492,-0.018315315246582,0.0,0.0,0.0,0.0
2025-11-06 18:34:30.436,134.95,-0.039,-0.006,0.001,-0.343,-0.93,0.23,9.5,-6.8100000000000005,-44.63,0.5944,-0.7742,-0.0125,-0.2169,0.004,0.001,-0.004,123.725,-0.006,-0.013,-0.001,-0.13,-0.969,-0.167,27.68,-23.15,-75.7,-0.1918,0.0719,-0.639,-0.7413000000000001,0.0,-0.006,-0.005,124.435,-0.006,-0.012,0.006,-0.157,-0.986,0.099,64.04,-16.19,-65.94,0.3555,-0.2828,0.6819000000000001,0.5732,-0.003,0.003,-0.009,0.0,0.0,0.0,0.0,0.0,0.0,0.0028762817382812,-0.0001916885375976,-0.0219783782958984,0.036630630493164,-0.0109891891479492,-0.018315315246582,0.0,0.0,0.0,0.0
2025-11-06 18:34:30.436,134.965,-0.038,-0.01,0.004,-0.344,-0.927,0.228,8.5,-7.51,-44.51,0.5946,-0.774,-0.0124,-0.2169,0.005,0.0,-0.003,123.725,-0.006,-0.013,-0.001,-0.13,-0.969,-0.167,27.68,-23.15,-75.7,-0.1918,0.0719,-0.639,-0.7413000000000001,0.0,-0.006,-0.005,124.435,-0.006,-0.012,0.006,-0.157,-0.986,0.099,64.04,-16.19,-65.94,0.3555,-0.2828,0.6819000000000001,0.5732,-0.003,0.003,-0.009,0.0,0.0,0.0,0.0,0.0,0.0,0.0028762817382812,-0.0001916885375976,-0.0219783782958984,0.036630630493164,-0.0109891891479492,-0.018315315246582,0.0,0.0,0.0,0.0
2025-11-06 18:34:30.436,134.96,-0.037,-0.008,0.002,-0.343,-0.927,0.227,8.5,-7.51,-44.51,0.5945,-0.7741,-0.0124,-0.2169,0.004,-0.001,-0.001,123.725,-0.006,-0.013,-0.001,-0.13,-0.969,-0.167,27.68,-23.15,-75.7,-0.1918,0.0719,-0.639,-0.7413000000000001,0.0,-0.006,-0.005,124.435,-0.006,-0.012,0.006,-0.157,-0.986,0.099,64.04,-16.19,-65.94,0.3555,-0.2828,0.6819000000000001,0.5732,-0.003,0.003,-0.009,0.0,0.0,0.0,0.0,0.0,0.0,0.0028762817382812,-0.0001916885375976,-0.0219783782958984,0.036630630493164,-0.0109891891479492,-0.018315315246582,0.0,0.0,0.0,0.0
2025-11-06 18:34:30.436,134.955,-0.039,-0.008,0.002,-0.343,-0.927,0.227,9.5,-6.8100000000000005,-44.63,0.5945,-0.7741,-0.0125,-0.2169,0.004,0.0,-0.001,123.725,-0.006,-0.013,-0.001,-0.13,-0.969,-0.167,27.68,-23.15,-75.7,-0.1918,0.0719,-0.639,-0.7413000000000001,0.0,-0.006,-0.005,124.435,-0.006,-0.012,0.006,-0.157,-0.986,0.099,64.04,-16.19,-65.94,0.3555,-0.2828,0.6819000000000001,0.5732,-0.003,0.003,-0.009,0.0,0.0,0.0,0.0,0.0,0.0,0.0028762817382812,-0.0001916885375976,-0.0219783782958984,0.036630630493164,-0.0109891891479492,-0.018315315246582,0.0,0.0,0.0,0.0
2025-11-06 18:34:30.436,134.945,-0.036,-0.004,0.0,-0.343,-0.93,0.229,9.5,-6.8100000000000005,-44.63,0.5943,-0.7742,-0.0126,-0.2169,0.004,0.002,-0.003,123.725,-0.006,-0.013,-0.001,-0.13,-0.969,-0.167,27.68,-23.15,-75.7,-0.1918,0.0719,-0.639,-0.7413000000000001,0.0,-0.006,-0.005,124.435,-0.006,-0.012,0.006,-0.157,-0.986,0.099,64.04,-16.19,-65.94,0.3555,-0.2828,0.6819000000000001,0.5732,-0.003,0.003,-0.009,0.0,0.0,0.0,0.0,0.0,0.0,0.0028762817382812,-0.0001916885375976,-0.0219783782958984,0.036630630493164,-0.0109891891479492,-0.018315315246582,0.0,0.0,0.0,0.0
2025-11-06 18:34:30.436,135.005,-0.028,0.0,0.006,-0.35,-0.932,0.222,8.15,-7.07,-44.63,0.5951000000000001,-0.7736000000000001,-0.0118,-0.2169,0.01,0.002,0.001,123.725,-0.006,-0.013,-0.001,-0.13,-0.969,-0.167,27.68,-23.15,-75.7,-0.1918,0.0719,-0.639,-0.7413000000000001,0.0,-0.006,-0.005,124.435,-0.006,-0.012,0.006,-0.157,-0.986,0.099,64.04,-16.19,-65.94,0.3555,-0.2828,0.6819000000000001,0.5732,-0.003,0.003,-0.009,0.0,0.0,0.0,0.0,0.0,0.0,0.0028762817382812,-0.0001916885375976,-0.0219783782958984,0.036630630493164,-0.0109891891479492,-0.018315315246582,0.0,0.0,0.0,0.0
2025-11-06 18:34:30.436,135.0,-0.037,-0.007,0.01,-0.348,-0.93,0.226,8.15,-7.07,-44.63,0.595,-0.7737,-0.0119,-0.2169,0.008,0.001,-0.001,123.725,-0.006,-0.013,-0.001,-0.13,-0.969,-0.167,27.68,-23.15,-75.7,-0.1918,0.0719,-0.639,-0.7413000000000001,0.0,-0.006,-0.005,124.435,-0.006,-0.012,0.006,-0.157,-0.986,0.099,64.04,-16.19,-65.94,0.3555,-0.2828,0.6819000000000001,0.5732,-0.003,0.003,-0.009,0.0,0.0,0.0,0.0,0.0,0.0,0.0028762817382812,-0.0001916885375976,-0.0219783782958984,0.036630630493164,-0.0109891891479492,-0.018315315246582,0.0,0.0,0.0,0.0
2025-11-06 18:34:30.436,135.065,-0.03,0.005,0.002,-0.351,-0.928,0.224,7.86,-6.72,-44.95,0.5956,-0.7732,-0.0116,-0.2173,0.01,0.0,-0.001,123.725,-0.006,-0.013,-0.001,-0.13,-0.969,-0.167,27.68,-23.15,-75.7,-0.1918,0.0719,-0.639,-0.7413000000000001,0.0,-0.006,-0.005,124.435,-0.006,-0.012,0.006,-0.157,-0.986,0.099,64.04,-16.19,-65.94,0.3555,-0.2828,0.6819000000000001,0.5732,-0.003,0.003,-0.009,0.0,0.0,0.0,0.0,0.0,0.0,0.0028762817382812,-0.0001916885375976,-0.0219783782958984,0.036630630493164,-0.0109891891479492,-0.018315315246582,0.0,0.0,0.0,0.0
2025-11-06 18:34:30.436,134.99,-0.039,-0.01,0.01,-0.346,-0.928,0.23,8.09,-7.86,-45.6,0.5949,-0.7738,-0.012,-0.2169,0.006,0.0,-0.005,123.725,-0.006,-0.013,-0.001,-0.13,-0.969,-0.167,27.68,-23.15,-75.7,-0.1918,0.0719,-0.639,-0.7413000000000001,0.0,-0.006,-0.005,124.435,-0.006,-0.012,0.006,-0.157,-0.986,0.099,64.04,-16.19,-65.94,0.3555,-0.2828,0.6819000000000001,0.5732,-0.003,0.003,-0.009,0.0,0.0,0.0,0.0,0.0,0.0,0.0028762817382812,-0.0001916885375976,-0.0219783782958984,0.036630630493164,-0.0109891891479492,-0.018315315246582,0.0,0.0,0.0,0.0
2025-11-06 18:34:30.436,135.015,-0.022,-0.004,0.002,-0.353,-0.932,0.22,8.24,-7.22,-44.92,0.5952000000000001,-0.7736000000000001,-0.0118,-0.217,0.013,0.003,0.003,123.725,-0.006,-0.013,-0.001,-0.13,-0.969,-0.167,27.68,-23.15,-75.7,-0.1918,0.0719,-0.639,-0.7413000000000001,0.0,-0.006,-0.005,124.435,-0.006,-0.012,0.006,-0.157,-0.986,0.099,64.04,-16.19,-65.94,0.3555,-0.2828,0.6819000000000001,0.5732,-0.003,0.003,-0.009,0.0,0.0,0.0,0.0,0.0,0.0,0.0028762817382812,-0.0001916885375976,-0.0219783782958984,0.036630630493164,-0.0109891891479492,-0.018315315246582,0.0,0.0,0.0,0.0
2025-11-06 18:34:30.436,135.01,-0.025,-0.003,0.003,-0.35,-0.933,0.22,8.24,-7.22,-44.92,0.5951000000000001,-0.7736000000000001,-0.0118,-0.2169,0.011,0.004,0.003,123.725,-0.006,-0.013,-0.001,-0.13,-0.969,-0.167,27.68,-23.15,-75.7,-0.1918,0.0719,-0.639,-0.7413000000000001,0.0,-0.006,-0.005,124.435,-0.006,-0.012,0.006,-0.157,-0.986,0.099,64.04,-16.19,-65.94,0.3555,-0.2828,0.6819000000000001,0.5732,-0.003,0.003,-0.009,0.0,0.0,0.0,0.0,0.0,0.0,0.0028762817382812,-0.0001916885375976,-0.0219783782958984,0.036630630493164,-0.0109891891479492,-0.018315315246582,0.0,0.0,0.0,0.0
2025-11-06 18:34:30.436,135.075,-0.034,0.001,0.002,-0.349,-0.928,0.224,8.41,-6.66,-44.54,0.5957,-0.7731,-0.0115,-0.2174,0.008,0.0,-0.001,123.725,-0.006,-0.013,-0.001,-0.13,-0.969,-0.167,27.68,-23.15,-75.7,-0.1918,0.0719,-0.639,-0.7413000000000001,0.0,-0.006,-0.005,124.435,-0.006,-0.012,0.006,-0.157,-0.986,0.099,64.04,-16.19,-65.94,0.3555,-0.2828,0.6819000000000001,0.5732,-0.003,0.003,-0.009,0.0,0.0,0.0,0.0,0.0,0.0,0.0028762817382812,-0.0001916885375976,-0.0219783782958984,0.036630630493164,-0.0109891891479492,-0.018315315246582,0.0,0.0,0.0,0.0
2025-11-06 18:34:30.436,135.06,-0.026,0.007,0.0,-0.352,-0.929,0.224,7.86,-6.72,-44.95,0.5955,-0.7732,-0.0116,-0.2173,0.012,0.0,-0.001,123.725,-0.006,-0.013,-0.001,-0.13,-0.969,-0.167,27.68,-23.15,-75.7,-0.1918,0.0719,-0.639,-0.7413000000000001,0.0,-0.006,-0.005,124.435,-0.006,-0.012,0.006,-0.157,-0.986,0.099,64.04,-16.19,-65.94,0.3555,-0.2828,0.6819000000000001,0.5732,-0.003,0.003,-0.009,0.0,0.0,0.0,0.0,0.0,0.0,0.0028762817382812,-0.0001916885375976,-0.0219783782958984,0.036630630493164,-0.0109891891479492,-0.018315315246582,0.0,0.0,0.0,0.0
2025-11-06 18:34:30.436,135.055,-0.02,0.007,0.0,-0.353,-0.928,0.223,8.15,-6.69,-44.46,0.5955,-0.7732,-0.0116,-0.2172,0.013,0.0,0.0,123.725,-0.006,-0.013,-0.001,-0.13,-0.969,-0.167,27.68,-23.15,-75.7,-0.1918,0.0719,-0.639,-0.7413000000000001,0.0,-0.006,-0.005,124.435,-0.006,-0.012,0.006,-0.157,-0.986,0.099,64.04,-16.19,-65.94,0.3555,-0.2828,0.6819000000000001,0.5732,-0.003,0.003,-0.009,0.0,0.0,0.0,0.0,0.0,0.0,0.0028762817382812,-0.0001916885375976,-0.0219783782958984,0.036630630493164,-0.0109891891479492,-0.018315315246582,0.0,0.0,0.0,0.0
2025-11-06 18:34:30.436,135.05,-0.02,0.007,-0.002,-0.353,-0.929,0.22,8.15,-6.69,-44.46,0.5955,-0.7733,-0.0116,-0.2172,0.013,0.0,0.001,123.725,-0.006,-0.013,-0.001,-0.13,-0.969,-0.167,27.68,-23.15,-75.7,-0.1918,0.0719,-0.639,-0.7413000000000001,0.0,-0.006,-0.005,124.435,-0.006,-0.012,0.006,-0.157,-0.986,0.099,64.04,-16.19,-65.94,0.3555,-0.2828,0.6819000000000001,0.5732,-0.003,0.003,-0.009,0.0,0.0,0.0,0.0,0.0,0.0,0.0028762817382812,-0.0001916885375976,-0.0219783782958984,0.036630630493164,-0.0109891891479492,-0.018315315246582,0.0,0.0,0.0,0.0
2025-11-06 18:34:30.436,135.07,-0.032,0.002,0.002,-0.35,-0.93,0.223,7.86,-6.72,-44.95,0.5956,-0.7731,-0.0115,-0.2173,0.009,0.001,-0.001,123.725,-0.006,-0.013,-0.001,-0.13,-0.969,-0.167,27.68,-23.15,-75.7,-0.1918,0.0719,-0.639,-0.7413000000000001,0.0,-0.006,-0.005,124.435,-0.006,-0.012,0.006,-0.157,-0.986,0.099,64.04,-16.19,-65.94,0.3555,-0.2828,0.6819000000000001,0.5732,-0.003,0.003,-0.009,0.0,0.0,0.0,0.0,0.0,0.0,0.0028762817382812,-0.0001916885375976,-0.0219783782958984,0.036630630493164,-0.0109891891479492,-0.018315315246582,0.0,0.0,0.0,0.0
2025-11-06 18:34:30.436,135.04,-0.02,0.004,-0.003,-0.353,-0.93,0.219,8.38,-6.84,-44.4,0.5954,-0.7734000000000001,-0.0117,-0.2171,0.013,0.001,0.003,123.725,-0.006,-0.013,-0.001,-0.13,-0.969,-0.167,27.68,-23.15,-75.7,-0.1918,0.0719,-0.639,-0.7413000000000001,0.0,-0.006,-0.005,124.435,-0.006,-0.012,0.006,-0.157,-0.986,0.099,64.04,-16.19,-65.94,0.3555,-0.2828,0.6819000000000001,0.5732,-0.003,0.003,-0.009,0.0,0.0,0.0,0.0,0.0,0.0,0.0028762817382812,-0.0001916885375976,-0.0219783782958984,0.036630630493164,-0.0109891891479492,-0.018315315246582,0.0,0.0,0.0,0.0
2025-11-06 18:34:30.436,135.035,-0.02,0.004,-0.002,-0.353,-0.931,0.219,8.38,-6.84,-44.4,0.5953,-0.7734000000000001,-0.0117,-0.2171,0.013,0.001,0.003,123.725,-0.006,-0.013,-0.001,-0.13,-0.969,-0.167,27.68,-23.15,-75.7,-0.1918,0.0719,-0.639,-0.7413000000000001,0.0,-0.006,-0.005,124.435,-0.006,-0.012,0.006,-0.157,-0.986,0.099,64.04,-16.19,-65.94,0.3555,-0.2828,0.6819000000000001,0.5732,-0.003,0.003,-0.009,0.0,0.0,0.0,0.0,0.0,0.0,0.0028762817382812,-0.0001916885375976,-0.0219783782958984,0.036630630493164,-0.0109891891479492,-0.018315315246582,0.0,0.0,0.0,0.0
2025-11-06 18:34:30.436,135.03,-0.019,0.003,-0.002,-0.353,-0.932,0.218,8.38,-6.66,-44.54,0.5953,-0.7734000000000001,-0.0117,-0.217,0.013,0.003,0.004,123.725,-0.006,-0.013,-0.001,-0.13,-0.969,-0.167,27.68,-23.15,-75.7,-0.1918,0.0719,-0.639,-0.7413000000000001,0.0,-0.006,-0.005,124.435,-0.006,-0.012,0.006,-0.157,-0.986,0.099,64.04,-16.19,-65.94,0.3555,-0.2828,0.6819000000000001,0.5732,-0.003,0.003,-0.009,0.0,0.0,0.0,0.0,0.0,0.0,0.0028762817382812,-0.0001916885375976,-0.0219783782958984,0.036630630493164,-0.0109891891479492,-0.018315315246582,0.0,0.0,0.0,0.0
2025-11-06 18:34:30.436,135.025,-0.019,0.0,0.001,-0.353,-0.93,0.219,8.38,-6.66,-44.54,0.5953,-0.7735000000000001,-0.0117,-0.217,0.013,0.001,0.003,123.725,-0.006,-0.013,-0.001,-0.13,-0.969,-0.167,27.68,-23.15,-75.7,-0.1918,0.0719,-0.639,-0.7413000000000001,0.0,-0.006,-0.005,124.435,-0.006,-0.012,0.006,-0.157,-0.986,0.099,64.04,-16.19,-65.94,0.3555,-0.2828,0.6819000000000001,0.5732,-0.003,0.003,-0.009,0.0,0.0,0.0,0.0,0.0,0.0,0.0028762817382812,-0.0001916885375976,-0.0219783782958984,0.036630630493164,-0.0109891891479492,-0.018315315246582,0.0,0.0,0.0,0.0
2025-11-06 18:34:30.436,135.02,-0.02,-0.001,0.001,-0.354,-0.932,0.22,8.24,-7.22,-44.92,0.5952000000000001,-0.7735000000000001,-0.0117,-0.217,0.014,0.003,0.003,123.725,-0.006,-0.013,-0.001,-0.13,-0.969,-0.167,27.68,-23.15,-75.7,-0.1918,0.0719,-0.639,-0.7413000000000001,0.0,-0.006,-0.005,124.435,-0.006,-0.012,0.006,-0.157,-0.986,0.099,64.04,-16.19,-65.94,0.3555,-0.2828,0.6819000000000001,0.5732,-0.003,0.003,-0.009,0.0,0.0,0.0,0.0,0.0,0.0,0.0028762817382812,-0.0001916885375976,-0.0219783782958984,0.036630630493164,-0.0109891891479492,-0.018315315246582,0.0,0.0,0.0,0.0
2025-11-06 18:34:30.436,135.045,-0.021,0.007,-0.002,-0.354,-0.929,0.219,8.38,-6.84,-44.4,0.5954,-0.7733,-0.0116,-0.2171,0.014,0.0,0.003,123.725,-0.006,-0.013,-0.001,-0.13,-0.969,-0.167,27.68,-23.15,-75.7,-0.1918,0.0719,-0.639,-0.7413000000000001,0.0,-0.006,-0.005,124.435,-0.006,-0.012,0.006,-0.157,-0.986,0.099,64.04,-16.19,-65.94,0.3555,-0.2828,0.6819000000000001,0.5732,-0.003,0.003,-0.009,0.0,0.0,0.0,0.0,0.0,0.0,0.0028762817382812,-0.0001916885375976,-0.0219783782958984,0.036630630493164,-0.0109891891479492,-0.018315315246582,0.0,0.0,0.0,0.0
2025-11-06 18:34:30.437,135.135,-0.019,0.0,0.0,-0.345,-0.937,0.222,9.06,-7.57,-44.6,0.5961000000000001,-0.7727,-0.0113,-0.2174,0.005,0.008,-0.001,123.725,-0.006,-0.013,-0.001,-0.13,-0.969,-0.167,27.68,-23.15,-75.7,-0.1918,0.0719,-0.639,-0.7413000000000001,0.0,-0.006,-0.005,124.435,-0.006,-0.012,0.006,-0.157,-0.986,0.099,64.04,-16.19,-65.94,0.3555,-0.2828,0.6819000000000001,0.5732,-0.003,0.003,-0.009,0.0,0.0,0.0,0.0,0.0,0.0,0.0028762817382812,-0.0001916885375976,-0.0219783782958984,0.036630630493164,-0.0109891891479492,-0.018315315246582,0.0,0.0,0.0,0.0
2025-11-06 18:34:30.437,135.13,-0.018,0.0,0.0,-0.349,-0.937,0.222,8.97,-6.63,-44.89,0.5961000000000001,-0.7727,-0.0113,-0.2174,0.009,0.008,0.0,123.725,-0.006,-0.013,-0.001,-0.13,-0.969,-0.167,27.68,-23.15,-75.7,-0.1918,0.0719,-0.639,-0.7413000000000001,0.0,-0.006,-0.005,124.435,-0.006,-0.012,0.006,-0.157,-0.986,0.099,64.04,-16.19,-65.94,0.3555,-0.2828,0.6819000000000001,0.5732,-0.003,0.003,-0.009,0.0,0.0,0.0,0.0,0.0,0.0,0.0028762817382812,-0.0001916885375976,-0.0219783782958984,0.036630630493164,-0.0109891891479492,-0.018315315246582,0.0,0.0,0.0,0.0
2025-11-06 18:34:30.437,135.12,-0.013,-0.004,-0.001,-0.348,-0.936,0.223,8.27,-6.66,-45.19,0.596,-0.7728,-0.0113,-0.2174,0.007,0.007,-0.001,123.725,-0.006,-0.013,-0.001,-0.13,-0.969,-0.167,27.68,-23.15,-75.7,-0.1918,0.0719,-0.639,-0.7413000000000001,0.0,-0.006,-0.005,124.435,-0.006,-0.012,0.006,-0.157,-0.986,0.099,64.04,-16.19,-65.94,0.3555,-0.2828,0.6819000000000001,0.5732,-0.003,0.003,-0.009,0.0,0.0,0.0,0.0,0.0,0.0,0.0028762817382812,-0.0001916885375976,-0.0219783782958984,0.036630630493164,-0.0109891891479492,-0.018315315246582,0.0,0.0,0.0,0.0
2025-11-06 18:34:30.437,135.115,-0.008,-0.006,-0.002,-0.349,-0.936,0.222,8.27,-6.66,-45.19,0.596,-0.7728,-0.0113,-0.2174,0.008,0.007,0.0,123.725,-0.006,-0.013,-0.001,-0.13,-0.969,-0.167,27.68,-23.15,-75.7,-0.1918,0.0719,-0.639,-0.7413000000000001,0.0,-0.006,-0.005,124.435,-0.006,-0.012,0.006,-0.157,-0.986,0.099,64.04,-16.19,-65.94,0.3555,-0.2828,0.6819000000000001,0.5732,-0.003,0.003,-0.009,0.0,0.0,0.0,0.0,0.0,0.0,0.0028762817382812,-0.0001916885375976,-0.0219783782958984,0.036630630493164,-0.0109891891479492,-0.018315315246582,0.0,0.0,0.0,0.0
2025-11-06 18:34:30.437,135.1,-0.019,0.0,-0.002,-0.347,-0.931,0.22,8.18,-6.8100000000000005,-44.69,0.5959,-0.7728,-0.0114,-0.2175,0.006,0.002,0.001,123.725,-0.006,-0.013,-0.001,-0.13,-0.969,-0.167,27.68,-23.15,-75.7,-0.1918,0.0719,-0.639,-0.7413000000000001,0.0,-0.006,-0.005,124.435,-0.006,-0.012,0.006,-0.157,-0.986,0.099,64.04,-16.19,-65.94,0.3555,-0.2828,0.6819000000000001,0.5732,-0.003,0.003,-0.009,0.0,0.0,0.0,0.0,0.0,0.0,0.0028762817382812,-0.0001916885375976,-0.0219783782958984,0.036630630493164,-0.0109891891479492,-0.018315315246582,0.0,0.0,0.0,0.0
2025-11-06 18:34:30.437,135.095,-0.02,0.002,0.0,-0.348,-0.931,0.22,8.27,-7.01,-44.66,0.5959,-0.7729,-0.0114,-0.2174,0.007,0.002,0.001,123.725,-0.006,-0.013,-0.001,-0.13,-0.969,-0.167,27.68,-23.15,-75.7,-0.1918,0.0719,-0.639,-0.7413000000000001,0.0,-0.006,-0.005,124.435,-0.006,-0.012,0.006,-0.157,-0.986,0.099,64.04,-16.19,-65.94,0.3555,-0.2828,0.6819000000000001,0.5732,-0.003,0.003,-0.009,0.0,0.0,0.0,0.0,0.0,0.0,0.0028762817382812,-0.0001916885375976,-0.0219783782958984,0.036630630493164,-0.0109891891479492,-0.018315315246582,0.0,0.0,0.0,0.0
2025-11-06 18:34:30.437,135.09,-0.025,0.003,0.001,-0.346,-0.931,0.221,8.27,-7.01,-44.66,0.5959,-0.7729,-0.0114,-0.2174,0.005,0.002,0.0,123.725,-0.006,-0.013,-0.001,-0.13,-0.969,-0.167,27.68,-23.15,-75.7,-0.1918,0.0719,-0.639,-0.7413000000000001,0.0,-0.006,-0.005,124.435,-0.006,-0.012,0.006,-0.157,-0.986,0.099,64.04,-16.19,-65.94,0.3555,-0.2828,0.6819000000000001,0.5732,-0.003,0.003,-0.009,0.0,0.0,0.0,0.0,0.0,0.0,0.0028762817382812,-0.0001916885375976,-0.0219783782958984,0.036630630493164,-0.0109891891479492,-0.018315315246582,0.0,0.0,0.0,0.0
2025-11-06 18:34:30.437,135.125,-0.016,0.0,-0.001,-0.348,-0.937,0.221,8.97,-6.63,-44.89,0.5961000000000001,-0.7727,-0.0113,-0.2174,0.007,0.007,0.0,123.725,-0.006,-0.013,-0.001,-0.13,-0.969,-0.167,27.68,-23.15,-75.7,-0.1918,0.0719,-0.639,-0.7413000000000001,0.0,-0.006,-0.005,124.435,-0.006,-0.012,0.006,-0.157,-0.986,0.099,64.04,-16.19,-65.94,0.3555,-0.2828,0.6819000000000001,0.5732,-0.003,0.003,-0.009,0.0,0.0,0.0,0.0,0.0,0.0,0.0028762817382812,-0.0001916885375976,-0.0219783782958984,0.036630630493164,-0.0109891891479492,-0.018315315246582,0.0,0.0,0.0,0.0
2025-11-06 18:34:30.437,135.085,-0.032,0.004,0.001,-0.346,-0.93,0.222,8.27,-7.01,-44.66,0.5958,-0.773,-0.0114,-0.2174,0.006,0.001,0.0,123.725,-0.006,-0.013,-0.001,-0.13,-0.969,-0.167,27.68,-23.15,-75.7,-0.1918,0.0719,-0.639,-0.7413000000000001,0.0,-0.006,-0.005,124.435,-0.006,-0.012,0.006,-0.157,-0.986,0.099,64.04,-16.19,-65.94,0.3555,-0.2828,0.6819000000000001,0.5732,-0.003,0.003,-0.009,0.0,0.0,0.0,0.0,0.0,0.0,0.0028762817382812,-0.0001916885375976,-0.0219783782958984,0.036630630493164,-0.0109891891479492,-0.018315315246582,0.0,0.0,0.0,0.0
2025-11-06 18:34:30.437,135.11,-0.011,-0.003,-0.003,-0.348,-0.935,0.222,8.27,-6.66,-45.19,0.596,-0.7728,-0.0114,-0.2175,0.007,0.006,0.0,123.725,-0.006,-0.013,-0.001,-0.13,-0.969,-0.167,27.68,-23.15,-75.7,-0.1918,0.0719,-0.639,-0.7413000000000001,0.0,-0.006,-0.005,124.435,-0.006,-0.012,0.006,-0.157,-0.986,0.099,64.04,-16.19,-65.94,0.3555,-0.2828,0.6819000000000001,0.5732,-0.003,0.003,-0.009,0.0,0.0,0.0,0.0,0.0,0.0,0.0028762817382812,-0.0001916885375976,-0.0219783782958984,0.036630630493164,-0.0109891891479492,-0.018315315246582,0.0,0.0,0.0,0.0
2025-11-06 18:34:30.437,135.145,-0.03,-0.002,0.001,-0.343,-0.937,0.221,9.06,-7.57,-44.6,0.5963,-0.7726000000000001,-0.0113,-0.2175,0.002,0.008,0.0,123.725,-0.006,-0.013,-0.001,-0.13,-0.969,-0.167,27.68,-23.15,-75.7,-0.1918,0.0719,-0.639,-0.7413000000000001,0.0,-0.006,-0.005,124.435,-0.006,-0.012,0.006,-0.157,-0.986,0.099,64.04,-16.19,-65.94,0.3555,-0.2828,0.6819000000000001,0.5732,-0.003,0.003,-0.009,0.0,0.0,0.0,0.0,0.0,0.0,0.0028762817382812,-0.0001916885375976,-0.0219783782958984,0.036630630493164,-0.0109891891479492,-0.018315315246582,0.0,0.0,0.0,0.0
2025-11-06 18:34:30.437,135.17,-0.036,-0.016,-0.005,-0.331,-0.937,0.223,8.85,-7.36,-44.6,0.5966,-0.7724000000000001,-0.0112,-0.2173,-0.008,0.007,-0.003,123.725,-0.006,-0.013,-0.001,-0.13,-0.969,-0.167,27.68,-23.15,-75.7,-0.1918,0.0719,-0.639,-0.7413000000000001,0.0,-0.006,-0.005,124.435,-0.006,-0.012,0.006,-0.157,-0.986,0.099,64.04,-16.19,-65.94,0.3555,-0.2828,0.6819000000000001,0.5732,-0.003,0.003,-0.009,0.0,0.0,0.0,0.0,0.0,0.0,0.0028762817382812,-0.0001916885375976,-0.0219783782958984,0.036630630493164,-0.0109891891479492,-0.018315315246582,0.0,0.0,0.0,0.0
2025-11-06 18:34:30.437,135.19,-0.036,-0.021,-0.015,-0.325,-0.935,0.226,8.3,-7.65,-44.43,0.5969,-0.7722,-0.0111,-0.217,-0.014,0.006,-0.006,123.725,-0.006,-0.013,-0.001,-0.13,-0.969,-0.167,27.68,-23.15,-75.7,-0.1918,0.0719,-0.639,-0.7413000000000001,0.0,-0.006,-0.005,124.435,-0.006,-0.012,0.006,-0.157,-0.986,0.099,64.04,-16.19,-65.94,0.3555,-0.2828,0.6819000000000001,0.5732,-0.003,0.003,-0.009,0.0,0.0,0.0,0.0,0.0,0.0,0.0028762817382812,-0.0001916885375976,-0.0219783782958984,0.036630630493164,-0.0109891891479492,-0.018315315246582,0.0,0.0,0.0,0.0
2025-11-06 18:34:30.437,135.185,-0.035,-0.022,-0.014,-0.326,-0.936,0.226,8.3,-7.65,-44.43,0.5969,-0.7722,-0.0111,-0.2171,-0.013,0.007,-0.006,123.725,-0.006,-0.013,-0.001,-0.13,-0.969,-0.167,27.68,-23.15,-75.7,-0.1918,0.0719,-0.639,-0.7413000000000001,0.0,-0.006,-0.005,124.435,-0.006,-0.012,0.006,-0.157,-0.986,0.099,64.04,-16.19,-65.94,0.3555,-0.2828,0.6819000000000001,0.5732,-0.003,0.003,-0.009,0.0,0.0,0.0,0.0,0.0,0.0,0.0028762817382812,-0.0001916885375976,-0.0219783782958984,0.036630630493164,-0.0109891891479492,-0.018315315246582,0.0,0.0,0.0,0.0
2025-11-06 18:34:30.437,135.18,-0.037,-0.022,-0.013,-0.326,-0.936,0.226,8.09,-6.57,-44.54,0.5968,-0.7723,-0.0111,-0.2171,-0.014,0.006,-0.006,123.725,-0.006,-0.013,-0.001,-0.13,-0.969,-0.167,27.68,-23.15,-75.7,-0.1918,0.0719,-0.639,-0.7413000000000001,0.0,-0.006,-0.005,124.435,-0.006,-0.012,0.006,-0.157,-0.986,0.099,64.04,-16.19,-65.94,0.3555,-0.2828,0.6819000000000001,0.5732,-0.003,0.003,-0.009,0.0,0.0,0.0,0.0,0.0,0.0,0.0028762817382812,-0.0001916885375976,-0.0219783782958984,0.036630630493164,-0.0109891891479492,-0.018315315246582,0.0,0.0,0.0,0.0
2025-11-06 18:34:30.437,135.14,-0.025,0.002,-0.001,-0.345,-0.938,0.222,9.06,-7.57,-44.6,0.5962000000000001,-0.7726000000000001,-0.0113,-0.2175,0.004,0.008,-0.001,123.725,-0.006,-0.013,-0.001,-0.13,-0.969,-0.167,27.68,-23.15,-75.7,-0.1918,0.0719,-0.639,-0.7413000000000001,0.0,-0.006,-0.005,124.435,-0.006,-0.012,0.006,-0.157,-0.986,0.099,64.04,-16.19,-65.94,0.3555,-0.2828,0.6819000000000001,0.5732,-0.003,0.003,-0.009,0.0,0.0,0.0,0.0,0.0,0.0,0.0028762817382812,-0.0001916885375976,-0.0219783782958984,0.036630630493164,-0.0109891891479492,-0.018315315246582,0.0,0.0,0.0,0.0
2025-11-06 18:34:30.437,135.175,-0.034,-0.015,-0.009,-0.328,-0.936,0.225,8.09,-6.57,-44.54,0.5967,-0.7723,-0.0112,-0.2172,-0.011,0.007,-0.005,123.725,-0.006,-0.013,-0.001,-0.13,-0.969,-0.167,27.68,-23.15,-75.7,-0.1918,0.0719,-0.639,-0.7413000000000001,0.0,-0.006,-0.005,124.435,-0.006,-0.012,0.006,-0.157,-0.986,0.099,64.04,-16.19,-65.94,0.3555,-0.2828,0.6819000000000001,0.5732,-0.003,0.003,-0.009,0.0,0.0,0.0,0.0,0.0,0.0,0.0028762817382812,-0.0001916885375976,-0.0219783782958984,0.036630630493164,-0.0109891891479492,-0.018315315246582,0.0,0.0,0.0,0.0
2025-11-06 18:34:30.437,135.165,-0.036,-0.015,-0.005,-0.334,-0.938,0.221,8.85,-7.36,-44.6,0.5965,-0.7724000000000001,-0.0112,-0.2174,-0.005,0.008,-0.001,123.725,-0.006,-0.013,-0.001,-0.13,-0.969,-0.167,27.68,-23.15,-75.7,-0.1918,0.0719,-0.639,-0.7413000000000001,0.0,-0.006,-0.005,124.435,-0.006,-0.012,0.006,-0.157,-0.986,0.099,64.04,-16.19,-65.94,0.3555,-0.2828,0.6819000000000001,0.5732,-0.003,0.003,-0.009,0.0,0.0,0.0,0.0,0.0,0.0,0.0028762817382812,-0.0001916885375976,-0.0219783782958984,0.036630630493164,-0.0109891891479492,-0.018315315246582,0.0,0.0,0.0,0.0
2025-11-06 18:34:30.437,135.16,-0.034,-0.008,-0.004,-0.336,-0.937,0.222,8.85,-7.36,-44.6,0.5965,-0.7724000000000001,-0.0112,-0.2174,-0.004,0.007,-0.001,123.725,-0.006,-0.013,-0.001,-0.13,-0.969,-0.167,27.68,-23.15,-75.7,-0.1918,0.0719,-0.639,-0.7413000000000001,0.0,-0.006,-0.005,124.435,-0.006,-0.012,0.006,-0.157,-0.986,0.099,64.04,-16.19,-65.94,0.3555,-0.2828,0.6819000000000001,0.5732,-0.003,0.003,-0.009,0.0,0.0,0.0,0.0,0.0,0.0,0.0028762817382812,-0.0001916885375976,-0.0219783782958984,0.036630630493164,-0.0109891891479492,-0.018315315246582,0.0,0.0,0.0,0.0
2025-11-06 18:34:30.437,135.155,-0.034,-0.004,-0.002,-0.338,-0.936,0.222,8.18,-8.74,-44.54,0.5964,-0.7725000000000001,-0.0112,-0.2174,-0.002,0.007,-0.001,123.725,-0.006,-0.013,-0.001,-0.13,-0.969,-0.167,27.68,-23.15,-75.7,-0.1918,0.0719,-0.639,-0.7413000000000001,0.0,-0.006,-0.005,124.435,-0.006,-0.012,0.006,-0.157,-0.986,0.099,64.04,-16.19,-65.94,0.3555,-0.2828,0.6819000000000001,0.5732,-0.003,0.003,-0.009,0.0,0.0,0.0,0.0,0.0,0.0,0.0028762817382812,-0.0001916885375976,-0.0219783782958984,0.036630630493164,-0.0109891891479492,-0.018315315246582,0.0,0.0,0.0,0.0
2025-11-06 18:34:30.437,135.15,-0.032,-0.003,0.0,-0.34,-0.937,0.221,8.18,-8.74,-44.54,0.5963,-0.7725000000000001,-0.0112,-0.2174,0.0,0.008,0.0,123.725,-0.006,-0.013,-0.001,-0.13,-0.969,-0.167,27.68,-23.15,-75.7,-0.1918,0.0719,-0.639,-0.7413000000000001,0.0,-0.006,-0.005,124.435,-0.006,-0.012,0.006,-0.157,-0.986,0.099,64.04,-16.19,-65.94,0.3555,-0.2828,0.6819000000000001,0.5732,-0.003,0.003,-0.009,0.0,0.0,0.0,0.0,0.0,0.0,0.0028762817382812,-0.0001916885375976,-0.0219783782958984,0.036630630493164,-0.0109891891479492,-0.018315315246582,0.0,0.0,0.0,0.0
2025-11-06 18:34:30.437,135.08,-0.034,0.004,0.001,-0.347,-0.929,0.223,8.41,-6.66,-44.54,0.5958,-0.773,-0.0115,-0.2174,0.007,0.0,-0.001,123.725,-0.006,-0.013,-0.001,-0.13,-0.969,-0.167,27.68,-23.15,-75.7,-0.1918,0.0719,-0.639,-0.7413000000000001,0.0,-0.006,-0.005,124.435,-0.006,-0.012,0.006,-0.157,-0.986,0.099,64.04,-16.19,-65.94,0.3555,-0.2828,0.6819000000000001,0.5732,-0.003,0.003,-0.009,0.0,0.0,0.0,0.0,0.0,0.0,0.0028762817382812,-0.0001916885375976,-0.0219783782958984,0.036630630493164,-0.0109891891479492,-0.018315315246582,0.0,0.0,0.0,0.0
2025-11-06 18:34:30.437,135.195,-0.038,-0.021,-0.017,-0.326,-0.933,0.224,8.3,-7.65,-44.43,0.597,-0.7722,-0.0111,-0.2169,-0.013,0.004,-0.004,123.725,-0.006,-0.013,-0.001,-0.13,-0.969,-0.167,27.68,-23.15,-75.7,-0.1918,0.0719,-0.639,-0.7413000000000001,0.0,-0.006,-0.005,124.435,-0.006,-0.012,0.006,-0.157,-0.986,0.099,64.04,-16.19,-65.94,0.3555,-0.2828,0.6819000000000001,0.5732,-0.003,0.003,-0.009,0.0,0.0,0.0,0.0,0.0,0.0,0.0028762817382812,-0.0001916885375976,-0.0219783782958984,0.036630630493164,-0.0109891891479492,-0.018315315246582,0.0,0.0,0.0,0.0
2025-11-06 18:34:30.437,135.2,-0.04,-0.016,-0.016,-0.327,-0.932,0.225,7.98,-7.3,-44.84,0.5971000000000001,-0.7721,-0.0112,-0.2168,-0.012,0.002,-0.006,123.725,-0.006,-0.013,-0.001,-0.13,-0.969,-0.167,27.68,-23.15,-75.7,-0.1918,0.0719,-0.639,-0.7413000000000001,0.0,-0.006,-0.005,124.435,-0.006,-0.012,0.006,-0.157,-0.986,0.099,64.04,-16.19,-65.94,0.3555,-0.2828,0.6819000000000001,0.5732,-0.003,0.003,-0.009,0.0,0.0,0.0,0.0,0.0,0.0,0.0028762817382812,-0.0001916885375976,-0.0219783782958984,0.036630630493164,-0.0109891891479492,-0.018315315246582,0.0,0.0,0.0,0.0
2025-11-06 18:34:30.437,135.105,-0.015,0.0,-0.003,-0.348,-0.934,0.221,8.18,-6.8100000000000005,-44.69,0.596,-0.7728,-0.0114,-0.2175,0.007,0.005,0.0,123.725,-0.006,-0.013,-0.001,-0.13,-0.969,-0.167,27.68,-23.15,-75.7,-0.1918,0.0719,-0.639,-0.7413000000000001,0.0,-0.006,-0.005,124.435,-0.006,-0.012,0.006,-0.157,-0.986,0.099,64.04,-16.19,-65.94,0.3555,-0.2828,0.6819000000000001,0.5732,-0.003,0.003,-0.009,0.0,0.0,0.0,0.0,0.0,0.0,0.0028762817382812,-0.0001916885375976,-0.0219783782958984,0.036630630493164,-0.0109891891479492,-0.018315315246582,0.0,0.0,0.0,0.0
2025-11-06 18:34:30.437,135.23,-0.059,-0.017,-0.006,-0.334,-0.931,0.227,8.27,-7.36,-45.07,0.5977,-0.7717,-0.0111,-0.2164,-0.004,0.001,-0.009,123.725,-0.006,-0.013,-0.001,-0.13,-0.969,-0.167,27.68,-23.15,-75.7,-0.1918,0.0719,-0.639,-0.7413000000000001,0.0,-0.006,-0.005,124.435,-0.006,-0.012,0.006,-0.157,-0.986,0.099,64.04,-16.19,-65.94,0.3555,-0.2828,0.6819000000000001,0.5732,-0.003,0.003,-0.009,0.0,0.0,0.0,0.0,0.0,0.0,0.0028762817382812,-0.0001916885375976,-0.0219783782958984,0.036630630493164,-0.0109891891479492,-0.018315315246582,0.0,0.0,0.0,0.0
2025-11-06 18:34:30.437,135.205,-0.043,-0.014,-0.015,-0.328,-0.932,0.227,7.98,-7.3,-44.84,0.5972000000000001,-0.7721,-0.0112,-0.2167,-0.011,0.002,-0.008,123.725,-0.006,-0.013,-0.001,-0.13,-0.969,-0.167,27.68,-23.15,-75.7,-0.1918,0.0719,-0.639,-0.7413000000000001,0.0,-0.006,-0.005,124.435,-0.006,-0.012,0.006,-0.157,-0.986,0.099,64.04,-16.19,-65.94,0.3555,-0.2828,0.6819000000000001,0.5732,-0.003,0.003,-0.009,0.0,0.0,0.0,0.0,0.0,0.0,0.0028762817382812,-0.0001916885375976,-0.0219783782958984,0.036630630493164,-0.0109891891479492,-0.018315315246582,0.0,0.0,0.0,0.0
2025-11-06 18:34:30.437,135.26,-0.023,-0.049,0.002,-0.324,-0.93,0.234,9.12,-7.16,-46.03,0.5982000000000001,-0.7716000000000001,-0.0107,-0.2159,-0.013,0.0,-0.016,123.725,-0.006,-0.013,-0.001,-0.13,-0.969,-0.167,27.68,-23.15,-75.7,-0.1918,0.0719,-0.639,-0.7413000000000001,0.0,-0.006,-0.005,124.435,-0.006,-0.012,0.006,-0.157,-0.986,0.099,64.04,-16.19,-65.94,0.3555,-0.2828,0.6819000000000001,0.5732,-0.003,0.003,-0.009,0.0,0.0,0.0,0.0,0.0,0.0,0.0028762817382812,-0.0001916885375976,-0.0219783782958984,0.036630630493164,-0.0109891891479492,-0.018315315246582,0.0,0.0,0.0,0.0
2025-11-06 18:34:30.437,135.255,-0.032,-0.042,0.006,-0.327,-0.929,0.232,9.12,-7.16,-46.03,0.5981000000000001,-0.7716000000000001,-0.0107,-0.216,-0.011,0.0,-0.014,123.725,-0.006,-0.013,-0.001,-0.13,-0.969,-0.167,27.68,-23.15,-75.7,-0.1918,0.0719,-0.639,-0.7413000000000001,0.0,-0.006,-0.005,124.435,-0.006,-0.012,0.006,-0.157,-0.986,0.099,64.04,-16.19,-65.94,0.3555,-0.2828,0.6819000000000001,0.5732,-0.003,0.003,-0.009,0.0,0.0,0.0,0.0,0.0,0.0,0.0028762817382812,-0.0001916885375976,-0.0219783782958984,0.036630630493164,-0.0109891891479492,-0.018315315246582,0.0,0.0,0.0,0.0
2025-11-06 18:34:30.437,135.25,-0.042,-0.036,0.004,-0.329,-0.929,0.232,9.12,-7.16,-46.03,0.5981000000000001,-0.7716000000000001,-0.0108,-0.2161,-0.009,0.0,-0.014,123.725,-0.006,-0.013,-0.001,-0.13,-0.969,-0.167,27.68,-23.15,-75.7,-0.1918,0.0719,-0.639,-0.7413000000000001,0.0,-0.006,-0.005,124.435,-0.006,-0.012,0.006,-0.157,-0.986,0.099,64.04,-16.19,-65.94,0.3555,-0.2828,0.6819000000000001,0.5732,-0.003,0.003,-0.009,0.0,0.0,0.0,0.0,0.0,0.0,0.0028762817382812,-0.0001916885375976,-0.0219783782958984,0.036630630493164,-0.0109891891479492,-0.018315315246582,0.0,0.0,0.0,0.0
2025-11-06 18:34:30.437,135.245,-0.049,-0.032,0.004,-0.333,-0.932,0.231,8.5,-6.8100000000000005,-45.1,0.598,-0.7716000000000001,-0.0109,-0.2162,-0.005,0.001,-0.013,123.725,-0.006,-0.013,-0.001,-0.13,-0.969,-0.167,27.68,-23.15,-75.7,-0.1918,0.0719,-0.639,-0.7413000000000001,0.0,-0.006,-0.005,124.435,-0.006,-0.012,0.006,-0.157,-0.986,0.099,64.04,-16.19,-65.94,0.3555,-0.2828,0.6819000000000001,0.5732,-0.003,0.003,-0.009,0.0,0.0,0.0,0.0,0.0,0.0,0.0028762817382812,-0.0001916885375976,-0.0219783782958984,0.036630630493164,-0.0109891891479492,-0.018315315246582,0.0,0.0,0.0,0.0
2025-11-06 18:34:30.437,135.235,-0.058,-0.02,-0.002,-0.334,-0.932,0.228,8.5,-6.8100000000000005,-45.1,0.5979,-0.7717,-0.011,-0.2163,-0.004,0.002,-0.01,123.725,-0.006,-0.013,-0.001,-0.13,-0.969,-0.167,27.68,-23.15,-75.7,-0.1918,0.0719,-0.639,-0.7413000000000001,0.0,-0.006,-0.005,124.435,-0.006,-0.012,0.006,-0.157,-0.986,0.099,64.04,-16.19,-65.94,0.3555,-0.2828,0.6819000000000001,0.5732,-0.003,0.003,-0.009,0.0,0.0,0.0,0.0,0.0,0.0,0.0028762817382812,-0.0001916885375976,-0.0219783782958984,0.036630630493164,-0.0109891891479492,-0.018315315246582,0.0,0.0,0.0,0.0
2025-11-06 18:34:30.437,135.225,-0.058,-0.017,-0.01,-0.333,-0.932,0.226,8.27,-7.36,-45.07,0.5976,-0.7718,-0.0111,-0.2164,-0.005,0.001,-0.008,123.725,-0.006,-0.013,-0.001,-0.13,-0.969,-0.167,27.68,-23.15,-75.7,-0.1918,0.0719,-0.639,-0.7413000000000001,0.0,-0.006,-0.005,124.435,-0.006,-0.012,0.006,-0.157,-0.986,0.099,64.04,-16.19,-65.94,0.3555,-0.2828,0.6819000000000001,0.5732,-0.003,0.003,-0.009,0.0,0.0,0.0,0.0,0.0,0.0,0.0028762817382812,-0.0001916885375976,-0.0219783782958984,0.036630630493164,-0.0109891891479492,-0.018315315246582,0.0,0.0,0.0,0.0
2025-11-06 18:34:30.437,135.265,-0.014,-0.05,0.001,-0.322,-0.931,0.234,8.53,-6.890000000000001,-45.71,0.5982000000000001,-0.7716000000000001,-0.0106,-0.2158,-0.016,0.001,-0.016,123.725,-0.006,-0.013,-0.001,-0.13,-0.969,-0.167,27.68,-23.15,-75.7,-0.1918,0.0719,-0.639,-0.7413000000000001,0.0,-0.006,-0.005,124.435,-0.006,-0.012,0.006,-0.157,-0.986,0.099,64.04,-16.19,-65.94,0.3555,-0.2828,0.6819000000000001,0.5732,-0.003,0.003,-0.009,0.0,0.0,0.0,0.0,0.0,0.0,0.0028762817382812,-0.0001916885375976,-0.0219783782958984,0.036630630493164,-0.0109891891479492,-0.018315315246582,0.0,0.0,0.0,0.0
2025-11-06 18:34:30.437,135.22,-0.056,-0.016,-0.013,-0.332,-0.931,0.224,7.98,-7.77,-45.19,0.5975,-0.7719,-0.0111,-0.2165,-0.006,0.001,-0.006,123.725,-0.006,-0.013,-0.001,-0.13,-0.969,-0.167,27.68,-23.15,-75.7,-0.1918,0.0719,-0.639,-0.7413000000000001,0.0,-0.006,-0.005,124.435,-0.006,-0.012,0.006,-0.157,-0.986,0.099,64.04,-16.19,-65.94,0.3555,-0.2828,0.6819000000000001,0.5732,-0.003,0.003,-0.009,0.0,0.0,0.0,0.0,0.0,0.0,0.0028762817382812,-0.0001916885375976,-0.0219783782958984,0.036630630493164,-0.0109891891479492,-0.018315315246582,0.0,0.0,0.0,0.0
2025-11-06 18:34:30.437,135.27,-0.014,-0.05,0.0,-0.319,-0.933,0.235,8.53,-6.890000000000001,-45.71,0.5982000000000001,-0.7716000000000001,-0.0106,-0.2156,-0.019,0.002,-0.017,123.725,-0.006,-0.013,-0.001,-0.13,-0.969,-0.167,27.68,-23.15,-75.7,-0.1918,0.0719,-0.639,-0.7413000000000001,0.0,-0.006,-0.005,124.435,-0.006,-0.012,0.006,-0.157,-0.986,0.099,64.04,-16.19,-65.94,0.3555,-0.2828,0.6819000000000001,0.5732,-0.003,0.003,-0.009,0.0,0.0,0.0,0.0,0.0,0.0,0.0028762817382812,-0.0001916885375976,-0.0219783782958984,0.036630630493164,-0.0109891891479492,-0.018315315246582,0.0,0.0,0.0,0.0
2025-11-06 18:34:30.437,135.3,-0.042,-0.033,-0.001,-0.308,-0.947,0.225,8.27,-7.51,-45.77,0.5985,-0.7716000000000001,-0.0103,-0.2148,-0.029,0.016,-0.007,123.725,-0.006,-0.013,-0.001,-0.13,-0.969,-0.167,27.68,-23.15,-75.7,-0.1918,0.0719,-0.639,-0.7413000000000001,0.0,-0.006,-0.005,124.435,-0.006,-0.012,0.006,-0.157,-0.986,0.099,64.04,-16.19,-65.94,0.3555,-0.2828,0.6819000000000001,0.5732,-0.003,0.003,-0.009,0.0,0.0,0.0,0.0,0.0,0.0,0.0028762817382812,-0.0001916885375976,-0.0219783782958984,0.036630630493164,-0.0109891891479492,-0.018315315246582,0.0,0.0,0.0,0.0
2025-11-06 18:34:30.437,135.24,-0.055,-0.025,0.002,-0.334,-0.932,0.23,8.5,-6.8100000000000005,-45.1,0.5979,-0.7716000000000001,-0.011,-0.2163,-0.004,0.001,-0.012,123.725,-0.006,-0.013,-0.001,-0.13,-0.969,-0.167,27.68,-23.15,-75.7,-0.1918,0.0719,-0.639,-0.7413000000000001,0.0,-0.006,-0.005,124.435,-0.006,-0.012,0.006,-0.157,-0.986,0.099,64.04,-16.19,-65.94,0.3555,-0.2828,0.6819000000000001,0.5732,-0.003,0.003,-0.009,0.0,0.0,0.0,0.0,0.0,0.0,0.0028762817382812,-0.0001916885375976,-0.0219783782958984,0.036630630493164,-0.0109891891479492,-0.018315315246582,0.0,0.0,0.0,0.0
2025-11-06 18:34:30.437,135.285,-0.027,-0.044,-0.005,-0.309,-0.939,0.231,8.21,-7.24,-45.95,0.5983,-0.7717,-0.0104,-0.2151,-0.027,0.009,-0.013,123.725,-0.006,-0.013,-0.001,-0.13,-0.969,-0.167,27.68,-23.15,-75.7,-0.1918,0.0719,-0.639,-0.7413000000000001,0.0,-0.006,-0.005,124.435,-0.006,-0.012,0.006,-0.157,-0.986,0.099,64.04,-16.19,-65.94,0.3555,-0.2828,0.6819000000000001,0.5732,-0.003,0.003,-0.009,0.0,0.0,0.0,0.0,0.0,0.0,0.0028762817382812,-0.0001916885375976,-0.0219783782958984,0.036630630493164,-0.0109891891479492,-0.018315315246582,0.0,0.0,0.0,0.0
2025-11-06 18:34:30.437,135.21,-0.048,-0.01,-0.015,-0.33,-0.932,0.226,7.98,-7.77,-45.19,0.5973,-0.772,-0.0112,-0.2166,-0.008,0.002,-0.007,123.725,-0.006,-0.013,-0.001,-0.13,-0.969,-0.167,27.68,-23.15,-75.7,-0.1918,0.0719,-0.639,-0.7413000000000001,0.0,-0.006,-0.005,124.435,-0.006,-0.012,0.006,-0.157,-0.986,0.099,64.04,-16.19,-65.94,0.3555,-0.2828,0.6819000000000001,0.5732,-0.003,0.003,-0.009,0.0,0.0,0.0,0.0,0.0,0.0,0.0028762817382812,-0.0001916885375976,-0.0219783782958984,0.036630630493164,-0.0109891891479492,-0.018315315246582,0.0,0.0,0.0,0.0
2025-11-06 18:34:30.437,135.275,-0.015,-0.049,-0.003,-0.316,-0.934,0.233,8.21,-7.24,-45.95,0.5982000000000001,-0.7717,-0.0105,-0.2154,-0.021,0.004,-0.015,123.725,-0.006,-0.013,-0.001,-0.13,-0.969,-0.167,27.68,-23.15,-75.7,-0.1918,0.0719,-0.639,-0.7413000000000001,0.0,-0.006,-0.005,124.435,-0.006,-0.012,0.006,-0.157,-0.986,0.099,64.04,-16.19,-65.94,0.3555,-0.2828,0.6819000000000001,0.5732,-0.003,0.003,-0.009,0.0,0.0,0.0,0.0,0.0,0.0,0.0028762817382812,-0.0001916885375976,-0.0219783782958984,0.036630630493164,-0.0109891891479492,-0.018315315246582,0.0,0.0,0.0,0.0
2025-11-06 18:34:30.437,135.215,-0.051,-0.011,-0.014,-0.331,-0.932,0.226,7.98,-7.77,-45.19,0.5974,-0.772,-0.0112,-0.2166,-0.008,0.002,-0.007,123.725,-0.006,-0.013,-0.001,-0.13,-0.969,-0.167,27.68,-23.15,-75.7,-0.1918,0.0719,-0.639,-0.7413000000000001,0.0,-0.006,-0.005,124.435,-0.006,-0.012,0.006,-0.157,-0.986,0.099,64.04,-16.19,-65.94,0.3555,-0.2828,0.6819000000000001,0.5732,-0.003,0.003,-0.009,0.0,0.0,0.0,0.0,0.0,0.0,0.0028762817382812,-0.0001916885375976,-0.0219783782958984,0.036630630493164,-0.0109891891479492,-0.018315315246582,0.0,0.0,0.0,0.0
2025-11-06 18:34:30.437,135.325,-0.044,-0.029,0.018,-0.318,-0.944,0.215,8.65,-7.16,-45.71,0.599,-0.7713,-0.01,-0.2145,-0.018,0.012,0.001,123.725,-0.006,-0.013,-0.001,-0.13,-0.969,-0.167,27.68,-23.15,-75.7,-0.1918,0.0719,-0.639,-0.7413000000000001,0.0,-0.006,-0.005,124.435,-0.006,-0.012,0.006,-0.157,-0.986,0.099,64.04,-16.19,-65.94,0.3555,-0.2828,0.6819000000000001,0.5732,-0.003,0.003,-0.009,0.0,0.0,0.0,0.0,0.0,0.0,0.0028762817382812,-0.0001916885375976,-0.0219783782958984,0.036630630493164,-0.0109891891479492,-0.018315315246582,0.0,0.0,0.0,0.0
2025-11-06 18:34:30.437,135.28,-0.023,-0.05,-0.006,-0.312,-0.937,0.234,8.21,-7.24,-45.95,0.5982000000000001,-0.7717,-0.0105,-0.2153,-0.025,0.007,-0.015,123.725,-0.006,-0.013,-0.001,-0.13,-0.969,-0.167,27.68,-23.15,-75.7,-0.1918,0.0719,-0.639,-0.7413000000000001,0.0,-0.006,-0.005,124.435,-0.006,-0.012,0.006,-0.157,-0.986,0.099,64.04,-16.19,-65.94,0.3555,-0.2828,0.6819000000000001,0.5732,-0.003,0.003,-0.009,0.0,0.0,0.0,0.0,0.0,0.0,0.0028762817382812,-0.0001916885375976,-0.0219783782958984,0.036630630493164,-0.0109891891479492,-0.018315315246582,0.0,0.0,0.0,0.0
2025-11-06 18:34:30.437,135.315,-0.044,-0.024,0.005,-0.312,-0.946,0.218,8.44,-7.16,-45.3,0.5988,-0.7714000000000001,-0.0102,-0.2146,-0.024,0.015,0.0,123.725,-0.006,-0.013,-0.001,-0.13,-0.969,-0.167,27.68,-23.15,-75.7,-0.1918,0.0719,-0.639,-0.7413000000000001,0.0,-0.006,-0.005,124.435,-0.006,-0.012,0.006,-0.157,-0.986,0.099,64.04,-16.19,-65.94,0.3555,-0.2828,0.6819000000000001,0.5732,-0.003,0.003,-0.009,0.0,0.0,0.0,0.0,0.0,0.0,0.0028762817382812,-0.0001916885375976,-0.0219783782958984,0.036630630493164,-0.0109891891479492,-0.018315315246582,0.0,0.0,0.0,0.0
2025-11-06 18:34:30.437,135.32,-0.045,-0.024,0.01,-0.315,-0.946,0.216,8.44,-7.16,-45.3,0.5989,-0.7714000000000001,-0.0101,-0.2145,-0.021,0.014,0.001,123.725,-0.006,-0.013,-0.001,-0.13,-0.969,-0.167,27.68,-23.15,-75.7,-0.1918,0.0719,-0.639,-0.7413000000000001,0.0,-0.006,-0.005,124.435,-0.006,-0.012,0.006,-0.157,-0.986,0.099,64.04,-16.19,-65.94,0.3555,-0.2828,0.6819000000000001,0.5732,-0.003,0.003,-0.009,0.0,0.0,0.0,0.0,0.0,0.0,0.0028762817382812,-0.0001916885375976,-0.0219783782958984,0.036630630493164,-0.0109891891479492,-0.018315315246582,0.0,0.0,0.0,0.0
2025-11-06 18:34:30.437,135.31,-0.044,-0.025,0.002,-0.311,-0.947,0.221,8.27,-7.51,-45.77,0.5987,-0.7715000000000001,-0.0102,-0.2147,-0.025,0.016,-0.004,123.725,-0.006,-0.013,-0.001,-0.13,-0.969,-0.167,27.68,-23.15,-75.7,-0.1918,0.0719,-0.639,-0.7413000000000001,0.0,-0.006,-0.005,124.435,-0.006,-0.012,0.006,-0.157,-0.986,0.099,64.04,-16.19,-65.94,0.3555,-0.2828,0.6819000000000001,0.5732,-0.003,0.003,-0.009,0.0,0.0,0.0,0.0,0.0,0.0,0.0028762817382812,-0.0001916885375976,-0.0219783782958984,0.036630630493164,-0.0109891891479492,-0.018315315246582,0.0,0.0,0.0,0.0
2025-11-06 18:34:30.437,135.305,-0.044,-0.03,0.0,-0.308,-0.947,0.224,8.27,-7.51,-45.77,0.5986,-0.7715000000000001,-0.0103,-0.2147,-0.028,0.016,-0.006,123.725,-0.006,-0.013,-0.001,-0.13,-0.969,-0.167,27.68,-23.15,-75.7,-0.1918,0.0719,-0.639,-0.7413000000000001,0.0,-0.006,-0.005,124.435,-0.006,-0.012,0.006,-0.157,-0.986,0.099,64.04,-16.19,-65.94,0.3555,-0.2828,0.6819000000000001,0.5732,-0.003,0.003,-0.009,0.0,0.0,0.0,0.0,0.0,0.0,0.0028762817382812,-0.0001916885375976,-0.0219783782958984,0.036630630493164,-0.0109891891479492,-0.018315315246582,0.0,0.0,0.0,0.0
2025-11-06 18:34:30.437,135.295,-0.037,-0.036,-0.005,-0.306,-0.944,0.228,8.41,-7.390000000000001,-45.36,0.5985,-0.7716000000000001,-0.0104,-0.2149,-0.03,0.013,-0.01,123.725,-0.006,-0.013,-0.001,-0.13,-0.969,-0.167,27.68,-23.15,-75.7,-0.1918,0.0719,-0.639,-0.7413000000000001,0.0,-0.006,-0.005,124.435,-0.006,-0.012,0.006,-0.157,-0.986,0.099,64.04,-16.19,-65.94,0.3555,-0.2828,0.6819000000000001,0.5732,-0.003,0.003,-0.009,0.0,0.0,0.0,0.0,0.0,0.0,0.0028762817382812,-0.0001916885375976,-0.0219783782958984,0.036630630493164,-0.0109891891479492,-0.018315315246582,0.0,0.0,0.0,0.0
2025-11-06 18:34:30.437,135.29,-0.036,-0.041,-0.004,-0.307,-0.942,0.23,8.41,-7.390000000000001,-45.36,0.5984,-0.7717,-0.0104,-0.215,-0.03,0.012,-0.012,123.725,-0.006,-0.013,-0.001,-0.13,-0.969,-0.167,27.68,-23.15,-75.7,-0.1918,0.0719,-0.639,-0.7413000000000001,0.0,-0.006,-0.005,124.435,-0.006,-0.012,0.006,-0.157,-0.986,0.099,64.04,-16.19,-65.94,0.3555,-0.2828,0.6819000000000001,0.5732,-0.003,0.003,-0.009,0.0,0.0,0.0,0.0,0.0,0.0,0.0028762817382812,-0.0001916885375976,-0.0219783782958984,0.036630630493164,-0.0109891891479492,-0.018315315246582,0.0,0.0,0.0,0.0
2025-11-06 18:34:30.439,135.365,-0.025,-0.024,0.049,-0.322,-0.929,0.235,7.390000000000001,-6.37,-45.01,0.5993,-0.7711,-0.0091,-0.2144,-0.015,0.0,-0.019,123.725,-0.006,-0.013,-0.001,-0.13,-0.969,-0.167,27.68,-23.15,-75.7,-0.1918,0.0719,-0.639,-0.7413000000000001,0.0,-0.006,-0.005,124.435,-0.006,-0.012,0.006,-0.157,-0.986,0.099,64.04,-16.19,-65.94,0.3555,-0.2828,0.6819000000000001,0.5732,-0.003,0.003,-0.009,0.0,0.0,0.0,0.0,0.0,0.0,0.0028762817382812,-0.0001916885375976,-0.0219783782958984,0.036630630493164,-0.0109891891479492,-0.018315315246582,0.0,0.0,0.0,0.0
2025-11-06 18:34:30.439,135.38,-0.022,-0.046,0.046,-0.32,-0.924,0.241,8.18,-6.66,-44.89,0.5993,-0.7711,-0.0087,-0.2143,-0.017,-0.005,-0.025,123.725,-0.006,-0.013,-0.001,-0.13,-0.969,-0.167,27.68,-23.15,-75.7,-0.1918,0.0719,-0.639,-0.7413000000000001,0.0,-0.006,-0.005,124.435,-0.006,-0.012,0.006,-0.157,-0.986,0.099,64.04,-16.19,-65.94,0.3555,-0.2828,0.6819000000000001,0.5732,-0.003,0.003,-0.009,0.0,0.0,0.0,0.0,0.0,0.0,0.0028762817382812,-0.0001916885375976,-0.0219783782958984,0.036630630493164,-0.0109891891479492,-0.018315315246582,0.0,0.0,0.0,0.0
2025-11-06 18:34:30.439,135.375,-0.026,-0.036,0.048,-0.322,-0.925,0.239,8.18,-6.66,-44.89,0.5993,-0.7711,-0.0088,-0.2144,-0.016,-0.005,-0.023,123.725,-0.006,-0.013,-0.001,-0.13,-0.969,-0.167,27.68,-23.15,-75.7,-0.1918,0.0719,-0.639,-0.7413000000000001,0.0,-0.006,-0.005,124.435,-0.006,-0.012,0.006,-0.157,-0.986,0.099,64.04,-16.19,-65.94,0.3555,-0.2828,0.6819000000000001,0.5732,-0.003,0.003,-0.009,0.0,0.0,0.0,0.0,0.0,0.0,0.0028762817382812,-0.0001916885375976,-0.0219783782958984,0.036630630493164,-0.0109891891479492,-0.018315315246582,0.0,0.0,0.0,0.0
2025-11-06 18:34:30.439,135.37,-0.024,-0.028,0.051,-0.322,-0.928,0.236,7.390000000000001,-6.37,-45.01,0.5993,-0.7711,-0.009,-0.2144,-0.016,-0.002,-0.02,123.725,-0.006,-0.013,-0.001,-0.13,-0.969,-0.167,27.68,-23.15,-75.7,-0.1918,0.0719,-0.639,-0.7413000000000001,0.0,-0.006,-0.005,124.435,-0.006,-0.012,0.006,-0.157,-0.986,0.099,64.04,-16.19,-65.94,0.3555,-0.2828,0.6819000000000001,0.5732,-0.003,0.003,-0.009,0.0,0.0,0.0,0.0,0.0,0.0,0.0028762817382812,-0.0001916885375976,-0.0219783782958984,0.036630630493164,-0.0109891891479492,-0.018315315246582,0.0,0.0,0.0,0.0
2025-11-06 18:34:30.439,135.385,-0.02,-0.052,0.041,-0.317,-0.921,0.241,8.18,-6.66,-44.89,0.5993,-0.7711,-0.0085,-0.2143,-0.02,-0.008,-0.025,123.725,-0.006,-0.013,-0.001,-0.13,-0.969,-0.167,27.68,-23.15,-75.7,-0.1918,0.0719,-0.639,-0.7413000000000001,0.0,-0.006,-0.005,124.435,-0.006,-0.012,0.006,-0.157,-0.986,0.099,64.04,-16.19,-65.94,0.3555,-0.2828,0.6819000000000001,0.5732,-0.003,0.003,-0.009,0.0,0.0,0.0,0.0,0.0,0.0,0.0028762817382812,-0.0001916885375976,-0.0219783782958984,0.036630630493164,-0.0109891891479492,-0.018315315246582,0.0,0.0,0.0,0.0
2025-11-06 18:34:30.439,135.36,-0.026,-0.023,0.049,-0.323,-0.931,0.23,8.0,-6.69,-45.04,0.5993,-0.7711,-0.0092,-0.2144,-0.013,0.0,-0.013,123.725,-0.006,-0.013,-0.001,-0.13,-0.969,-0.167,27.68,-23.15,-75.7,-0.1918,0.0719,-0.639,-0.7413000000000001,0.0,-0.006,-0.005,124.435,-0.006,-0.012,0.006,-0.157,-0.986,0.099,64.04,-16.19,-65.94,0.3555,-0.2828,0.6819000000000001,0.5732,-0.003,0.003,-0.009,0.0,0.0,0.0,0.0,0.0,0.0,0.0028762817382812,-0.0001916885375976,-0.0219783782958984,0.036630630493164,-0.0109891891479492,-0.018315315246582,0.0,0.0,0.0,0.0
2025-11-06 18:34:30.439,135.465,0.106,-0.053,0.085,-0.297,-0.92,0.233,8.15,-7.83,-45.16,0.5977,-0.7727,-0.0062,-0.2133,-0.042,-0.008,-0.012,123.725,-0.006,-0.013,-0.001,-0.13,-0.969,-0.167,27.68,-23.15,-75.7,-0.1918,0.0719,-0.639,-0.7413000000000001,0.0,-0.006,-0.005,124.435,-0.006,-0.012,0.006,-0.157,-0.986,0.099,64.04,-16.19,-65.94,0.3555,-0.2828,0.6819000000000001,0.5732,-0.003,0.003,-0.009,0.0,0.0,0.0,0.0,0.0,0.0,0.0028762817382812,-0.0001916885375976,-0.0219783782958984,0.036630630493164,-0.0109891891479492,-0.018315315246582,0.0,0.0,0.0,0.0
2025-11-06 18:34:30.439,135.35,-0.025,-0.017,0.041,-0.324,-0.936,0.224,8.0,-6.69,-45.04,0.5993,-0.7712,-0.0095,-0.2144,-0.013,0.005,-0.007,123.725,-0.006,-0.013,-0.001,-0.13,-0.969,-0.167,27.68,-23.15,-75.7,-0.1918,0.0719,-0.639,-0.7413000000000001,0.0,-0.006,-0.005,124.435,-0.006,-0.012,0.006,-0.157,-0.986,0.099,64.04,-16.19,-65.94,0.3555,-0.2828,0.6819000000000001,0.5732,-0.003,0.003,-0.009,0.0,0.0,0.0,0.0,0.0,0.0,0.0028762817382812,-0.0001916885375976,-0.0219783782958984,0.036630630493164,-0.0109891891479492,-0.018315315246582,0.0,0.0,0.0,0.0
2025-11-06 18:34:30.439,135.345,-0.027,-0.021,0.038,-0.324,-0.937,0.221,8.21,-6.92,-45.77,0.5992000000000001,-0.7712,-0.0096,-0.2144,-0.012,0.006,-0.005,123.725,-0.006,-0.013,-0.001,-0.13,-0.969,-0.167,27.68,-23.15,-75.7,-0.1918,0.0719,-0.639,-0.7413000000000001,0.0,-0.006,-0.005,124.435,-0.006,-0.012,0.006,-0.157,-0.986,0.099,64.04,-16.19,-65.94,0.3555,-0.2828,0.6819000000000001,0.5732,-0.003,0.003,-0.009,0.0,0.0,0.0,0.0,0.0,0.0,0.0028762817382812,-0.0001916885375976,-0.0219783782958984,0.036630630493164,-0.0109891891479492,-0.018315315246582,0.0,0.0,0.0,0.0
2025-11-06 18:34:30.439,135.47,0.118,-0.049,0.097,-0.299,-0.924,0.235,8.15,-7.83,-45.16,0.5974,-0.7729,-0.0061,-0.2133,-0.041,-0.004,-0.013,123.725,-0.006,-0.013,-0.001,-0.13,-0.969,-0.167,27.68,-23.15,-75.7,-0.1918,0.0719,-0.639,-0.7413000000000001,0.0,-0.006,-0.005,124.435,-0.006,-0.012,0.006,-0.157,-0.986,0.099,64.04,-16.19,-65.94,0.3555,-0.2828,0.6819000000000001,0.5732,-0.003,0.003,-0.009,0.0,0.0,0.0,0.0,0.0,0.0,0.0028762817382812,-0.0001916885375976,-0.0219783782958984,0.036630630493164,-0.0109891891479492,-0.018315315246582,0.0,0.0,0.0,0.0
2025-11-06 18:34:30.439,135.33,-0.039,-0.033,0.021,-0.319,-0.942,0.215,8.65,-7.16,-45.71,0.5991000000000001,-0.7713,-0.0099,-0.2144,-0.017,0.01,0.001,123.725,-0.006,-0.013,-0.001,-0.13,-0.969,-0.167,27.68,-23.15,-75.7,-0.1918,0.0719,-0.639,-0.7413000000000001,0.0,-0.006,-0.005,124.435,-0.006,-0.012,0.006,-0.157,-0.986,0.099,64.04,-16.19,-65.94,0.3555,-0.2828,0.6819000000000001,0.5732,-0.003,0.003,-0.009,0.0,0.0,0.0,0.0,0.0,0.0,0.0028762817382812,-0.0001916885375976,-0.0219783782958984,0.036630630493164,-0.0109891891479492,-0.018315315246582,0.0,0.0,0.0,0.0
2025-11-06 18:34:30.439,135.39,-0.018,-0.054,0.039,-0.319,-0.92,0.24,8.06,-6.72,-44.6,0.5993,-0.7712,-0.0083,-0.2142,-0.019,-0.009,-0.024,123.725,-0.006,-0.013,-0.001,-0.13,-0.969,-0.167,27.68,-23.15,-75.7,-0.1918,0.0719,-0.639,-0.7413000000000001,0.0,-0.006,-0.005,124.435,-0.006,-0.012,0.006,-0.157,-0.986,0.099,64.04,-16.19,-65.94,0.3555,-0.2828,0.6819000000000001,0.5732,-0.003,0.003,-0.009,0.0,0.0,0.0,0.0,0.0,0.0,0.0028762817382812,-0.0001916885375976,-0.0219783782958984,0.036630630493164,-0.0109891891479492,-0.018315315246582,0.0,0.0,0.0,0.0
2025-11-06 18:34:30.439,135.355,-0.026,-0.021,0.047,-0.323,-0.933,0.227,8.0,-6.69,-45.04,0.5993,-0.7711,-0.0094,-0.2144,-0.014,0.002,-0.011,123.725,-0.006,-0.013,-0.001,-0.13,-0.969,-0.167,27.68,-23.15,-75.7,-0.1918,0.0719,-0.639,-0.7413000000000001,0.0,-0.006,-0.005,124.435,-0.006,-0.012,0.006,-0.157,-0.986,0.099,64.04,-16.19,-65.94,0.3555,-0.2828,0.6819000000000001,0.5732,-0.003,0.003,-0.009,0.0,0.0,0.0,0.0,0.0,0.0,0.0028762817382812,-0.0001916885375976,-0.0219783782958984,0.036630630493164,-0.0109891891479492,-0.018315315246582,0.0,0.0,0.0,0.0
2025-11-06 18:34:30.439,135.395,-0.012,-0.058,0.034,-0.318,-0.918,0.239,8.06,-6.72,-44.6,0.5993,-0.7712,-0.0082,-0.2141,-0.02,-0.012,-0.023,123.725,-0.006,-0.013,-0.001,-0.13,-0.969,-0.167,27.68,-23.15,-75.7,-0.1918,0.0719,-0.639,-0.7413000000000001,0.0,-0.006,-0.005,124.435,-0.006,-0.012,0.006,-0.157,-0.986,0.099,64.04,-16.19,-65.94,0.3555,-0.2828,0.6819000000000001,0.5732,-0.003,0.003,-0.009,0.0,0.0,0.0,0.0,0.0,0.0,0.0028762817382812,-0.0001916885375976,-0.0219783782958984,0.036630630493164,-0.0109891891479492,-0.018315315246582,0.0,0.0,0.0,0.0
2025-11-06 18:34:30.439,135.41,0.009,-0.066,0.023,-0.309,-0.917,0.24,7.68,-6.86,-45.27,0.5993,-0.7713,-0.0078,-0.2138,-0.029,-0.013,-0.023,123.725,-0.006,-0.013,-0.001,-0.13,-0.969,-0.167,27.68,-23.15,-75.7,-0.1918,0.0719,-0.639,-0.7413000000000001,0.0,-0.006,-0.005,124.435,-0.006,-0.012,0.006,-0.157,-0.986,0.099,64.04,-16.19,-65.94,0.3555,-0.2828,0.6819000000000001,0.5732,-0.003,0.003,-0.009,0.0,0.0,0.0,0.0,0.0,0.0,0.0028762817382812,-0.0001916885375976,-0.0219783782958984,0.036630630493164,-0.0109891891479492,-0.018315315246582,0.0,0.0,0.0,0.0
2025-11-06 18:34:30.439,135.405,0.003,-0.066,0.026,-0.314,-0.918,0.238,7.68,-6.86,-45.27,0.5993,-0.7713,-0.0079,-0.2139,-0.024,-0.011,-0.021,123.725,-0.006,-0.013,-0.001,-0.13,-0.969,-0.167,27.68,-23.15,-75.7,-0.1918,0.0719,-0.639,-0.7413000000000001,0.0,-0.006,-0.005,124.435,-0.006,-0.012,0.006,-0.157,-0.986,0.099,64.04,-16.19,-65.94,0.3555,-0.2828,0.6819000000000001,0.5732,-0.003,0.003,-0.009,0.0,0.0,0.0,0.0,0.0,0.0,0.0028762817382812,-0.0001916885375976,-0.0219783782958984,0.036630630493164,-0.0109891891479492,-0.018315315246582,0.0,0.0,0.0,0.0
2025-11-06 18:34:30.439,135.4,-0.003,-0.063,0.029,-0.315,-0.919,0.239,7.68,-6.86,-45.27,0.5993,-0.7712,-0.008,-0.214,-0.023,-0.011,-0.023,123.725,-0.006,-0.013,-0.001,-0.13,-0.969,-0.167,27.68,-23.15,-75.7,-0.1918,0.0719,-0.639,-0.7413000000000001,0.0,-0.006,-0.005,124.435,-0.006,-0.012,0.006,-0.157,-0.986,0.099,64.04,-16.19,-65.94,0.3555,-0.2828,0.6819000000000001,0.5732,-0.003,0.003,-0.009,0.0,0.0,0.0,0.0,0.0,0.0,0.0028762817382812,-0.0001916885375976,-0.0219783782958984,0.036630630493164,-0.0109891891479492,-0.018315315246582,0.0,0.0,0.0,0.0
2025-11-06 18:34:30.439,135.46,0.098,-0.052,0.076,-0.294,-0.918,0.233,8.03,-7.1000000000000005,-45.45,0.5979,-0.7725000000000001,-0.0064,-0.2133,-0.045,-0.01,-0.013,123.725,-0.006,-0.013,-0.001,-0.13,-0.969,-0.167,27.68,-23.15,-75.7,-0.1918,0.0719,-0.639,-0.7413000000000001,0.0,-0.006,-0.005,124.435,-0.006,-0.012,0.006,-0.157,-0.986,0.099,64.04,-16.19,-65.94,0.3555,-0.2828,0.6819000000000001,0.5732,-0.003,0.003,-0.009,0.0,0.0,0.0,0.0,0.0,0.0,0.0028762817382812,-0.0001916885375976,-0.0219783782958984,0.036630630493164,-0.0109891891479492,-0.018315315246582,0.0,0.0,0.0,0.0
2025-11-06 18:34:30.439,135.45,0.079,-0.051,0.057,-0.293,-0.912,0.232,8.03,-7.1000000000000005,-45.45,0.5984,-0.7722,-0.0068,-0.2133,-0.046,-0.017,-0.013,123.725,-0.006,-0.013,-0.001,-0.13,-0.969,-0.167,27.68,-23.15,-75.7,-0.1918,0.0719,-0.639,-0.7413000000000001,0.0,-0.006,-0.005,124.435,-0.006,-0.012,0.006,-0.157,-0.986,0.099,64.04,-16.19,-65.94,0.3555,-0.2828,0.6819000000000001,0.5732,-0.003,0.003,-0.009,0.0,0.0,0.0,0.0,0.0,0.0,0.0028762817382812,-0.0001916885375976,-0.0219783782958984,0.036630630493164,-0.0109891891479492,-0.018315315246582,0.0,0.0,0.0,0.0
2025-11-06 18:34:30.439,135.445,0.062,-0.052,0.046,-0.295,-0.911,0.233,8.27,-7.45,-45.01,0.5986,-0.772,-0.0069,-0.2133,-0.044,-0.017,-0.015,123.725,-0.006,-0.013,-0.001,-0.13,-0.969,-0.167,27.68,-23.15,-75.7,-0.1918,0.0719,-0.639,-0.7413000000000001,0.0,-0.006,-0.005,124.435,-0.006,-0.012,0.006,-0.157,-0.986,0.099,64.04,-16.19,-65.94,0.3555,-0.2828,0.6819000000000001,0.5732,-0.003,0.003,-0.009,0.0,0.0,0.0,0.0,0.0,0.0,0.0028762817382812,-0.0001916885375976,-0.0219783782958984,0.036630630493164,-0.0109891891479492,-0.018315315246582,0.0,0.0,0.0,0.0
2025-11-06 18:34:30.439,135.44,0.056,-0.052,0.038,-0.296,-0.911,0.234,8.27,-7.45,-45.01,0.5987,-0.7719,-0.007,-0.2133,-0.042,-0.017,-0.016,123.725,-0.006,-0.013,-0.001,-0.13,-0.969,-0.167,27.68,-23.15,-75.7,-0.1918,0.0719,-0.639,-0.7413000000000001,0.0,-0.006,-0.005,124.435,-0.006,-0.012,0.006,-0.157,-0.986,0.099,64.04,-16.19,-65.94,0.3555,-0.2828,0.6819000000000001,0.5732,-0.003,0.003,-0.009,0.0,0.0,0.0,0.0,0.0,0.0,0.0028762817382812,-0.0001916885375976,-0.0219783782958984,0.036630630493164,-0.0109891891479492,-0.018315315246582,0.0,0.0,0.0,0.0
2025-11-06 18:34:30.439,135.455,0.09,-0.053,0.066,-0.293,-0.914,0.232,8.03,-7.1000000000000005,-45.45,0.5982000000000001,-0.7723,-0.0066,-0.2133,-0.045,-0.014,-0.012,123.725,-0.006,-0.013,-0.001,-0.13,-0.969,-0.167,27.68,-23.15,-75.7,-0.1918,0.0719,-0.639,-0.7413000000000001,0.0,-0.006,-0.005,124.435,-0.006,-0.012,0.006,-0.157,-0.986,0.099,64.04,-16.19,-65.94,0.3555,-0.2828,0.6819000000000001,0.5732,-0.003,0.003,-0.009,0.0,0.0,0.0,0.0,0.0,0.0,0.0028762817382812,-0.0001916885375976,-0.0219783782958984,0.036630630493164,-0.0109891891479492,-0.018315315246582,0.0,0.0,0.0,0.0
2025-11-06 18:34:30.439,135.43,0.043,-0.061,0.027,-0.298,-0.91,0.237,7.62,-7.54,-44.98,0.599,-0.7717,-0.0073,-0.2135,-0.04,-0.019,-0.02,123.725,-0.006,-0.013,-0.001,-0.13,-0.969,-0.167,27.68,-23.15,-75.7,-0.1918,0.0719,-0.639,-0.7413000000000001,0.0,-0.006,-0.005,124.435,-0.006,-0.012,0.006,-0.157,-0.986,0.099,64.04,-16.19,-65.94,0.3555,-0.2828,0.6819000000000001,0.5732,-0.003,0.003,-0.009,0.0,0.0,0.0,0.0,0.0,0.0,0.0028762817382812,-0.0001916885375976,-0.0219783782958984,0.036630630493164,-0.0109891891479492,-0.018315315246582,0.0,0.0,0.0,0.0
2025-11-06 18:34:30.439,135.425,0.037,-0.064,0.025,-0.3,-0.91,0.238,7.62,-7.54,-44.98,0.5991000000000001,-0.7716000000000001,-0.0074,-0.2135,-0.038,-0.019,-0.021,123.725,-0.006,-0.013,-0.001,-0.13,-0.969,-0.167,27.68,-23.15,-75.7,-0.1918,0.0719,-0.639,-0.7413000000000001,0.0,-0.006,-0.005,124.435,-0.006,-0.012,0.006,-0.157,-0.986,0.099,64.04,-16.19,-65.94,0.3555,-0.2828,0.6819000000000001,0.5732,-0.003,0.003,-0.009,0.0,0.0,0.0,0.0,0.0,0.0,0.0028762817382812,-0.0001916885375976,-0.0219783782958984,0.036630630493164,-0.0109891891479492,-0.018315315246582,0.0,0.0,0.0,0.0
2025-11-06 18:34:30.439,135.42,0.028,-0.062,0.022,-0.302,-0.913,0.239,7.890000000000001,-7.1000000000000005,-45.51,0.5991000000000001,-0.7715000000000001,-0.0075,-0.2136,-0.036,-0.016,-0.022,123.725,-0.006,-0.013,-0.001,-0.13,-0.969,-0.167,27.68,-23.15,-75.7,-0.1918,0.0719,-0.639,-0.7413000000000001,0.0,-0.006,-0.005,124.435,-0.006,-0.012,0.006,-0.157,-0.986,0.099,64.04,-16.19,-65.94,0.3555,-0.2828,0.6819000000000001,0.5732,-0.003,0.003,-0.009,0.0,0.0,0.0,0.0,0.0,0.0,0.0028762817382812,-0.0001916885375976,-0.0219783782958984,0.036630630493164,-0.0109891891479492,-0.018315315246582,0.0,0.0,0.0,0.0
2025-11-06 18:34:30.439,135.415,0.019,-0.072,0.022,-0.305,-0.914,0.24,7.890000000000001,-7.1000000000000005,-45.51,0.5992000000000001,-0.7714000000000001,-0.0076,-0.2137,-0.033,-0.015,-0.023,123.725,-0.006,-0.013,-0.001,-0.13,-0.969,-0.167,27.68,-23.15,-75.7,-0.1918,0.0719,-0.639,-0.7413000000000001,0.0,-0.006,-0.005,124.435,-0.006,-0.012,0.006,-0.157,-0.986,0.099,64.04,-16.19,-65.94,0.3555,-0.2828,0.6819000000000001,0.5732,-0.003,0.003,-0.009,0.0,0.0,0.0,0.0,0.0,0.0,0.0028762817382812,-0.0001916885375976,-0.0219783782958984,0.036630630493164,-0.0109891891479492,-0.018315315246582,0.0,0.0,0.0,0.0
2025-11-06 18:34:30.439,135.435,0.05,-0.056,0.032,-0.299,-0.909,0.236,7.62,-7.54,-44.98,0.5988,-0.7718,-0.0071,-0.2134,-0.039,-0.02,-0.018,123.725,-0.006,-0.013,-0.001,-0.13,-0.969,-0.167,27.68,-23.15,-75.7,-0.1918,0.0719,-0.639,-0.7413000000000001,0.0,-0.006,-0.005,124.435,-0.006,-0.012,0.006,-0.157,-0.986,0.099,64.04,-16.19,-65.94,0.3555,-0.2828,0.6819000000000001,0.5732,-0.003,0.003,-0.009,0.0,0.0,0.0,0.0,0.0,0.0,0.0028762817382812,-0.0001916885375976,-0.0219783782958984,0.036630630493164,-0.0109891891479492,-0.018315315246582,0.0,0.0,0.0,0.0
2025-11-06 18:34:30.439,135.335,-0.035,-0.031,0.029,-0.321,-0.941,0.216,8.65,-7.16,-45.71,0.5991000000000001,-0.7712,-0.0098,-0.2144,-0.015,0.01,0.0,123.725,-0.006,-0.013,-0.001,-0.13,-0.969,-0.167,27.68,-23.15,-75.7,-0.1918,0.0719,-0.639,-0.7413000000000001,0.0,-0.006,-0.005,124.435,-0.006,-0.012,0.006,-0.157,-0.986,0.099,64.04,-16.19,-65.94,0.3555,-0.2828,0.6819000000000001,0.5732,-0.003,0.003,-0.009,0.0,0.0,0.0,0.0,0.0,0.0,0.0028762817382812,-0.0001916885375976,-0.0219783782958984,0.036630630493164,-0.0109891891479492,-0.018315315246582,0.0,0.0,0.0,0.0
2025-11-06 18:34:30.439,135.34,-0.032,-0.026,0.034,-0.321,-0.938,0.22,8.21,-6.92,-45.77,0.5992000000000001,-0.7712,-0.0097,-0.2144,-0.015,0.007,-0.003,123.725,-0.006,-0.013,-0.001,-0.13,-0.969,-0.167,27.68,-23.15,-75.7,-0.1918,0.0719,-0.639,-0.7413000000000001,0.0,-0.006,-0.005,124.435,-0.006,-0.012,0.006,-0.157,-0.986,0.099,64.04,-16.19,-65.94,0.3555,-0.2828,0.6819000000000001,0.5732,-0.003,0.003,-0.009,0.0,0.0,0.0,0.0,0.0,0.0,0.0028762817382812,-0.0001916885375976,-0.0219783782958984,0.036630630493164,-0.0109891891479492,-0.018315315246582,0.0,0.0,0.0,0.0
2025-11-06 18:34:30.439,135.525,0.18,-0.053,0.142,-0.312,-0.928,0.225,8.18,-7.48,-44.84,0.5933,-0.7759,-0.0034,-0.214,-0.033,0.003,0.004,123.725,-0.006,-0.013,-0.001,-0.13,-0.969,-0.167,27.68,-23.15,-75.7,-0.1918,0.0719,-0.639,-0.7413000000000001,0.0,-0.006,-0.005,124.435,-0.006,-0.012,0.006,-0.157,-0.986,0.099,64.04,-16.19,-65.94,0.3555,-0.2828,0.6819000000000001,0.5732,-0.003,0.003,-0.009,0.0,0.0,0.0,0.0,0.0,0.0,0.0028762817382812,-0.0001916885375976,-0.0219783782958984,0.036630630493164,-0.0109891891479492,-0.018315315246582,0.0,0.0,0.0,0.0
2025-11-06 18:34:30.439,135.55,0.208,-0.051,0.161,-0.315,-0.911,0.232,8.09,-7.01,-44.81,0.5910000000000001,-0.7775000000000001,-0.002,-0.2146,-0.034,-0.011,0.002,123.725,-0.006,-0.013,-0.001,-0.13,-0.969,-0.167,27.68,-23.15,-75.7,-0.1918,0.0719,-0.639,-0.7413000000000001,0.0,-0.006,-0.005,124.435,-0.006,-0.012,0.006,-0.157,-0.986,0.099,64.04,-16.19,-65.94,0.3555,-0.2828,0.6819000000000001,0.5732,-0.003,0.003,-0.009,0.0,0.0,0.0,0.0,0.0,0.0,0.0028762817382812,-0.0001916885375976,-0.0219783782958984,0.036630630493164,-0.0109891891479492,-0.018315315246582,0.0,0.0,0.0,0.0
2025-11-06 18:34:30.439,135.515,0.169,-0.052,0.137,-0.31,-0.933,0.227,8.18,-7.48,-44.84,0.5942000000000001,-0.7753,-0.0039,-0.2139,-0.034,0.007,0.001,123.725,-0.006,-0.013,-0.001,-0.13,-0.969,-0.167,27.68,-23.15,-75.7,-0.1918,0.0719,-0.639,-0.7413000000000001,0.0,-0.006,-0.005,124.435,-0.006,-0.012,0.006,-0.157,-0.986,0.099,64.04,-16.19,-65.94,0.3555,-0.2828,0.6819000000000001,0.5732,-0.003,0.003,-0.009,0.0,0.0,0.0,0.0,0.0,0.0,0.0028762817382812,-0.0001916885375976,-0.0219783782958984,0.036630630493164,-0.0109891891479492,-0.018315315246582,0.0,0.0,0.0,0.0
2025-11-06 18:34:30.439,135.475,0.125,-0.052,0.109,-0.303,-0.929,0.236,7.68,-6.86,-44.69,0.5971000000000001,-0.7732,-0.0058,-0.2133,-0.037,0.001,-0.013,123.725,-0.006,-0.013,-0.001,-0.13,-0.969,-0.167,27.68,-23.15,-75.7,-0.1918,0.0719,-0.639,-0.7413000000000001,0.0,-0.006,-0.005,124.435,-0.006,-0.012,0.006,-0.157,-0.986,0.099,64.04,-16.19,-65.94,0.3555,-0.2828,0.6819000000000001,0.5732,-0.003,0.003,-0.009,0.0,0.0,0.0,0.0,0.0,0.0,0.0028762817382812,-0.0001916885375976,-0.0219783782958984,0.036630630493164,-0.0109891891479492,-0.018315315246582,0.0,0.0,0.0,0.0
2025-11-06 18:34:30.439,135.52,0.173,-0.051,0.138,-0.311,-0.93,0.226,8.18,-7.48,-44.84,0.5937,-0.7756000000000001,-0.0036,-0.2139,-0.033,0.005,0.003,123.725,-0.006,-0.013,-0.001,-0.13,-0.969,-0.167,27.68,-23.15,-75.7,-0.1918,0.0719,-0.639,-0.7413000000000001,0.0,-0.006,-0.005,124.435,-0.006,-0.012,0.006,-0.157,-0.986,0.099,64.04,-16.19,-65.94,0.3555,-0.2828,0.6819000000000001,0.5732,-0.003,0.003,-0.009,0.0,0.0,0.0,0.0,0.0,0.0,0.0028762817382812,-0.0001916885375976,-0.0219783782958984,0.036630630493164,-0.0109891891479492,-0.018315315246582,0.0,0.0,0.0,0.0
2025-11-06 18:34:30.439,135.535,0.188,-0.052,0.148,-0.313,-0.918,0.228,7.95,-7.01,-45.51,0.5924,-0.7765000000000001,-0.0028,-0.2142,-0.033,-0.005,0.004,123.725,-0.006,-0.013,-0.001,-0.13,-0.969,-0.167,27.68,-23.15,-75.7,-0.1918,0.0719,-0.639,-0.7413000000000001,0.0,-0.006,-0.005,124.435,-0.006,-0.012,0.006,-0.157,-0.986,0.099,64.04,-16.19,-65.94,0.3555,-0.2828,0.6819000000000001,0.5732,-0.003,0.003,-0.009,0.0,0.0,0.0,0.0,0.0,0.0,0.0028762817382812,-0.0001916885375976,-0.0219783782958984,0.036630630493164,-0.0109891891479492,-0.018315315246582,0.0,0.0,0.0,0.0
2025-11-06 18:34:30.439,135.51,0.165,-0.052,0.139,-0.311,-0.937,0.227,8.3,-6.6000000000000005,-44.95,0.5946,-0.775,-0.0041,-0.2138,-0.033,0.011,0.0,123.725,-0.006,-0.013,-0.001,-0.13,-0.969,-0.167,27.68,-23.15,-75.7,-0.1918,0.0719,-0.639,-0.7413000000000001,0.0,-0.006,-0.005,124.435,-0.006,-0.012,0.006,-0.157,-0.986,0.099,64.04,-16.19,-65.94,0.3555,-0.2828,0.6819000000000001,0.5732,-0.003,0.003,-0.009,0.0,0.0,0.0,0.0,0.0,0.0,0.0028762817382812,-0.0001916885375976,-0.0219783782958984,0.036630630493164,-0.0109891891479492,-0.018315315246582,0.0,0.0,0.0,0.0
2025-11-06 18:34:30.439,135.48,0.131,-0.05,0.117,-0.306,-0.933,0.234,7.68,-6.86,-44.69,0.5968,-0.7734000000000001,-0.0056,-0.2134,-0.034,0.005,-0.011,123.725,-0.006,-0.013,-0.001,-0.13,-0.969,-0.167,27.68,-23.15,-75.7,-0.1918,0.0719,-0.639,-0.7413000000000001,0.0,-0.006,-0.005,124.435,-0.006,-0.012,0.006,-0.157,-0.986,0.099,64.04,-16.19,-65.94,0.3555,-0.2828,0.6819000000000001,0.5732,-0.003,0.003,-0.009,0.0,0.0,0.0,0.0,0.0,0.0,0.0028762817382812,-0.0001916885375976,-0.0219783782958984,0.036630630493164,-0.0109891891479492,-0.018315315246582,0.0,0.0,0.0,0.0
2025-11-06 18:34:30.439,135.5,0.153,-0.057,0.139,-0.31,-0.937,0.229,8.3,-6.6000000000000005,-44.95,0.5953,-0.7744000000000001,-0.0046,-0.2136,-0.033,0.01,-0.002,123.725,-0.006,-0.013,-0.001,-0.13,-0.969,-0.167,27.68,-23.15,-75.7,-0.1918,0.0719,-0.639,-0.7413000000000001,0.0,-0.006,-0.005,124.435,-0.006,-0.012,0.006,-0.157,-0.986,0.099,64.04,-16.19,-65.94,0.3555,-0.2828,0.6819000000000001,0.5732,-0.003,0.003,-0.009,0.0,0.0,0.0,0.0,0.0,0.0,0.0028762817382812,-0.0001916885375976,-0.0219783782958984,0.036630630493164,-0.0109891891479492,-0.018315315246582,0.0,0.0,0.0,0.0
2025-11-06 18:34:30.439,135.495,0.145,-0.056,0.135,-0.308,-0.938,0.232,8.44,-7.8,-44.81,0.5957,-0.7742,-0.0049,-0.2136,-0.034,0.011,-0.006,123.725,-0.006,-0.013,-0.001,-0.13,-0.969,-0.167,27.68,-23.15,-75.7,-0.1918,0.0719,-0.639,-0.7413000000000001,0.0,-0.006,-0.005,124.435,-0.006,-0.012,0.006,-0.157,-0.986,0.099,64.04,-16.19,-65.94,0.3555,-0.2828,0.6819000000000001,0.5732,-0.003,0.003,-0.009,0.0,0.0,0.0,0.0,0.0,0.0,0.0028762817382812,-0.0001916885375976,-0.0219783782958984,0.036630630493164,-0.0109891891479492,-0.018315315246582,0.0,0.0,0.0,0.0
2025-11-06 18:34:30.439,135.49,0.141,-0.057,0.129,-0.308,-0.938,0.232,8.44,-7.8,-44.81,0.5961000000000001,-0.7739,-0.0051,-0.2135,-0.033,0.01,-0.007,123.725,-0.006,-0.013,-0.001,-0.13,-0.969,-0.167,27.68,-23.15,-75.7,-0.1918,0.0719,-0.639,-0.7413000000000001,0.0,-0.006,-0.005,124.435,-0.006,-0.012,0.006,-0.157,-0.986,0.099,64.04,-16.19,-65.94,0.3555,-0.2828,0.6819000000000001,0.5732,-0.003,0.003,-0.009,0.0,0.0,0.0,0.0,0.0,0.0,0.0028762817382812,-0.0001916885375976,-0.0219783782958984,0.036630630493164,-0.0109891891479492,-0.018315315246582,0.0,0.0,0.0,0.0
2025-11-06 18:34:30.439,135.485,0.135,-0.058,0.123,-0.306,-0.936,0.232,7.68,-6.86,-44.69,0.5964,-0.7737,-0.0054,-0.2134,-0.035,0.008,-0.008,123.725,-0.006,-0.013,-0.001,-0.13,-0.969,-0.167,27.68,-23.15,-75.7,-0.1918,0.0719,-0.639,-0.7413000000000001,0.0,-0.006,-0.005,124.435,-0.006,-0.012,0.006,-0.157,-0.986,0.099,64.04,-16.19,-65.94,0.3555,-0.2828,0.6819000000000001,0.5732,-0.003,0.003,-0.009,0.0,0.0,0.0,0.0,0.0,0.0,0.0028762817382812,-0.0001916885375976,-0.0219783782958984,0.036630630493164,-0.0109891891479492,-0.018315315246582,0.0,0.0,0.0,0.0
2025-11-06 18:34:30.439,135.54,0.194,-0.053,0.153,-0.312,-0.917,0.228,8.09,-7.01,-44.81,0.5919,-0.7768,-0.0026,-0.2143,-0.035,-0.006,0.004,123.725,-0.006,-0.013,-0.001,-0.13,-0.969,-0.167,27.68,-23.15,-75.7,-0.1918,0.0719,-0.639,-0.7413000000000001,0.0,-0.006,-0.005,124.435,-0.006,-0.012,0.006,-0.157,-0.986,0.099,64.04,-16.19,-65.94,0.3555,-0.2828,0.6819000000000001,0.5732,-0.003,0.003,-0.009,0.0,0.0,0.0,0.0,0.0,0.0,0.0028762817382812,-0.0001916885375976,-0.0219783782958984,0.036630630493164,-0.0109891891479492,-0.018315315246582,0.0,0.0,0.0,0.0
2025-11-06 18:34:30.439,135.505,0.158,-0.055,0.138,-0.309,-0.938,0.229,8.3,-6.6000000000000005,-44.95,0.595,-0.7747,-0.0043,-0.2137,-0.034,0.011,-0.002,123.725,-0.006,-0.013,-0.001,-0.13,-0.969,-0.167,27.68,-23.15,-75.7,-0.1918,0.0719,-0.639,-0.7413000000000001,0.0,-0.006,-0.005,124.435,-0.006,-0.012,0.006,-0.157,-0.986,0.099,64.04,-16.19,-65.94,0.3555,-0.2828,0.6819000000000001,0.5732,-0.003,0.003,-0.009,0.0,0.0,0.0,0.0,0.0,0.0,0.0028762817382812,-0.0001916885375976,-0.0219783782958984,0.036630630493164,-0.0109891891479492,-0.018315315246582,0.0,0.0,0.0,0.0
2025-11-06 18:34:30.439,135.545,0.2,-0.054,0.157,-0.313,-0.914,0.229,8.09,-7.01,-44.81,0.5915,-0.7772,-0.0023,-0.2145,-0.035,-0.008,0.004,123.725,-0.006,-0.013,-0.001,-0.13,-0.969,-0.167,27.68,-23.15,-75.7,-0.1918,0.0719,-0.639,-0.7413000000000001,0.0,-0.006,-0.005,124.435,-0.006,-0.012,0.006,-0.157,-0.986,0.099,64.04,-16.19,-65.94,0.3555,-0.2828,0.6819000000000001,0.5732,-0.003,0.003,-0.009,0.0,0.0,0.0,0.0,0.0,0.0,0.0028762817382812,-0.0001916885375976,-0.0219783782958984,0.036630630493164,-0.0109891891479492,-0.018315315246582,0.0,0.0,0.0,0.0
2025-11-06 18:34:30.439,135.53,0.185,-0.052,0.146,-0.311,-0.924,0.226,7.95,-7.01,-45.51,0.5929,-0.7762,-0.0031,-0.2141,-0.035,0.0,0.005,123.725,-0.006,-0.013,-0.001,-0.13,-0.969,-0.167,27.68,-23.15,-75.7,-0.1918,0.0719,-0.639,-0.7413000000000001,0.0,-0.006,-0.005,124.435,-0.006,-0.012,0.006,-0.157,-0.986,0.099,64.04,-16.19,-65.94,0.3555,-0.2828,0.6819000000000001,0.5732,-0.003,0.003,-0.009,0.0,0.0,0.0,0.0,0.0,0.0,0.0028762817382812,-0.0001916885375976,-0.0219783782958984,0.036630630493164,-0.0109891891479492,-0.018315315246582,0.0,0.0,0.0,0.0
2025-11-06 18:34:30.439,135.555,0.218,-0.055,0.164,-0.316,-0.908,0.233,7.8,-7.16,-44.78,0.5904,-0.7779,-0.0017,-0.2147,-0.033,-0.013,0.003,123.725,-0.006,-0.013,-0.001,-0.13,-0.969,-0.167,27.68,-23.15,-75.7,-0.1918,0.0719,-0.639,-0.7413000000000001,0.0,-0.006,-0.005,124.435,-0.006,-0.012,0.006,-0.157,-0.986,0.099,64.04,-16.19,-65.94,0.3555,-0.2828,0.6819000000000001,0.5732,-0.003,0.003,-0.009,0.0,0.0,0.0,0.0,0.0,0.0,0.0028762817382812,-0.0001916885375976,-0.0219783782958984,0.036630630493164,-0.0109891891479492,-0.018315315246582,0.0,0.0,0.0,0.0
2025-11-06 18:34:30.439,135.61,0.403,0.11,0.205,-0.37,-0.894,0.244,7.57,-6.890000000000001,-44.37,0.5824,-0.7831,0.0002,-0.2177,0.01,-0.021,0.007,123.725,-0.006,-0.013,-0.001,-0.13,-0.969,-0.167,27.68,-23.15,-75.7,-0.1918,0.0719,-0.639,-0.7413000000000001,0.0,-0.006,-0.005,124.435,-0.006,-0.012,0.006,-0.157,-0.986,0.099,64.04,-16.19,-65.94,0.3555,-0.2828,0.6819000000000001,0.5732,-0.003,0.003,-0.009,0.0,0.0,0.0,0.0,0.0,0.0,0.0028762817382812,-0.0001916885375976,-0.0219783782958984,0.036630630493164,-0.0109891891479492,-0.018315315246582,0.0,0.0,0.0,0.0
2025-11-06 18:34:30.439,135.615,0.416,0.134,0.214,-0.377,-0.895,0.248,7.42,-7.01,-43.81,0.5815,-0.7837000000000001,0.0002,-0.2182,0.016,-0.018,0.005,123.725,-0.006,-0.013,-0.001,-0.13,-0.969,-0.167,27.68,-23.15,-75.7,-0.1918,0.0719,-0.639,-0.7413000000000001,0.0,-0.006,-0.005,124.435,-0.006,-0.012,0.006,-0.157,-0.986,0.099,64.04,-16.19,-65.94,0.3555,-0.2828,0.6819000000000001,0.5732,-0.003,0.003,-0.009,0.0,0.0,0.0,0.0,0.0,0.0,0.0028762817382812,-0.0001916885375976,-0.0219783782958984,0.036630630493164,-0.0109891891479492,-0.018315315246582,0.0,0.0,0.0,0.0
2025-11-06 18:34:30.439,135.6,0.37,0.059,0.191,-0.366,-0.893,0.245,7.19,-7.51,-44.13,0.5842,-0.782,0.0,-0.2167,0.008,-0.023,0.003,123.725,-0.006,-0.013,-0.001,-0.13,-0.969,-0.167,27.68,-23.15,-75.7,-0.1918,0.0719,-0.639,-0.7413000000000001,0.0,-0.006,-0.005,124.435,-0.006,-0.012,0.006,-0.157,-0.986,0.099,64.04,-16.19,-65.94,0.3555,-0.2828,0.6819000000000001,0.5732,-0.003,0.003,-0.009,0.0,0.0,0.0,0.0,0.0,0.0,0.0028762817382812,-0.0001916885375976,-0.0219783782958984,0.036630630493164,-0.0109891891479492,-0.018315315246582,0.0,0.0,0.0,0.0
2025-11-06 18:34:30.439,135.595,0.353,0.043,0.186,-0.363,-0.892,0.245,7.19,-7.51,-44.13,0.5851000000000001,-0.7815000000000001,0.0,-0.2163,0.006,-0.025,0.0,123.725,-0.006,-0.013,-0.001,-0.13,-0.969,-0.167,27.68,-23.15,-75.7,-0.1918,0.0719,-0.639,-0.7413000000000001,0.0,-0.006,-0.005,124.435,-0.006,-0.012,0.006,-0.157,-0.986,0.099,64.04,-16.19,-65.94,0.3555,-0.2828,0.6819000000000001,0.5732,-0.003,0.003,-0.009,0.0,0.0,0.0,0.0,0.0,0.0,0.0028762817382812,-0.0001916885375976,-0.0219783782958984,0.036630630493164,-0.0109891891479492,-0.018315315246582,0.0,0.0,0.0,0.0
2025-11-06 18:34:30.439,135.59,0.323,0.0,0.18,-0.354,-0.893,0.246,7.19,-7.51,-44.13,0.5859,-0.781,-0.0001,-0.216,-0.001,-0.024,-0.001,123.725,-0.006,-0.013,-0.001,-0.13,-0.969,-0.167,27.68,-23.15,-75.7,-0.1918,0.0719,-0.639,-0.7413000000000001,0.0,-0.006,-0.005,124.435,-0.006,-0.012,0.006,-0.157,-0.986,0.099,64.04,-16.19,-65.94,0.3555,-0.2828,0.6819000000000001,0.5732,-0.003,0.003,-0.009,0.0,0.0,0.0,0.0,0.0,0.0,0.0028762817382812,-0.0001916885375976,-0.0219783782958984,0.036630630493164,-0.0109891891479492,-0.018315315246582,0.0,0.0,0.0,0.0
2025-11-06 18:34:30.439,135.605,0.385,0.082,0.198,-0.368,-0.893,0.244,7.57,-6.890000000000001,-44.37,0.5833,-0.7826000000000001,0.0001,-0.2172,0.009,-0.022,0.005,123.725,-0.006,-0.013,-0.001,-0.13,-0.969,-0.167,27.68,-23.15,-75.7,-0.1918,0.0719,-0.639,-0.7413000000000001,0.0,-0.006,-0.005,124.435,-0.006,-0.012,0.006,-0.157,-0.986,0.099,64.04,-16.19,-65.94,0.3555,-0.2828,0.6819000000000001,0.5732,-0.003,0.003,-0.009,0.0,0.0,0.0,0.0,0.0,0.0,0.0028762817382812,-0.0001916885375976,-0.0219783782958984,0.036630630493164,-0.0109891891479492,-0.018315315246582,0.0,0.0,0.0,0.0
2025-11-06 18:34:30.439,135.58,0.291,-0.025,0.176,-0.344,-0.893,0.243,7.65,-7.42,-44.37,0.5874,-0.78,-0.0004,-0.2155,-0.009,-0.026,-0.001,123.725,-0.006,-0.013,-0.001,-0.13,-0.969,-0.167,27.68,-23.15,-75.7,-0.1918,0.0719,-0.639,-0.7413000000000001,0.0,-0.006,-0.005,124.435,-0.006,-0.012,0.006,-0.157,-0.986,0.099,64.04,-16.19,-65.94,0.3555,-0.2828,0.6819000000000001,0.5732,-0.003,0.003,-0.009,0.0,0.0,0.0,0.0,0.0,0.0,0.0028762817382812,-0.0001916885375976,-0.0219783782958984,0.036630630493164,-0.0109891891479492,-0.018315315246582,0.0,0.0,0.0,0.0
2025-11-06 18:34:30.439,135.575,0.28,-0.033,0.172,-0.338,-0.895,0.24,7.45,-6.890000000000001,-44.28,0.5880000000000001,-0.7795000000000001,-0.0007,-0.2153,-0.015,-0.024,0.0,123.725,-0.006,-0.013,-0.001,-0.13,-0.969,-0.167,27.68,-23.15,-75.7,-0.1918,0.0719,-0.639,-0.7413000000000001,0.0,-0.006,-0.005,124.435,-0.006,-0.012,0.006,-0.157,-0.986,0.099,64.04,-16.19,-65.94,0.3555,-0.2828,0.6819000000000001,0.5732,-0.003,0.003,-0.009,0.0,0.0,0.0,0.0,0.0,0.0,0.0028762817382812,-0.0001916885375976,-0.0219783782958984,0.036630630493164,-0.0109891891479492,-0.018315315246582,0.0,0.0,0.0,0.0
2025-11-06 18:34:30.439,135.57,0.26,-0.045,0.173,-0.335,-0.896,0.237,7.45,-6.890000000000001,-44.28,0.5887,-0.7791,-0.0009,-0.2151,-0.017,-0.023,0.001,123.725,-0.006,-0.013,-0.001,-0.13,-0.969,-0.167,27.68,-23.15,-75.7,-0.1918,0.0719,-0.639,-0.7413000000000001,0.0,-0.006,-0.005,124.435,-0.006,-0.012,0.006,-0.157,-0.986,0.099,64.04,-16.19,-65.94,0.3555,-0.2828,0.6819000000000001,0.5732,-0.003,0.003,-0.009,0.0,0.0,0.0,0.0,0.0,0.0,0.0028762817382812,-0.0001916885375976,-0.0219783782958984,0.036630630493164,-0.0109891891479492,-0.018315315246582,0.0,0.0,0.0,0.0
2025-11-06 18:34:30.439,135.565,0.248,-0.046,0.171,-0.326,-0.901,0.235,7.45,-6.890000000000001,-44.28,0.5893,-0.7787000000000001,-0.0012,-0.215,-0.025,-0.019,0.002,123.725,-0.006,-0.013,-0.001,-0.13,-0.969,-0.167,27.68,-23.15,-75.7,-0.1918,0.0719,-0.639,-0.7413000000000001,0.0,-0.006,-0.005,124.435,-0.006,-0.012,0.006,-0.157,-0.986,0.099,64.04,-16.19,-65.94,0.3555,-0.2828,0.6819000000000001,0.5732,-0.003,0.003,-0.009,0.0,0.0,0.0,0.0,0.0,0.0,0.0028762817382812,-0.0001916885375976,-0.0219783782958984,0.036630630493164,-0.0109891891479492,-0.018315315246582,0.0,0.0,0.0,0.0
2025-11-06 18:34:30.439,135.56,0.226,-0.049,0.167,-0.32,-0.906,0.233,7.8,-7.16,-44.78,0.5899,-0.7783,-0.0014,-0.2148,-0.03,-0.015,0.003,123.725,-0.006,-0.013,-0.001,-0.13,-0.969,-0.167,27.68,-23.15,-75.7,-0.1918,0.0719,-0.639,-0.7413000000000001,0.0,-0.006,-0.005,124.435,-0.006,-0.012,0.006,-0.157,-0.986,0.099,64.04,-16.19,-65.94,0.3555,-0.2828,0.6819000000000001,0.5732,-0.003,0.003,-0.009,0.0,0.0,0.0,0.0,0.0,0.0,0.0028762817382812,-0.0001916885375976,-0.0219783782958984,0.036630630493164,-0.0109891891479492,-0.018315315246582,0.0,0.0,0.0,0.0
2025-11-06 18:34:30.439,135.585,0.31,-0.013,0.176,-0.346,-0.892,0.244,7.65,-7.42,-44.37,0.5866,-0.7805000000000001,-0.0002,-0.2157,-0.008,-0.025,-0.001,123.725,-0.006,-0.013,-0.001,-0.13,-0.969,-0.167,27.68,-23.15,-75.7,-0.1918,0.0719,-0.639,-0.7413000000000001,0.0,-0.006,-0.005,124.435,-0.006,-0.012,0.006,-0.157,-0.986,0.099,64.04,-16.19,-65.94,0.3555,-0.2828,0.6819000000000001,0.5732,-0.003,0.003,-0.009,0.0,0.0,0.0,0.0,0.0,0.0,0.0028762817382812,-0.0001916885375976,-0.0219783782958984,0.036630630493164,-0.0109891891479492,-0.018315315246582,0.0,0.0,0.0,0.0
2025-11-06 18:34:30.440,135.67,0.444,0.5750000000000001,0.357,-0.456,-0.907,0.272,6.37,-6.72,-42.41,0.5695,-0.7888000000000001,-0.0019,-0.2306,0.076,0.005,-0.002,123.725,-0.006,-0.013,-0.001,-0.13,-0.969,-0.167,27.68,-23.15,-75.7,-0.1918,0.0719,-0.639,-0.7413000000000001,0.0,-0.006,-0.005,124.435,-0.006,-0.012,0.006,-0.157,-0.986,0.099,64.04,-16.19,-65.94,0.3555,-0.2828,0.6819000000000001,0.5732,-0.003,0.003,-0.009,0.0,0.0,0.0,0.0,0.0,0.0,0.0028762817382812,-0.0005750656127929,0.036630630493164,0.0073261260986328,-0.0036630630493164,-0.0036630630493164,0.0,0.0,0.0,0.0
2025-11-06 18:34:30.440,135.665,0.442,0.528,0.34,-0.452,-0.913,0.27,6.37,-6.72,-42.41,0.5707,-0.7885000000000001,-0.0015,-0.229,0.074,0.01,-0.001,123.725,-0.006,-0.013,-0.001,-0.13,-0.969,-0.167,27.68,-23.15,-75.7,-0.1918,0.0719,-0.639,-0.7413000000000001,0.0,-0.006,-0.005,124.435,-0.006,-0.012,0.006,-0.157,-0.986,0.099,64.04,-16.19,-65.94,0.3555,-0.2828,0.6819000000000001,0.5732,-0.003,0.003,-0.009,0.0,0.0,0.0,0.0,0.0,0.0,0.0028762817382812,-0.0005750656127929,0.036630630493164,0.0073261260986328,-0.0036630630493164,-0.0036630630493164,0.0,0.0,0.0,0.0
2025-11-06 18:34:30.440,135.66,0.442,0.492,0.328,-0.445,-0.916,0.268,6.46,-6.890000000000001,-42.67,0.5718,-0.7881,-0.0012,-0.2275,0.07,0.011,0.0,123.725,-0.006,-0.013,-0.001,-0.13,-0.969,-0.167,27.68,-23.15,-75.7,-0.1918,0.0719,-0.639,-0.7413000000000001,0.0,-0.006,-0.005,124.435,-0.006,-0.012,0.006,-0.157,-0.986,0.099,64.04,-16.19,-65.94,0.3555,-0.2828,0.6819000000000001,0.5732,-0.003,0.003,-0.009,0.0,0.0,0.0,0.0,0.0,0.0,0.0028762817382812,-0.0005750656127929,0.036630630493164,0.0073261260986328,-0.0036630630493164,-0.0036630630493164,0.0,0.0,0.0,0.0
2025-11-06 18:34:30.440,135.655,0.445,0.453,0.312,-0.44,-0.916,0.266,6.46,-6.890000000000001,-42.67,0.5729000000000001,-0.7878000000000001,-0.001,-0.2261,0.067,0.01,0.0,123.725,-0.006,-0.013,-0.001,-0.13,-0.969,-0.167,27.68,-23.15,-75.7,-0.1918,0.0719,-0.639,-0.7413000000000001,0.0,-0.006,-0.005,124.435,-0.006,-0.012,0.006,-0.157,-0.986,0.099,64.04,-16.19,-65.94,0.3555,-0.2828,0.6819000000000001,0.5732,-0.003,0.003,-0.009,0.0,0.0,0.0,0.0,0.0,0.0,0.0028762817382812,-0.0005750656127929,0.036630630493164,0.0073261260986328,-0.0036630630493164,-0.0036630630493164,0.0,0.0,0.0,0.0
2025-11-06 18:34:30.440,135.645,0.464,0.367,0.277,-0.427,-0.915,0.26,6.98,-6.86,-43.05,0.5750000000000001,-0.7869,-0.0005,-0.2235,0.058,0.007,0.003,123.725,-0.006,-0.013,-0.001,-0.13,-0.969,-0.167,27.68,-23.15,-75.7,-0.1918,0.0719,-0.639,-0.7413000000000001,0.0,-0.006,-0.005,124.435,-0.006,-0.012,0.006,-0.157,-0.986,0.099,64.04,-16.19,-65.94,0.3555,-0.2828,0.6819000000000001,0.5732,-0.003,0.003,-0.009,0.0,0.0,0.0,0.0,0.0,0.0,0.0028762817382812,-0.0005750656127929,0.036630630493164,0.0073261260986328,-0.0036630630493164,-0.0036630630493164,0.0,0.0,0.0,0.0
2025-11-06 18:34:30.440,135.64,0.467,0.321,0.267,-0.417,-0.914,0.26,6.98,-6.86,-43.05,0.5762,-0.7864,-0.0003,-0.2224,0.049,0.004,0.001,123.725,-0.006,-0.013,-0.001,-0.13,-0.969,-0.167,27.68,-23.15,-75.7,-0.1918,0.0719,-0.639,-0.7413000000000001,0.0,-0.006,-0.005,124.435,-0.006,-0.012,0.006,-0.157,-0.986,0.099,64.04,-16.19,-65.94,0.3555,-0.2828,0.6819000000000001,0.5732,-0.003,0.003,-0.009,0.0,0.0,0.0,0.0,0.0,0.0,0.0028762817382812,-0.0005750656127929,0.036630630493164,0.0073261260986328,-0.0036630630493164,-0.0036630630493164,0.0,0.0,0.0,0.0
2025-11-06 18:34:30.440,135.635,0.466,0.282,0.256,-0.41,-0.912,0.259,6.86,-7.33,-43.55,0.5773,-0.7859,-0.0001,-0.2214,0.044,0.001,0.001,123.725,-0.006,-0.013,-0.001,-0.13,-0.969,-0.167,27.68,-23.15,-75.7,-0.1918,0.0719,-0.639,-0.7413000000000001,0.0,-0.006,-0.005,124.435,-0.006,-0.012,0.006,-0.157,-0.986,0.099,64.04,-16.19,-65.94,0.3555,-0.2828,0.6819000000000001,0.5732,-0.003,0.003,-0.009,0.0,0.0,0.0,0.0,0.0,0.0,0.0028762817382812,-0.0005750656127929,0.036630630493164,0.0073261260986328,-0.0036630630493164,-0.0036630630493164,0.0,0.0,0.0,0.0
2025-11-06 18:34:30.440,135.675,0.451,0.609,0.371,-0.463,-0.904,0.275,6.37,-6.72,-42.41,0.5684,-0.7892,-0.0022,-0.2323,0.08,0.003,-0.004,123.725,-0.006,-0.013,-0.001,-0.13,-0.969,-0.167,27.68,-23.15,-75.7,-0.1918,0.0719,-0.639,-0.7413000000000001,0.0,-0.006,-0.005,124.435,-0.006,-0.012,0.006,-0.157,-0.986,0.099,64.04,-16.19,-65.94,0.3555,-0.2828,0.6819000000000001,0.5732,-0.003,0.003,-0.009,0.0,0.0,0.0,0.0,0.0,0.0,0.0028762817382812,-0.0005750656127929,0.036630630493164,0.0073261260986328,-0.0036630630493164,-0.0036630630493164,0.0,0.0,0.0,0.0
2025-11-06 18:34:30.440,135.63,0.46,0.245,0.244,-0.403,-0.908,0.256,6.86,-7.33,-43.55,0.5783,-0.7853,0.0,-0.2205,0.038,-0.003,0.002,123.725,-0.006,-0.013,-0.001,-0.13,-0.969,-0.167,27.68,-23.15,-75.7,-0.1918,0.0719,-0.639,-0.7413000000000001,0.0,-0.006,-0.005,124.435,-0.006,-0.012,0.006,-0.157,-0.986,0.099,64.04,-16.19,-65.94,0.3555,-0.2828,0.6819000000000001,0.5732,-0.003,0.003,-0.009,0.0,0.0,0.0,0.0,0.0,0.0,0.0028762817382812,-0.0005750656127929,0.036630630493164,0.0073261260986328,-0.0036630630493164,-0.0036630630493164,0.0,0.0,0.0,0.0
2025-11-06 18:34:30.440,135.65,0.455,0.417,0.298,-0.435,-0.916,0.263,6.98,-6.86,-43.05,0.5739000000000001,-0.7873,-0.0007,-0.2247,0.064,0.009,0.002,123.725,-0.006,-0.013,-0.001,-0.13,-0.969,-0.167,27.68,-23.15,-75.7,-0.1918,0.0719,-0.639,-0.7413000000000001,0.0,-0.006,-0.005,124.435,-0.006,-0.012,0.006,-0.157,-0.986,0.099,64.04,-16.19,-65.94,0.3555,-0.2828,0.6819000000000001,0.5732,-0.003,0.003,-0.009,0.0,0.0,0.0,0.0,0.0,0.0,0.0028762817382812,-0.0005750656127929,0.036630630493164,0.0073261260986328,-0.0036630630493164,-0.0036630630493164,0.0,0.0,0.0,0.0
2025-11-06 18:34:30.440,135.745,0.528,0.509,0.42,-0.418,-0.963,0.219,4.82,-7.16,-40.45,0.5484,-0.7951,-0.0073,-0.2585,-0.002,0.083,0.071,123.725,-0.006,-0.013,-0.001,-0.13,-0.969,-0.167,27.68,-23.15,-75.7,-0.1918,0.0719,-0.639,-0.7413000000000001,0.0,-0.006,-0.005,124.435,-0.006,-0.012,0.006,-0.157,-0.986,0.099,64.04,-16.19,-65.94,0.3555,-0.2828,0.6819000000000001,0.5732,-0.003,0.003,-0.009,0.0,0.0,0.0,0.0,0.0,0.0,0.0028762817382812,-0.0005750656127929,0.036630630493164,0.0073261260986328,-0.0036630630493164,-0.0036630630493164,0.0,0.0,0.0,0.0
2025-11-06 18:34:30.440,135.715,0.614,0.7020000000000001,0.45,-0.473,-0.908,0.242,5.0200000000000005,-7.1000000000000005,-41.94,0.5573,-0.7923,-0.0056,-0.2479,0.068,0.018,0.038,123.725,-0.006,-0.013,-0.001,-0.13,-0.969,-0.167,27.68,-23.15,-75.7,-0.1918,0.0719,-0.639,-0.7413000000000001,0.0,-0.006,-0.005,124.435,-0.006,-0.012,0.006,-0.157,-0.986,0.099,64.04,-16.19,-65.94,0.3555,-0.2828,0.6819000000000001,0.5732,-0.003,0.003,-0.009,0.0,0.0,0.0,0.0,0.0,0.0,0.0028762817382812,-0.0005750656127929,0.036630630493164,0.0073261260986328,-0.0036630630493164,-0.0036630630493164,0.0,0.0,0.0,0.0
2025-11-06 18:34:30.440,135.69,0.509,0.6910000000000001,0.406,-0.472,-0.895,0.275,5.72,-7.19,-41.8,0.5646,-0.7902,-0.0035,-0.238,0.082,-0.001,-0.001,123.725,-0.006,-0.013,-0.001,-0.13,-0.969,-0.167,27.68,-23.15,-75.7,-0.1918,0.0719,-0.639,-0.7413000000000001,0.0,-0.006,-0.005,124.435,-0.006,-0.012,0.006,-0.157,-0.986,0.099,64.04,-16.19,-65.94,0.3555,-0.2828,0.6819000000000001,0.5732,-0.003,0.003,-0.009,0.0,0.0,0.0,0.0,0.0,0.0,0.0028762817382812,-0.0005750656127929,0.036630630493164,0.0073261260986328,-0.0036630630493164,-0.0036630630493164,0.0,0.0,0.0,0.0
2025-11-06 18:34:30.440,135.695,0.53,0.7010000000000001,0.418,-0.475,-0.894,0.27,5.72,-7.19,-41.8,0.5633,-0.7906000000000001,-0.0039,-0.2399,0.082,-0.001,0.005,123.725,-0.006,-0.013,-0.001,-0.13,-0.969,-0.167,27.68,-23.15,-75.7,-0.1918,0.0719,-0.639,-0.7413000000000001,0.0,-0.006,-0.005,124.435,-0.006,-0.012,0.006,-0.157,-0.986,0.099,64.04,-16.19,-65.94,0.3555,-0.2828,0.6819000000000001,0.5732,-0.003,0.003,-0.009,0.0,0.0,0.0,0.0,0.0,0.0,0.0028762817382812,-0.0005750656127929,0.036630630493164,0.0073261260986328,-0.0036630630493164,-0.0036630630493164,0.0,0.0,0.0,0.0
2025-11-06 18:34:30.440,135.7,0.554,0.708,0.429,-0.475,-0.895,0.263,5.72,-7.19,-41.8,0.5619000000000001,-0.791,-0.0043,-0.2419,0.079,0.0,0.012,123.725,-0.006,-0.013,-0.001,-0.13,-0.969,-0.167,27.68,-23.15,-75.7,-0.1918,0.0719,-0.639,-0.7413000000000001,0.0,-0.006,-0.005,124.435,-0.006,-0.012,0.006,-0.157,-0.986,0.099,64.04,-16.19,-65.94,0.3555,-0.2828,0.6819000000000001,0.5732,-0.003,0.003,-0.009,0.0,0.0,0.0,0.0,0.0,0.0,0.0028762817382812,-0.0005750656127929,0.036630630493164,0.0073261260986328,-0.0036630630493164,-0.0036630630493164,0.0,0.0,0.0,0.0
2025-11-06 18:34:30.440,135.705,0.577,0.712,0.439,-0.475,-0.898,0.257,5.55,-7.3,-41.5,0.5604,-0.7914,-0.0048,-0.2439,0.076,0.005,0.02,123.725,-0.006,-0.013,-0.001,-0.13,-0.969,-0.167,27.68,-23.15,-75.7,-0.1918,0.0719,-0.639,-0.7413000000000001,0.0,-0.006,-0.005,124.435,-0.006,-0.012,0.006,-0.157,-0.986,0.099,64.04,-16.19,-65.94,0.3555,-0.2828,0.6819000000000001,0.5732,-0.003,0.003,-0.009,0.0,0.0,0.0,0.0,0.0,0.0,0.0028762817382812,-0.0005750656127929,0.036630630493164,0.0073261260986328,-0.0036630630493164,-0.0036630630493164,0.0,0.0,0.0,0.0
2025-11-06 18:34:30.440,135.71,0.595,0.712,0.445,-0.474,-0.901,0.252,5.55,-7.3,-41.5,0.5589000000000001,-0.7918000000000001,-0.0052,-0.2459,0.073,0.01,0.027,123.725,-0.006,-0.013,-0.001,-0.13,-0.969,-0.167,27.68,-23.15,-75.7,-0.1918,0.0719,-0.639,-0.7413000000000001,0.0,-0.006,-0.005,124.435,-0.006,-0.012,0.006,-0.157,-0.986,0.099,64.04,-16.19,-65.94,0.3555,-0.2828,0.6819000000000001,0.5732,-0.003,0.003,-0.009,0.0,0.0,0.0,0.0,0.0,0.0,0.0028762817382812,-0.0005750656127929,0.036630630493164,0.0073261260986328,-0.0036630630493164,-0.0036630630493164,0.0,0.0,0.0,0.0
2025-11-06 18:34:30.440,135.72,0.615,0.682,0.452,-0.471,-0.912,0.234,5.0200000000000005,-7.1000000000000005,-41.94,0.5558000000000001,-0.7928000000000001,-0.006,-0.2499,0.064,0.024,0.048,123.725,-0.006,-0.013,-0.001,-0.13,-0.969,-0.167,27.68,-23.15,-75.7,-0.1918,0.0719,-0.639,-0.7413000000000001,0.0,-0.006,-0.005,124.435,-0.006,-0.012,0.006,-0.157,-0.986,0.099,64.04,-16.19,-65.94,0.3555,-0.2828,0.6819000000000001,0.5732,-0.003,0.003,-0.009,0.0,0.0,0.0,0.0,0.0,0.0,0.0028762817382812,-0.0005750656127929,0.036630630493164,0.0073261260986328,-0.0036630630493164,-0.0036630630493164,0.0,0.0,0.0,0.0
2025-11-06 18:34:30.440,135.725,0.608,0.655,0.453,-0.465,-0.92,0.226,5.0200000000000005,-7.1000000000000005,-41.94,0.5542,-0.7933,-0.0064,-0.2518,0.055,0.033,0.057,123.725,-0.006,-0.013,-0.001,-0.13,-0.969,-0.167,27.68,-23.15,-75.7,-0.1918,0.0719,-0.639,-0.7413000000000001,0.0,-0.006,-0.005,124.435,-0.006,-0.012,0.006,-0.157,-0.986,0.099,64.04,-16.19,-65.94,0.3555,-0.2828,0.6819000000000001,0.5732,-0.003,0.003,-0.009,0.0,0.0,0.0,0.0,0.0,0.0,0.0028762817382812,-0.0005750656127929,0.036630630493164,0.0073261260986328,-0.0036630630493164,-0.0036630630493164,0.0,0.0,0.0,0.0
2025-11-06 18:34:30.440,135.73,0.602,0.622,0.45,-0.459,-0.929,0.219,4.88,-6.95,-41.71,0.5527000000000001,-0.7937000000000001,-0.0067,-0.2536,0.046,0.044,0.066,123.725,-0.006,-0.013,-0.001,-0.13,-0.969,-0.167,27.68,-23.15,-75.7,-0.1918,0.0719,-0.639,-0.7413000000000001,0.0,-0.006,-0.005,124.435,-0.006,-0.012,0.006,-0.157,-0.986,0.099,64.04,-16.19,-65.94,0.3555,-0.2828,0.6819000000000001,0.5732,-0.003,0.003,-0.009,0.0,0.0,0.0,0.0,0.0,0.0,0.0028762817382812,-0.0005750656127929,0.036630630493164,0.0073261260986328,-0.0036630630493164,-0.0036630630493164,0.0,0.0,0.0,0.0
2025-11-06 18:34:30.440,135.735,0.581,0.589,0.439,-0.447,-0.942,0.216,4.88,-6.95,-41.71,0.5512,-0.7942,-0.007,-0.2553,0.031,0.058,0.071,123.725,-0.006,-0.013,-0.001,-0.13,-0.969,-0.167,27.68,-23.15,-75.7,-0.1918,0.0719,-0.639,-0.7413000000000001,0.0,-0.006,-0.005,124.435,-0.006,-0.012,0.006,-0.157,-0.986,0.099,64.04,-16.19,-65.94,0.3555,-0.2828,0.6819000000000001,0.5732,-0.003,0.003,-0.009,0.0,0.0,0.0,0.0,0.0,0.0,0.0028762817382812,-0.0005750656127929,0.036630630493164,0.0073261260986328,-0.0036630630493164,-0.0036630630493164,0.0,0.0,0.0,0.0
2025-11-06 18:34:30.440,135.68,0.473,0.653,0.387,-0.468,-0.898,0.277,6.19,-7.07,-42.47,0.5672,-0.7895000000000001,-0.0026,-0.2342,0.082,-0.001,-0.005,123.725,-0.006,-0.013,-0.001,-0.13,-0.969,-0.167,27.68,-23.15,-75.7,-0.1918,0.0719,-0.639,-0.7413000000000001,0.0,-0.006,-0.005,124.435,-0.006,-0.012,0.006,-0.157,-0.986,0.099,64.04,-16.19,-65.94,0.3555,-0.2828,0.6819000000000001,0.5732,-0.003,0.003,-0.009,0.0,0.0,0.0,0.0,0.0,0.0,0.0028762817382812,-0.0005750656127929,0.036630630493164,0.0073261260986328,-0.0036630630493164,-0.0036630630493164,0.0,0.0,0.0,0.0
2025-11-06 18:34:30.440,135.625,0.449,0.209,0.235,-0.398,-0.904,0.252,7.42,-7.01,-43.81,0.5794,-0.7848,0.0001,-0.2196,0.034,-0.007,0.004,123.725,-0.006,-0.013,-0.001,-0.13,-0.969,-0.167,27.68,-23.15,-75.7,-0.1918,0.0719,-0.639,-0.7413000000000001,0.0,-0.006,-0.005,124.435,-0.006,-0.012,0.006,-0.157,-0.986,0.099,64.04,-16.19,-65.94,0.3555,-0.2828,0.6819000000000001,0.5732,-0.003,0.003,-0.009,0.0,0.0,0.0,0.0,0.0,0.0,0.0028762817382812,-0.0005750656127929,0.036630630493164,0.0073261260986328,-0.0036630630493164,-0.0036630630493164,0.0,0.0,0.0,0.0
2025-11-06 18:34:30.440,135.685,0.489,0.676,0.397,-0.469,-0.895,0.277,6.19,-7.07,-42.47,0.5659000000000001,-0.7898000000000001,-0.003,-0.236,0.081,-0.003,-0.004,123.725,-0.006,-0.013,-0.001,-0.13,-0.969,-0.167,27.68,-23.15,-75.7,-0.1918,0.0719,-0.639,-0.7413000000000001,0.0,-0.006,-0.005,124.435,-0.006,-0.012,0.006,-0.157,-0.986,0.099,64.04,-16.19,-65.94,0.3555,-0.2828,0.6819000000000001,0.5732,-0.003,0.003,-0.009,0.0,0.0,0.0,0.0,0.0,0.0,0.0028762817382812,-0.0005750656127929,0.036630630493164,0.0073261260986328,-0.0036630630493164,-0.0036630630493164,0.0,0.0,0.0,0.0
2025-11-06 18:34:30.440,135.74,0.555,0.538,0.43,-0.433,-0.954,0.217,4.82,-7.16,-40.45,0.5498000000000001,-0.7947000000000001,-0.0072,-0.257,0.015,0.073,0.072,123.725,-0.006,-0.013,-0.001,-0.13,-0.969,-0.167,27.68,-23.15,-75.7,-0.1918,0.0719,-0.639,-0.7413000000000001,0.0,-0.006,-0.005,124.435,-0.006,-0.012,0.006,-0.157,-0.986,0.099,64.04,-16.19,-65.94,0.3555,-0.2828,0.6819000000000001,0.5732,-0.003,0.003,-0.009,0.0,0.0,0.0,0.0,0.0,0.0,0.0028762817382812,-0.0005750656127929,0.036630630493164,0.0073261260986328,-0.0036630630493164,-0.0036630630493164,0.0,0.0,0.0,0.0
2025-11-06 18:34:30.440,135.62,0.434,0.17,0.225,-0.388,-0.901,0.251,7.42,-7.01,-43.81,0.5805,-0.7842,0.0001,-0.2189,0.026,-0.011,0.003,123.725,-0.006,-0.013,-0.001,-0.13,-0.969,-0.167,27.68,-23.15,-75.7,-0.1918,0.0719,-0.639,-0.7413000000000001,0.0,-0.006,-0.005,124.435,-0.006,-0.012,0.006,-0.157,-0.986,0.099,64.04,-16.19,-65.94,0.3555,-0.2828,0.6819000000000001,0.5732,-0.003,0.003,-0.009,0.0,0.0,0.0,0.0,0.0,0.0,0.0028762817382812,-0.0005750656127929,0.036630630493164,0.0073261260986328,-0.0036630630493164,-0.0036630630493164,0.0,0.0,0.0,0.0
2025-11-06 18:34:30.440,135.75,0.499,0.472,0.409,-0.407,-0.97,0.223,4.82,-7.16,-40.45,0.5471,-0.7955,-0.0075,-0.26,-0.015,0.092,0.069,123.725,-0.006,-0.013,-0.001,-0.13,-0.969,-0.167,27.68,-23.15,-75.7,-0.1918,0.0719,-0.639,-0.7413000000000001,0.0,-0.006,-0.005,124.435,-0.006,-0.012,0.006,-0.157,-0.986,0.099,64.04,-16.19,-65.94,0.3555,-0.2828,0.6819000000000001,0.5732,-0.003,0.003,-0.009,0.0,0.0,0.0,0.0,0.0,0.0,0.0028762817382812,-0.0005750656127929,0.036630630493164,0.0073261260986328,-0.0036630630493164,-0.0036630630493164,0.0,0.0,0.0,0.0
2025-11-06 18:34:30.440,135.795,0.376,0.229,0.304,-0.381,-0.913,0.329,4.47,-7.24,-39.52,0.5381,-0.7984,-0.0075,-0.2697,-0.059,0.049,-0.028,123.725,-0.006,-0.013,-0.001,-0.13,-0.969,-0.167,27.68,-23.15,-75.7,-0.1918,0.0719,-0.639,-0.7413000000000001,0.0,-0.006,-0.005,124.435,-0.006,-0.012,0.006,-0.157,-0.986,0.099,64.04,-16.19,-65.94,0.3555,-0.2828,0.6819000000000001,0.5732,-0.003,0.003,-0.009,0.0,0.0,0.0,0.0,0.0,0.0,0.0028762817382812,-0.0005750656127929,0.036630630493164,0.0073261260986328,-0.0036630630493164,-0.0036630630493164,0.0,0.0,0.0,0.0
2025-11-06 18:34:30.440,135.79,0.359,0.264,0.303,-0.362,-0.928,0.324,4.76,-6.6000000000000005,-39.92,0.5391,-0.7981,-0.0076,-0.2689,-0.076,0.062,-0.024,123.725,-0.006,-0.013,-0.001,-0.13,-0.969,-0.167,27.68,-23.15,-75.7,-0.1918,0.0719,-0.639,-0.7413000000000001,0.0,-0.006,-0.005,124.435,-0.006,-0.012,0.006,-0.157,-0.986,0.099,64.04,-16.19,-65.94,0.3555,-0.2828,0.6819000000000001,0.5732,-0.003,0.003,-0.009,0.0,0.0,0.0,0.0,0.0,0.0,0.0028762817382812,-0.0005750656127929,0.036630630493164,0.0073261260986328,-0.0036630630493164,-0.0036630630493164,0.0,0.0,0.0,0.0
2025-11-06 18:34:30.440,135.785,0.343,0.287,0.305,-0.353,-0.941,0.315,4.76,-6.6000000000000005,-39.92,0.54,-0.7977000000000001,-0.0076,-0.268,-0.083,0.074,-0.015,123.725,-0.006,-0.013,-0.001,-0.13,-0.969,-0.167,27.68,-23.15,-75.7,-0.1918,0.0719,-0.639,-0.7413000000000001,0.0,-0.006,-0.005,124.435,-0.006,-0.012,0.006,-0.157,-0.986,0.099,64.04,-16.19,-65.94,0.3555,-0.2828,0.6819000000000001,0.5732,-0.003,0.003,-0.009,0.0,0.0,0.0,0.0,0.0,0.0,0.0028762817382812,-0.0005750656127929,0.036630630493164,0.0073261260986328,-0.0036630630493164,-0.0036630630493164,0.0,0.0,0.0,0.0
2025-11-06 18:34:30.440,135.775,0.325,0.306,0.318,-0.344,-0.956,0.28,4.26,-6.72,-39.66,0.5418000000000001,-0.7971,-0.0076,-0.266,-0.088,0.086,0.017,123.725,-0.006,-0.013,-0.001,-0.13,-0.969,-0.167,27.68,-23.15,-75.7,-0.1918,0.0719,-0.639,-0.7413000000000001,0.0,-0.006,-0.005,124.435,-0.006,-0.012,0.006,-0.157,-0.986,0.099,64.04,-16.19,-65.94,0.3555,-0.2828,0.6819000000000001,0.5732,-0.003,0.003,-0.009,0.0,0.0,0.0,0.0,0.0,0.0,0.0028762817382812,-0.0005750656127929,0.036630630493164,0.0073261260986328,-0.0036630630493164,-0.0036630630493164,0.0,0.0,0.0,0.0
2025-11-06 18:34:30.440,135.77,0.351,0.349,0.338,-0.349,-0.962,0.272,4.26,-6.72,-39.66,0.5427000000000001,-0.7969,-0.0076,-0.265,-0.081,0.091,0.025,123.725,-0.006,-0.013,-0.001,-0.13,-0.969,-0.167,27.68,-23.15,-75.7,-0.1918,0.0719,-0.639,-0.7413000000000001,0.0,-0.006,-0.005,124.435,-0.006,-0.012,0.006,-0.157,-0.986,0.099,64.04,-16.19,-65.94,0.3555,-0.2828,0.6819000000000001,0.5732,-0.003,0.003,-0.009,0.0,0.0,0.0,0.0,0.0,0.0,0.0028762817382812,-0.0005750656127929,0.036630630493164,0.0073261260986328,-0.0036630630493164,-0.0036630630493164,0.0,0.0,0.0,0.0
2025-11-06 18:34:30.440,135.765,0.386,0.377,0.358,-0.362,-0.968,0.257,4.26,-7.42,-39.66,0.5437000000000001,-0.7966000000000001,-0.0076,-0.2639,-0.067,0.095,0.038,123.725,-0.006,-0.013,-0.001,-0.13,-0.969,-0.167,27.68,-23.15,-75.7,-0.1918,0.0719,-0.639,-0.7413000000000001,0.0,-0.006,-0.005,124.435,-0.006,-0.012,0.006,-0.157,-0.986,0.099,64.04,-16.19,-65.94,0.3555,-0.2828,0.6819000000000001,0.5732,-0.003,0.003,-0.009,0.0,0.0,0.0,0.0,0.0,0.0,0.0028762817382812,-0.0005750656127929,0.036630630493164,0.0073261260986328,-0.0036630630493164,-0.0036630630493164,0.0,0.0,0.0,0.0
2025-11-06 18:34:30.440,135.805,0.382,0.165,0.308,-0.419,-0.885,0.324,3.77,-9.0,-39.08,0.5361,-0.7993,-0.0072,-0.2712,-0.024,0.022,-0.021,123.725,-0.006,-0.013,-0.001,-0.13,-0.969,-0.167,27.68,-23.15,-75.7,-0.1918,0.0719,-0.639,-0.7413000000000001,0.0,-0.006,-0.005,124.435,-0.006,-0.012,0.006,-0.157,-0.986,0.099,64.04,-16.19,-65.94,0.3555,-0.2828,0.6819000000000001,0.5732,-0.003,0.003,-0.009,0.0,0.0,0.0,0.0,0.0,0.0,0.0028762817382812,-0.0005750656127929,0.036630630493164,0.0073261260986328,-0.0036630630493164,-0.0036630630493164,0.0,0.0,0.0,0.0
2025-11-06 18:34:30.440,135.76,0.426,0.405,0.378,-0.377,-0.97,0.242,4.29,-7.42,-40.39,0.5447000000000001,-0.7963,-0.0076,-0.2627,-0.049,0.096,0.052,123.725,-0.006,-0.013,-0.001,-0.13,-0.969,-0.167,27.68,-23.15,-75.7,-0.1918,0.0719,-0.639,-0.7413000000000001,0.0,-0.006,-0.005,124.435,-0.006,-0.012,0.006,-0.157,-0.986,0.099,64.04,-16.19,-65.94,0.3555,-0.2828,0.6819000000000001,0.5732,-0.003,0.003,-0.009,0.0,0.0,0.0,0.0,0.0,0.0,0.0028762817382812,-0.0005750656127929,0.036630630493164,0.0073261260986328,-0.0036630630493164,-0.0036630630493164,0.0,0.0,0.0,0.0
2025-11-06 18:34:30.440,135.78,0.331,0.302,0.311,-0.35,-0.95,0.305,4.76,-6.6000000000000005,-39.92,0.5409,-0.7974,-0.0076,-0.267,-0.085,0.081,-0.007,123.725,-0.006,-0.013,-0.001,-0.13,-0.969,-0.167,27.68,-23.15,-75.7,-0.1918,0.0719,-0.639,-0.7413000000000001,0.0,-0.006,-0.005,124.435,-0.006,-0.012,0.006,-0.157,-0.986,0.099,64.04,-16.19,-65.94,0.3555,-0.2828,0.6819000000000001,0.5732,-0.003,0.003,-0.009,0.0,0.0,0.0,0.0,0.0,0.0,0.0028762817382812,-0.0005750656127929,0.036630630493164,0.0073261260986328,-0.0036630630493164,-0.0036630630493164,0.0,0.0,0.0,0.0
2025-11-06 18:34:30.440,135.81,0.378,0.135,0.316,-0.421,-0.871,0.312,3.77,-9.0,-39.08,0.5351,-0.7997000000000001,-0.007,-0.2719,-0.024,0.009,-0.008,123.725,-0.006,-0.013,-0.001,-0.13,-0.969,-0.167,27.68,-23.15,-75.7,-0.1918,0.0719,-0.639,-0.7413000000000001,0.0,-0.006,-0.005,124.435,-0.006,-0.012,0.006,-0.157,-0.986,0.099,64.04,-16.19,-65.94,0.3555,-0.2828,0.6819000000000001,0.5732,-0.003,0.003,-0.009,0.0,0.0,0.0,0.0,0.0,0.0,0.0028762817382812,-0.0005750656127929,0.036630630493164,0.0073261260986328,-0.0036630630493164,-0.0036630630493164,0.0,0.0,0.0,0.0
2025-11-06 18:34:30.440,135.85,0.277,0.153,0.214,-0.519,-0.85,0.275,3.65,-7.86,-38.26,0.5281,-0.8028000000000001,-0.0054,-0.2766,0.062,-0.003,0.037,123.725,-0.006,-0.013,-0.001,-0.13,-0.969,-0.167,27.68,-23.15,-75.7,-0.1918,0.0719,-0.639,-0.7413000000000001,0.0,-0.006,-0.005,124.435,-0.006,-0.012,0.006,-0.157,-0.986,0.099,64.04,-16.19,-65.94,0.3555,-0.2828,0.6819000000000001,0.5732,-0.003,0.003,-0.009,0.0,0.0,0.0,0.0,0.0,0.0,0.0028762817382812,-0.0005750656127929,0.036630630493164,0.0073261260986328,-0.0036630630493164,-0.0036630630493164,0.0,0.0,0.0,0.0
2025-11-06 18:34:30.440,135.815,0.368,0.102,0.322,-0.44,-0.864,0.313,3.77,-9.0,-39.08,0.5341,-0.8002,-0.0068,-0.2725,-0.006,0.003,-0.008,123.725,-0.006,-0.013,-0.001,-0.13,-0.969,-0.167,27.68,-23.15,-75.7,-0.1918,0.0719,-0.639,-0.7413000000000001,0.0,-0.006,-0.005,124.435,-0.006,-0.012,0.006,-0.157,-0.986,0.099,64.04,-16.19,-65.94,0.3555,-0.2828,0.6819000000000001,0.5732,-0.003,0.003,-0.009,0.0,0.0,0.0,0.0,0.0,0.0,0.0028762817382812,-0.0005750656127929,0.036630630493164,0.0073261260986328,-0.0036630630493164,-0.0036630630493164,0.0,0.0,0.0,0.0
2025-11-06 18:34:30.440,135.8,0.378,0.187,0.31,-0.398,-0.897,0.326,4.47,-7.24,-39.52,0.5371,-0.7988000000000001,-0.0074,-0.2705,-0.044,0.033,-0.024,123.725,-0.006,-0.013,-0.001,-0.13,-0.969,-0.167,27.68,-23.15,-75.7,-0.1918,0.0719,-0.639,-0.7413000000000001,0.0,-0.006,-0.005,124.435,-0.006,-0.012,0.006,-0.157,-0.986,0.099,64.04,-16.19,-65.94,0.3555,-0.2828,0.6819000000000001,0.5732,-0.003,0.003,-0.009,0.0,0.0,0.0,0.0,0.0,0.0,0.0028762817382812,-0.0005750656127929,0.036630630493164,0.0073261260986328,-0.0036630630493164,-0.0036630630493164,0.0,0.0,0.0,0.0
2025-11-06 18:34:30.440,135.83,0.342,0.11,0.296,-0.479,-0.851,0.294,4.0600000000000005,-7.95,-38.46,0.5313,-0.8015,-0.006,-0.2742,0.026,-0.006,0.014,123.725,-0.006,-0.013,-0.001,-0.13,-0.969,-0.167,27.68,-23.15,-75.7,-0.1918,0.0719,-0.639,-0.7413000000000001,0.0,-0.006,-0.005,124.435,-0.006,-0.012,0.006,-0.157,-0.986,0.099,64.04,-16.19,-65.94,0.3555,-0.2828,0.6819000000000001,0.5732,-0.003,0.003,-0.009,0.0,0.0,0.0,0.0,0.0,0.0,0.0028762817382812,-0.0005750656127929,0.036630630493164,0.0073261260986328,-0.0036630630493164,-0.0036630630493164,0.0,0.0,0.0,0.0
